( PCB Contour )
( Generated by Rapid-PCB.com )
( Material Size)
( X= 160.000, Y= 100.000, Z= 1.580)
()
G00
G17
G21
G40
G49
G54
G80
G90
G94
G00 F3000 Z3.000
M03 S9000
G00 F3000 X104.013 Y66.045
G00 F1500 Z0
G01 F600 Z-0.200
G01 F600 X103.860 Y66.012
G01 F600 X103.718 Y65.949
G01 F600 X103.592 Y65.857
G01 F600 X103.493 Y65.748
G01 F600 X95.161 Y54.869
G01 F600 X48.992 Y54.869
G01 F600 X48.975 Y54.872
G01 F600 X48.873 Y54.894
G01 F600 X21.767 Y54.894
G01 F600 X21.615 Y54.862
G01 F600 X21.473 Y54.798
G01 F600 X21.347 Y54.707
G01 F600 X21.242 Y54.591
G01 F600 X21.164 Y54.456
G01 F600 X21.116 Y54.308
G01 F600 X21.112 Y54.265
G01 F600 X21.101 Y54.161
G01 F600 X21.050 Y50.921
G01 F600 X21.066 Y50.772
G01 F600 X21.087 Y50.707
G01 F600 X21.017 Y50.628
G01 F600 X20.916 Y50.454
G01 F600 X20.854 Y50.263
G01 F600 X20.833 Y50.063
G01 F600 X20.854 Y49.864
G01 F600 X20.916 Y49.672
G01 F600 X21.017 Y49.498
G01 F600 X21.151 Y49.349
G01 F600 X21.314 Y49.231
G01 F600 X21.498 Y49.149
G01 F600 X21.694 Y49.107
G01 F600 X21.895 Y49.107
G01 F600 X22.091 Y49.149
G01 F600 X22.275 Y49.231
G01 F600 X22.438 Y49.349
G01 F600 X22.572 Y49.498
G01 F600 X22.673 Y49.672
G01 F600 X22.735 Y49.864
G01 F600 X22.756 Y50.063
G01 F600 X22.735 Y50.263
G01 F600 X22.673 Y50.454
G01 F600 X22.573 Y50.627
G01 F600 X22.503 Y50.709
G01 F600 X22.524 Y50.772
G01 F600 X22.539 Y50.919
G01 F600 X22.578 Y53.412
G01 F600 X48.038 Y53.412
G01 F600 X47.999 Y50.921
G01 F600 X48.014 Y50.783
G01 F600 X48.023 Y50.720
G01 F600 X47.941 Y50.628
G01 F600 X47.840 Y50.454
G01 F600 X47.778 Y50.263
G01 F600 X47.757 Y50.063
G01 F600 X47.778 Y49.864
G01 F600 X47.840 Y49.672
G01 F600 X47.941 Y49.498
G01 F600 X48.075 Y49.349
G01 F600 X48.238 Y49.231
G01 F600 X48.422 Y49.149
G01 F600 X48.618 Y49.107
G01 F600 X48.819 Y49.107
G01 F600 X49.016 Y49.149
G01 F600 X49.199 Y49.231
G01 F600 X49.362 Y49.349
G01 F600 X49.496 Y49.498
G01 F600 X49.597 Y49.672
G01 F600 X49.659 Y49.864
G01 F600 X49.680 Y50.063
G01 F600 X49.659 Y50.263
G01 F600 X49.597 Y50.454
G01 F600 X49.501 Y50.619
G01 F600 X49.449 Y50.699
G01 F600 X49.473 Y50.772
G01 F600 X49.488 Y50.919
G01 F600 X49.528 Y53.386
G01 F600 X80.042 Y53.386
G01 F600 X80.003 Y50.921
G01 F600 X80.018 Y50.783
G01 F600 X80.027 Y50.720
G01 F600 X79.945 Y50.628
G01 F600 X79.844 Y50.454
G01 F600 X79.782 Y50.263
G01 F600 X79.761 Y50.063
G01 F600 X79.782 Y49.864
G01 F600 X79.844 Y49.672
G01 F600 X79.945 Y49.498
G01 F600 X80.079 Y49.349
G01 F600 X80.242 Y49.231
G01 F600 X80.425 Y49.149
G01 F600 X80.622 Y49.107
G01 F600 X80.823 Y49.107
G01 F600 X81.020 Y49.149
G01 F600 X81.203 Y49.231
G01 F600 X81.366 Y49.349
G01 F600 X81.500 Y49.498
G01 F600 X81.601 Y49.672
G01 F600 X81.663 Y49.864
G01 F600 X81.684 Y50.063
G01 F600 X81.663 Y50.263
G01 F600 X81.601 Y50.454
G01 F600 X81.505 Y50.619
G01 F600 X81.453 Y50.699
G01 F600 X81.477 Y50.772
G01 F600 X81.492 Y50.919
G01 F600 X81.532 Y53.386
G01 F600 X95.609 Y53.386
G01 F600 X95.761 Y53.419
G01 F600 X95.903 Y53.482
G01 F600 X96.029 Y53.574
G01 F600 X96.128 Y53.683
G01 F600 X104.460 Y64.562
G01 F600 X115.915 Y64.562
G01 F600 X116.749 Y62.833
G01 F600 X116.824 Y62.705
G01 F600 X116.874 Y62.652
G01 F600 X116.818 Y62.482
G01 F600 X116.794 Y62.255
G01 F600 X116.818 Y62.029
G01 F600 X116.889 Y61.813
G01 F600 X117.002 Y61.616
G01 F600 X117.154 Y61.447
G01 F600 X117.339 Y61.313
G01 F600 X117.546 Y61.220
G01 F600 X117.769 Y61.173
G01 F600 X117.997 Y61.173
G01 F600 X118.028 Y61.180
G01 F600 X118.042 Y61.157
G01 F600 X118.142 Y61.045
G01 F600 X120.178 Y59.284
G01 F600 X120.683 Y48.755
G01 F600 X118.791 Y48.772
G01 F600 X118.670 Y48.906
G01 F600 X118.471 Y49.051
G01 F600 X118.247 Y49.151
G01 F600 X118.006 Y49.202
G01 F600 X117.760 Y49.202
G01 F600 X117.519 Y49.151
G01 F600 X117.294 Y49.051
G01 F600 X117.095 Y48.906
G01 F600 X116.930 Y48.723
G01 F600 X116.807 Y48.510
G01 F600 X116.731 Y48.276
G01 F600 X116.706 Y48.031
G01 F600 X116.731 Y47.787
G01 F600 X116.807 Y47.553
G01 F600 X116.930 Y47.340
G01 F600 X117.095 Y47.157
G01 F600 X117.294 Y47.012
G01 F600 X117.519 Y46.912
G01 F600 X117.760 Y46.861
G01 F600 X118.006 Y46.861
G01 F600 X118.247 Y46.912
G01 F600 X118.471 Y47.012
G01 F600 X118.671 Y47.157
G01 F600 X118.788 Y47.289
G01 F600 X120.720 Y47.271
G01 F600 X120.720 Y38.680
G01 F600 X100.219 Y39.095
G01 F600 X100.076 Y39.095
G01 F600 X99.923 Y39.063
G01 F600 X99.781 Y39.000
G01 F600 X99.655 Y38.908
G01 F600 X99.559 Y38.801
G01 F600 X83.428 Y19.745
G01 F600 X77.491 Y19.809
G01 F600 X77.530 Y22.256
G01 F600 X77.515 Y22.405
G01 F600 X77.487 Y22.490
G01 F600 X77.563 Y22.574
G01 F600 X77.664 Y22.748
G01 F600 X77.726 Y22.940
G01 F600 X77.747 Y23.139
G01 F600 X77.726 Y23.339
G01 F600 X77.664 Y23.530
G01 F600 X77.563 Y23.704
G01 F600 X77.429 Y23.854
G01 F600 X77.266 Y23.972
G01 F600 X77.083 Y24.054
G01 F600 X76.886 Y24.095
G01 F600 X76.685 Y24.095
G01 F600 X76.489 Y24.054
G01 F600 X76.305 Y23.972
G01 F600 X76.142 Y23.854
G01 F600 X76.008 Y23.704
G01 F600 X75.907 Y23.530
G01 F600 X75.845 Y23.339
G01 F600 X75.824 Y23.139
G01 F600 X75.845 Y22.940
G01 F600 X75.907 Y22.748
G01 F600 X76.008 Y22.574
G01 F600 X76.084 Y22.491
G01 F600 X76.056 Y22.405
G01 F600 X76.041 Y22.259
G01 F600 X76.002 Y19.806
G01 F600 X47.010 Y19.322
G01 F600 X47.014 Y19.602
G01 F600 X47.050 Y22.257
G01 F600 X47.035 Y22.405
G01 F600 X47.007 Y22.490
G01 F600 X47.083 Y22.574
G01 F600 X47.184 Y22.748
G01 F600 X47.246 Y22.940
G01 F600 X47.267 Y23.139
G01 F600 X47.246 Y23.339
G01 F600 X47.184 Y23.530
G01 F600 X47.083 Y23.704
G01 F600 X46.949 Y23.854
G01 F600 X46.786 Y23.972
G01 F600 X46.602 Y24.054
G01 F600 X46.406 Y24.095
G01 F600 X46.205 Y24.095
G01 F600 X46.009 Y24.054
G01 F600 X45.825 Y23.972
G01 F600 X45.662 Y23.854
G01 F600 X45.528 Y23.704
G01 F600 X45.427 Y23.530
G01 F600 X45.365 Y23.339
G01 F600 X45.344 Y23.139
G01 F600 X45.365 Y22.940
G01 F600 X45.427 Y22.748
G01 F600 X45.528 Y22.574
G01 F600 X45.604 Y22.491
G01 F600 X45.576 Y22.405
G01 F600 X45.561 Y22.258
G01 F600 X45.523 Y19.530
G01 F600 X45.520 Y19.309
G01 F600 X21.102 Y19.309
G01 F600 X21.142 Y22.257
G01 F600 X21.127 Y22.405
G01 F600 X21.099 Y22.490
G01 F600 X21.175 Y22.574
G01 F600 X21.276 Y22.748
G01 F600 X21.338 Y22.940
G01 F600 X21.359 Y23.139
G01 F600 X21.338 Y23.339
G01 F600 X21.276 Y23.530
G01 F600 X21.175 Y23.704
G01 F600 X21.041 Y23.854
G01 F600 X20.878 Y23.972
G01 F600 X20.695 Y24.054
G01 F600 X20.498 Y24.095
G01 F600 X20.297 Y24.095
G01 F600 X20.101 Y24.054
G01 F600 X19.917 Y23.972
G01 F600 X19.754 Y23.854
G01 F600 X19.620 Y23.704
G01 F600 X19.519 Y23.530
G01 F600 X19.457 Y23.339
G01 F600 X19.436 Y23.139
G01 F600 X19.457 Y22.940
G01 F600 X19.519 Y22.748
G01 F600 X19.620 Y22.574
G01 F600 X19.696 Y22.491
G01 F600 X19.668 Y22.405
G01 F600 X19.653 Y22.258
G01 F600 X19.602 Y18.561
G01 F600 X19.618 Y18.412
G01 F600 X19.666 Y18.264
G01 F600 X19.744 Y18.129
G01 F600 X19.848 Y18.014
G01 F600 X19.974 Y17.922
G01 F600 X20.116 Y17.858
G01 F600 X20.269 Y17.826
G01 F600 X46.320 Y17.826
G01 F600 X76.749 Y18.333
G01 F600 X83.706 Y18.258
G01 F600 X83.848 Y18.258
G01 F600 X84.001 Y18.290
G01 F600 X84.143 Y18.354
G01 F600 X84.269 Y18.445
G01 F600 X84.365 Y18.552
G01 F600 X100.492 Y37.605
G01 F600 X121.399 Y37.181
G01 F600 X121.542 Y37.181
G01 F600 X121.694 Y37.213
G01 F600 X121.837 Y37.277
G01 F600 X121.963 Y37.368
G01 F600 X122.067 Y37.484
G01 F600 X122.145 Y37.619
G01 F600 X122.193 Y37.767
G01 F600 X122.209 Y37.915
G01 F600 X122.209 Y48.009
G01 F600 X121.650 Y59.650
G01 F600 X121.634 Y59.794
G01 F600 X121.586 Y59.942
G01 F600 X121.508 Y60.077
G01 F600 X121.408 Y60.189
G01 F600 X119.137 Y62.154
G01 F600 X119.017 Y62.241
G01 F600 X118.970 Y62.261
G01 F600 X118.947 Y62.482
G01 F600 X118.877 Y62.698
G01 F600 X118.763 Y62.895
G01 F600 X118.611 Y63.064
G01 F600 X118.427 Y63.198
G01 F600 X118.219 Y63.290
G01 F600 X118.153 Y63.304
G01 F600 X118.108 Y63.443
G01 F600 X117.060 Y65.615
G01 F600 X116.987 Y65.742
G01 F600 X116.883 Y65.857
G01 F600 X116.757 Y65.949
G01 F600 X116.614 Y66.012
G01 F600 X116.462 Y66.045
G01 F600 X104.013 Y66.045
G00 F3000 Z3.000
G00 F3000 X115.229 Y63.338
G00 F1500 Z0
G01 F600 Z-0.200
G01 F600 X115.006 Y63.290
G01 F600 X114.799 Y63.198
G01 F600 X114.615 Y63.064
G01 F600 X114.462 Y62.895
G01 F600 X114.349 Y62.698
G01 F600 X114.278 Y62.482
G01 F600 X114.255 Y62.255
G01 F600 X114.278 Y62.029
G01 F600 X114.349 Y61.813
G01 F600 X114.462 Y61.616
G01 F600 X114.615 Y61.447
G01 F600 X114.799 Y61.313
G01 F600 X115.006 Y61.220
G01 F600 X115.229 Y61.173
G01 F600 X115.457 Y61.173
G01 F600 X115.679 Y61.220
G01 F600 X115.887 Y61.313
G01 F600 X116.071 Y61.447
G01 F600 X116.223 Y61.616
G01 F600 X116.337 Y61.813
G01 F600 X116.407 Y62.029
G01 F600 X116.431 Y62.255
G01 F600 X116.407 Y62.482
G01 F600 X116.337 Y62.698
G01 F600 X116.223 Y62.895
G01 F600 X116.071 Y63.064
G01 F600 X115.887 Y63.198
G01 F600 X115.679 Y63.290
G01 F600 X115.457 Y63.338
G01 F600 X115.229 Y63.338
G00 F3000 Z3.000
G00 F3000 X110.149 Y63.338
G00 F1500 Z0
G01 F600 Z-0.200
G01 F600 X109.926 Y63.290
G01 F600 X109.719 Y63.198
G01 F600 X109.535 Y63.064
G01 F600 X109.382 Y62.895
G01 F600 X109.269 Y62.698
G01 F600 X109.198 Y62.482
G01 F600 X109.175 Y62.255
G01 F600 X109.198 Y62.029
G01 F600 X109.269 Y61.813
G01 F600 X109.382 Y61.616
G01 F600 X109.535 Y61.447
G01 F600 X109.719 Y61.313
G01 F600 X109.926 Y61.220
G01 F600 X110.149 Y61.173
G01 F600 X110.377 Y61.173
G01 F600 X110.599 Y61.220
G01 F600 X110.807 Y61.313
G01 F600 X110.991 Y61.447
G01 F600 X111.143 Y61.616
G01 F600 X111.257 Y61.813
G01 F600 X111.327 Y62.029
G01 F600 X111.351 Y62.255
G01 F600 X111.327 Y62.482
G01 F600 X111.257 Y62.698
G01 F600 X111.143 Y62.895
G01 F600 X110.991 Y63.064
G01 F600 X110.807 Y63.198
G01 F600 X110.599 Y63.290
G01 F600 X110.377 Y63.338
G01 F600 X110.149 Y63.338
G00 F3000 Z3.000
G00 F3000 X112.689 Y63.338
G00 F1500 Z0
G01 F600 Z-0.200
G01 F600 X112.466 Y63.290
G01 F600 X112.259 Y63.198
G01 F600 X112.075 Y63.064
G01 F600 X111.922 Y62.895
G01 F600 X111.809 Y62.698
G01 F600 X111.738 Y62.482
G01 F600 X111.715 Y62.255
G01 F600 X111.738 Y62.029
G01 F600 X111.809 Y61.813
G01 F600 X111.922 Y61.616
G01 F600 X112.075 Y61.447
G01 F600 X112.259 Y61.313
G01 F600 X112.466 Y61.220
G01 F600 X112.689 Y61.173
G01 F600 X112.916 Y61.173
G01 F600 X113.139 Y61.220
G01 F600 X113.347 Y61.313
G01 F600 X113.531 Y61.447
G01 F600 X113.683 Y61.616
G01 F600 X113.797 Y61.813
G01 F600 X113.867 Y62.029
G01 F600 X113.891 Y62.255
G01 F600 X113.867 Y62.482
G01 F600 X113.797 Y62.698
G01 F600 X113.683 Y62.895
G01 F600 X113.531 Y63.064
G01 F600 X113.347 Y63.198
G01 F600 X113.139 Y63.290
G01 F600 X112.916 Y63.338
G01 F600 X112.689 Y63.338
G00 F3000 Z3.000
G00 F3000 X103.047 Y58.425
G00 F1500 Z0
G01 F600 Z-0.200
G01 F600 X102.895 Y58.392
G01 F600 X102.753 Y58.329
G01 F600 X102.627 Y58.237
G01 F600 X102.531 Y58.131
G01 F600 X96.132 Y50.805
G01 F600 X83.540 Y50.805
G01 F600 X83.388 Y50.772
G01 F600 X83.380 Y50.769
G01 F600 X83.372 Y50.778
G01 F600 X83.210 Y50.896
G01 F600 X83.026 Y50.978
G01 F600 X82.830 Y51.019
G01 F600 X82.629 Y51.019
G01 F600 X82.432 Y50.978
G01 F600 X82.249 Y50.896
G01 F600 X82.086 Y50.778
G01 F600 X81.951 Y50.628
G01 F600 X81.851 Y50.454
G01 F600 X81.789 Y50.263
G01 F600 X81.768 Y50.063
G01 F600 X81.789 Y49.864
G01 F600 X81.851 Y49.672
G01 F600 X81.951 Y49.498
G01 F600 X82.086 Y49.349
G01 F600 X82.249 Y49.231
G01 F600 X82.432 Y49.149
G01 F600 X82.629 Y49.107
G01 F600 X82.830 Y49.107
G01 F600 X83.026 Y49.149
G01 F600 X83.210 Y49.231
G01 F600 X83.372 Y49.349
G01 F600 X83.380 Y49.358
G01 F600 X83.388 Y49.355
G01 F600 X83.540 Y49.322
G01 F600 X96.548 Y49.322
G01 F600 X96.701 Y49.355
G01 F600 X96.843 Y49.418
G01 F600 X96.969 Y49.510
G01 F600 X97.065 Y49.616
G01 F600 X103.461 Y56.939
G01 F600 X117.172 Y56.845
G01 F600 X117.147 Y55.723
G01 F600 X116.795 Y55.723
G01 F600 X116.795 Y53.548
G01 F600 X118.970 Y53.548
G01 F600 X118.970 Y55.723
G01 F600 X118.636 Y55.723
G01 F600 X118.678 Y57.587
G01 F600 X118.663 Y57.737
G01 F600 X118.614 Y57.885
G01 F600 X118.537 Y58.020
G01 F600 X118.432 Y58.136
G01 F600 X118.306 Y58.227
G01 F600 X118.164 Y58.291
G01 F600 X118.012 Y58.323
G01 F600 X103.190 Y58.425
G01 F600 X103.047 Y58.425
G00 F3000 Z3.000
G00 F3000 X115.229 Y55.718
G00 F1500 Z0
G01 F600 Z-0.200
G01 F600 X115.006 Y55.670
G01 F600 X114.799 Y55.578
G01 F600 X114.615 Y55.444
G01 F600 X114.462 Y55.275
G01 F600 X114.349 Y55.078
G01 F600 X114.278 Y54.862
G01 F600 X114.255 Y54.635
G01 F600 X114.278 Y54.409
G01 F600 X114.349 Y54.193
G01 F600 X114.462 Y53.996
G01 F600 X114.615 Y53.827
G01 F600 X114.799 Y53.693
G01 F600 X115.006 Y53.600
G01 F600 X115.229 Y53.553
G01 F600 X115.457 Y53.553
G01 F600 X115.679 Y53.600
G01 F600 X115.887 Y53.693
G01 F600 X116.071 Y53.827
G01 F600 X116.223 Y53.996
G01 F600 X116.337 Y54.193
G01 F600 X116.407 Y54.409
G01 F600 X116.431 Y54.635
G01 F600 X116.407 Y54.862
G01 F600 X116.337 Y55.078
G01 F600 X116.223 Y55.275
G01 F600 X116.071 Y55.444
G01 F600 X115.887 Y55.578
G01 F600 X115.679 Y55.670
G01 F600 X115.457 Y55.718
G01 F600 X115.229 Y55.718
G00 F3000 Z3.000
G00 F3000 X110.149 Y55.718
G00 F1500 Z0
G01 F600 Z-0.200
G01 F600 X109.926 Y55.670
G01 F600 X109.719 Y55.578
G01 F600 X109.535 Y55.444
G01 F600 X109.382 Y55.275
G01 F600 X109.269 Y55.078
G01 F600 X109.198 Y54.862
G01 F600 X109.175 Y54.635
G01 F600 X109.198 Y54.409
G01 F600 X109.269 Y54.193
G01 F600 X109.382 Y53.996
G01 F600 X109.534 Y53.827
G01 F600 X109.547 Y53.817
G01 F600 X109.534 Y53.774
G01 F600 X109.518 Y53.627
G01 F600 X109.518 Y46.233
G01 F600 X79.506 Y46.233
G01 F600 X79.486 Y49.182
G01 F600 X79.470 Y49.329
G01 F600 X79.436 Y49.435
G01 F600 X79.494 Y49.498
G01 F600 X79.594 Y49.672
G01 F600 X79.656 Y49.864
G01 F600 X79.677 Y50.063
G01 F600 X79.656 Y50.263
G01 F600 X79.594 Y50.454
G01 F600 X79.494 Y50.628
G01 F600 X79.359 Y50.778
G01 F600 X79.197 Y50.896
G01 F600 X79.013 Y50.978
G01 F600 X78.816 Y51.019
G01 F600 X78.615 Y51.019
G01 F600 X78.419 Y50.978
G01 F600 X78.235 Y50.896
G01 F600 X78.073 Y50.778
G01 F600 X77.938 Y50.628
G01 F600 X77.838 Y50.454
G01 F600 X77.776 Y50.263
G01 F600 X77.755 Y50.063
G01 F600 X77.776 Y49.864
G01 F600 X77.838 Y49.672
G01 F600 X77.938 Y49.498
G01 F600 X78.033 Y49.393
G01 F600 X78.012 Y49.329
G01 F600 X77.997 Y49.181
G01 F600 X78.034 Y26.929
G01 F600 X23.059 Y26.929
G01 F600 X22.632 Y46.266
G01 F600 X46.623 Y46.198
G01 F600 X46.764 Y46.198
G01 F600 X46.917 Y46.230
G01 F600 X47.059 Y46.294
G01 F600 X47.185 Y46.385
G01 F600 X47.290 Y46.501
G01 F600 X47.367 Y46.636
G01 F600 X47.416 Y46.784
G01 F600 X47.431 Y46.931
G01 F600 X47.457 Y49.181
G01 F600 X47.441 Y49.329
G01 F600 X47.413 Y49.414
G01 F600 X47.490 Y49.498
G01 F600 X47.590 Y49.672
G01 F600 X47.652 Y49.864
G01 F600 X47.673 Y50.063
G01 F600 X47.652 Y50.263
G01 F600 X47.590 Y50.454
G01 F600 X47.490 Y50.628
G01 F600 X47.355 Y50.778
G01 F600 X47.193 Y50.896
G01 F600 X47.009 Y50.978
G01 F600 X46.812 Y51.019
G01 F600 X46.611 Y51.019
G01 F600 X46.415 Y50.978
G01 F600 X46.231 Y50.896
G01 F600 X46.069 Y50.778
G01 F600 X45.934 Y50.628
G01 F600 X45.834 Y50.454
G01 F600 X45.772 Y50.263
G01 F600 X45.751 Y50.063
G01 F600 X45.772 Y49.864
G01 F600 X45.834 Y49.672
G01 F600 X45.935 Y49.498
G01 F600 X46.011 Y49.415
G01 F600 X45.983 Y49.329
G01 F600 X45.967 Y49.182
G01 F600 X45.950 Y47.683
G01 F600 X21.977 Y47.751
G01 F600 X21.949 Y47.757
G01 F600 X20.575 Y47.757
G01 F600 X20.572 Y48.008
G01 F600 X20.558 Y49.182
G01 F600 X20.542 Y49.329
G01 F600 X20.508 Y49.435
G01 F600 X20.566 Y49.498
G01 F600 X20.666 Y49.672
G01 F600 X20.728 Y49.864
G01 F600 X20.749 Y50.063
G01 F600 X20.728 Y50.263
G01 F600 X20.666 Y50.454
G01 F600 X20.566 Y50.628
G01 F600 X20.431 Y50.778
G01 F600 X20.268 Y50.896
G01 F600 X20.085 Y50.978
G01 F600 X19.888 Y51.019
G01 F600 X19.687 Y51.019
G01 F600 X19.491 Y50.978
G01 F600 X19.307 Y50.896
G01 F600 X19.145 Y50.778
G01 F600 X19.010 Y50.628
G01 F600 X18.910 Y50.454
G01 F600 X18.848 Y50.263
G01 F600 X18.827 Y50.063
G01 F600 X18.848 Y49.864
G01 F600 X18.910 Y49.672
G01 F600 X19.010 Y49.498
G01 F600 X19.105 Y49.393
G01 F600 X19.084 Y49.329
G01 F600 X19.069 Y49.181
G01 F600 X19.094 Y47.008
G01 F600 X19.110 Y46.860
G01 F600 X19.158 Y46.712
G01 F600 X19.236 Y46.577
G01 F600 X19.340 Y46.462
G01 F600 X19.466 Y46.370
G01 F600 X19.608 Y46.306
G01 F600 X19.761 Y46.274
G01 F600 X21.143 Y46.270
G01 F600 X21.634 Y23.994
G01 F600 X21.650 Y23.848
G01 F600 X21.659 Y23.821
G01 F600 X21.659 Y23.741
G01 F600 X21.626 Y23.704
G01 F600 X21.526 Y23.530
G01 F600 X21.464 Y23.339
G01 F600 X21.443 Y23.139
G01 F600 X21.464 Y22.940
G01 F600 X21.526 Y22.748
G01 F600 X21.626 Y22.574
G01 F600 X21.761 Y22.425
G01 F600 X21.924 Y22.307
G01 F600 X22.107 Y22.225
G01 F600 X22.304 Y22.183
G01 F600 X22.505 Y22.183
G01 F600 X22.701 Y22.225
G01 F600 X22.885 Y22.307
G01 F600 X23.047 Y22.425
G01 F600 X23.182 Y22.574
G01 F600 X23.282 Y22.748
G01 F600 X23.344 Y22.940
G01 F600 X23.365 Y23.139
G01 F600 X23.344 Y23.339
G01 F600 X23.282 Y23.530
G01 F600 X23.182 Y23.704
G01 F600 X23.149 Y23.741
G01 F600 X23.131 Y25.446
G01 F600 X47.542 Y25.446
G01 F600 X47.542 Y23.996
G01 F600 X47.558 Y23.848
G01 F600 X47.567 Y23.821
G01 F600 X47.567 Y23.741
G01 F600 X47.534 Y23.704
G01 F600 X47.434 Y23.530
G01 F600 X47.372 Y23.339
G01 F600 X47.351 Y23.139
G01 F600 X47.372 Y22.940
G01 F600 X47.434 Y22.748
G01 F600 X47.534 Y22.574
G01 F600 X47.669 Y22.425
G01 F600 X47.832 Y22.307
G01 F600 X48.015 Y22.225
G01 F600 X48.212 Y22.183
G01 F600 X48.413 Y22.183
G01 F600 X48.609 Y22.225
G01 F600 X48.793 Y22.307
G01 F600 X48.955 Y22.425
G01 F600 X49.090 Y22.574
G01 F600 X49.190 Y22.748
G01 F600 X49.252 Y22.940
G01 F600 X49.273 Y23.139
G01 F600 X49.252 Y23.339
G01 F600 X49.190 Y23.530
G01 F600 X49.090 Y23.704
G01 F600 X49.057 Y23.741
G01 F600 X49.039 Y25.446
G01 F600 X78.022 Y25.446
G01 F600 X78.022 Y23.996
G01 F600 X78.038 Y23.846
G01 F600 X78.068 Y23.764
G01 F600 X78.014 Y23.704
G01 F600 X77.914 Y23.530
G01 F600 X77.852 Y23.339
G01 F600 X77.831 Y23.139
G01 F600 X77.852 Y22.940
G01 F600 X77.914 Y22.748
G01 F600 X78.014 Y22.574
G01 F600 X78.149 Y22.425
G01 F600 X78.312 Y22.307
G01 F600 X78.495 Y22.225
G01 F600 X78.692 Y22.183
G01 F600 X78.893 Y22.183
G01 F600 X79.089 Y22.225
G01 F600 X79.273 Y22.307
G01 F600 X79.435 Y22.425
G01 F600 X79.570 Y22.574
G01 F600 X79.670 Y22.748
G01 F600 X79.732 Y22.940
G01 F600 X79.753 Y23.139
G01 F600 X79.732 Y23.339
G01 F600 X79.670 Y23.530
G01 F600 X79.571 Y23.703
G01 F600 X79.501 Y23.785
G01 F600 X79.521 Y23.848
G01 F600 X79.537 Y23.996
G01 F600 X79.495 Y44.750
G01 F600 X109.518 Y44.750
G01 F600 X109.518 Y44.077
G01 F600 X109.137 Y44.077
G01 F600 X109.137 Y41.826
G01 F600 X111.388 Y41.826
G01 F600 X111.388 Y44.077
G01 F600 X111.007 Y44.077
G01 F600 X111.007 Y44.750
G01 F600 X116.843 Y44.750
G01 F600 X116.954 Y44.774
G01 F600 X117.095 Y44.617
G01 F600 X117.294 Y44.472
G01 F600 X117.519 Y44.372
G01 F600 X117.760 Y44.321
G01 F600 X118.006 Y44.321
G01 F600 X118.247 Y44.372
G01 F600 X118.471 Y44.472
G01 F600 X118.670 Y44.617
G01 F600 X118.835 Y44.800
G01 F600 X118.958 Y45.013
G01 F600 X119.034 Y45.247
G01 F600 X119.060 Y45.491
G01 F600 X119.034 Y45.736
G01 F600 X118.958 Y45.970
G01 F600 X118.835 Y46.183
G01 F600 X118.670 Y46.366
G01 F600 X118.471 Y46.511
G01 F600 X118.247 Y46.611
G01 F600 X118.006 Y46.662
G01 F600 X117.760 Y46.662
G01 F600 X117.519 Y46.611
G01 F600 X117.294 Y46.511
G01 F600 X117.095 Y46.366
G01 F600 X116.954 Y46.209
G01 F600 X116.843 Y46.233
G01 F600 X111.007 Y46.233
G01 F600 X111.007 Y53.627
G01 F600 X110.992 Y53.775
G01 F600 X110.978 Y53.817
G01 F600 X110.991 Y53.827
G01 F600 X111.143 Y53.996
G01 F600 X111.257 Y54.193
G01 F600 X111.327 Y54.409
G01 F600 X111.351 Y54.635
G01 F600 X111.327 Y54.862
G01 F600 X111.257 Y55.078
G01 F600 X111.143 Y55.275
G01 F600 X110.991 Y55.444
G01 F600 X110.807 Y55.578
G01 F600 X110.599 Y55.670
G01 F600 X110.377 Y55.718
G01 F600 X110.149 Y55.718
G00 F3000 Z3.000
G00 F3000 X112.689 Y55.718
G00 F1500 Z0
G01 F600 Z-0.200
G01 F600 X112.466 Y55.670
G01 F600 X112.259 Y55.578
G01 F600 X112.075 Y55.444
G01 F600 X111.922 Y55.275
G01 F600 X111.809 Y55.078
G01 F600 X111.738 Y54.862
G01 F600 X111.715 Y54.635
G01 F600 X111.738 Y54.409
G01 F600 X111.809 Y54.193
G01 F600 X111.922 Y53.996
G01 F600 X112.075 Y53.827
G01 F600 X112.259 Y53.693
G01 F600 X112.466 Y53.600
G01 F600 X112.689 Y53.553
G01 F600 X112.916 Y53.553
G01 F600 X113.139 Y53.600
G01 F600 X113.347 Y53.693
G01 F600 X113.531 Y53.827
G01 F600 X113.683 Y53.996
G01 F600 X113.797 Y54.193
G01 F600 X113.867 Y54.409
G01 F600 X113.891 Y54.635
G01 F600 X113.867 Y54.862
G01 F600 X113.797 Y55.078
G01 F600 X113.683 Y55.275
G01 F600 X113.531 Y55.444
G01 F600 X113.347 Y55.578
G01 F600 X113.139 Y55.670
G01 F600 X112.916 Y55.718
G01 F600 X112.689 Y55.718
G00 F3000 Z3.000
G00 F3000 X50.625 Y51.019
G00 F1500 Z0
G01 F600 Z-0.200
G01 F600 X50.428 Y50.978
G01 F600 X50.245 Y50.896
G01 F600 X50.082 Y50.778
G01 F600 X49.947 Y50.628
G01 F600 X49.847 Y50.454
G01 F600 X49.785 Y50.263
G01 F600 X49.764 Y50.063
G01 F600 X49.785 Y49.864
G01 F600 X49.847 Y49.672
G01 F600 X49.947 Y49.498
G01 F600 X50.082 Y49.349
G01 F600 X50.245 Y49.231
G01 F600 X50.428 Y49.149
G01 F600 X50.625 Y49.107
G01 F600 X50.826 Y49.107
G01 F600 X51.022 Y49.149
G01 F600 X51.206 Y49.231
G01 F600 X51.368 Y49.349
G01 F600 X51.376 Y49.358
G01 F600 X51.384 Y49.355
G01 F600 X51.536 Y49.322
G01 F600 X75.924 Y49.322
G01 F600 X76.076 Y49.355
G01 F600 X76.084 Y49.358
G01 F600 X76.092 Y49.349
G01 F600 X76.254 Y49.231
G01 F600 X76.438 Y49.149
G01 F600 X76.634 Y49.107
G01 F600 X76.835 Y49.107
G01 F600 X77.032 Y49.149
G01 F600 X77.215 Y49.231
G01 F600 X77.378 Y49.349
G01 F600 X77.512 Y49.498
G01 F600 X77.613 Y49.672
G01 F600 X77.675 Y49.864
G01 F600 X77.696 Y50.063
G01 F600 X77.675 Y50.263
G01 F600 X77.613 Y50.454
G01 F600 X77.512 Y50.628
G01 F600 X77.378 Y50.778
G01 F600 X77.215 Y50.896
G01 F600 X77.032 Y50.978
G01 F600 X76.835 Y51.019
G01 F600 X76.634 Y51.019
G01 F600 X76.438 Y50.978
G01 F600 X76.254 Y50.896
G01 F600 X76.092 Y50.778
G01 F600 X76.084 Y50.769
G01 F600 X76.076 Y50.772
G01 F600 X75.924 Y50.805
G01 F600 X51.536 Y50.805
G01 F600 X51.384 Y50.772
G01 F600 X51.376 Y50.769
G01 F600 X51.368 Y50.778
G01 F600 X51.206 Y50.896
G01 F600 X51.022 Y50.978
G01 F600 X50.826 Y51.019
G01 F600 X50.625 Y51.019
G00 F3000 Z3.000
G00 F3000 X23.701 Y51.019
G00 F1500 Z0
G01 F600 Z-0.200
G01 F600 X23.504 Y50.978
G01 F600 X23.321 Y50.896
G01 F600 X23.158 Y50.778
G01 F600 X23.023 Y50.628
G01 F600 X22.923 Y50.454
G01 F600 X22.861 Y50.263
G01 F600 X22.840 Y50.063
G01 F600 X22.861 Y49.864
G01 F600 X22.923 Y49.672
G01 F600 X23.023 Y49.498
G01 F600 X23.158 Y49.349
G01 F600 X23.321 Y49.231
G01 F600 X23.504 Y49.149
G01 F600 X23.701 Y49.107
G01 F600 X23.902 Y49.107
G01 F600 X24.098 Y49.149
G01 F600 X24.282 Y49.231
G01 F600 X24.444 Y49.349
G01 F600 X24.452 Y49.358
G01 F600 X24.460 Y49.355
G01 F600 X24.612 Y49.322
G01 F600 X43.920 Y49.322
G01 F600 X44.072 Y49.355
G01 F600 X44.080 Y49.358
G01 F600 X44.087 Y49.349
G01 F600 X44.250 Y49.231
G01 F600 X44.434 Y49.149
G01 F600 X44.630 Y49.107
G01 F600 X44.831 Y49.107
G01 F600 X45.028 Y49.149
G01 F600 X45.211 Y49.231
G01 F600 X45.374 Y49.349
G01 F600 X45.508 Y49.498
G01 F600 X45.609 Y49.672
G01 F600 X45.671 Y49.864
G01 F600 X45.692 Y50.063
G01 F600 X45.671 Y50.263
G01 F600 X45.609 Y50.454
G01 F600 X45.508 Y50.628
G01 F600 X45.374 Y50.778
G01 F600 X45.211 Y50.896
G01 F600 X45.028 Y50.978
G01 F600 X44.831 Y51.019
G01 F600 X44.630 Y51.019
G01 F600 X44.434 Y50.978
G01 F600 X44.250 Y50.896
G01 F600 X44.087 Y50.778
G01 F600 X44.080 Y50.769
G01 F600 X44.072 Y50.772
G01 F600 X43.920 Y50.805
G01 F600 X24.612 Y50.805
G01 F600 X24.460 Y50.772
G01 F600 X24.452 Y50.769
G01 F600 X24.444 Y50.778
G01 F600 X24.282 Y50.896
G01 F600 X24.098 Y50.978
G01 F600 X23.902 Y51.019
G01 F600 X23.701 Y51.019
G00 F3000 Z3.000
G00 F3000 X17.706 Y51.019
G00 F1500 Z0
G01 F600 Z-0.200
G01 F600 X17.510 Y50.978
G01 F600 X17.326 Y50.896
G01 F600 X17.163 Y50.778
G01 F600 X17.029 Y50.628
G01 F600 X16.929 Y50.454
G01 F600 X16.867 Y50.263
G01 F600 X16.846 Y50.063
G01 F600 X16.867 Y49.864
G01 F600 X16.929 Y49.672
G01 F600 X17.029 Y49.498
G01 F600 X17.105 Y49.415
G01 F600 X17.078 Y49.329
G01 F600 X17.062 Y49.180
G01 F600 X17.646 Y23.994
G01 F600 X17.662 Y23.848
G01 F600 X17.684 Y23.783
G01 F600 X17.613 Y23.704
G01 F600 X17.513 Y23.530
G01 F600 X17.451 Y23.339
G01 F600 X17.430 Y23.139
G01 F600 X17.451 Y22.940
G01 F600 X17.513 Y22.748
G01 F600 X17.613 Y22.574
G01 F600 X17.748 Y22.425
G01 F600 X17.910 Y22.307
G01 F600 X18.094 Y22.225
G01 F600 X18.290 Y22.183
G01 F600 X18.491 Y22.183
G01 F600 X18.688 Y22.225
G01 F600 X18.872 Y22.307
G01 F600 X19.034 Y22.425
G01 F600 X19.169 Y22.574
G01 F600 X19.269 Y22.748
G01 F600 X19.331 Y22.940
G01 F600 X19.352 Y23.139
G01 F600 X19.331 Y23.339
G01 F600 X19.269 Y23.530
G01 F600 X19.169 Y23.703
G01 F600 X19.100 Y23.785
G01 F600 X19.120 Y23.848
G01 F600 X19.136 Y23.998
G01 F600 X18.551 Y49.183
G01 F600 X18.536 Y49.329
G01 F600 X18.508 Y49.414
G01 F600 X18.584 Y49.498
G01 F600 X18.685 Y49.672
G01 F600 X18.747 Y49.864
G01 F600 X18.768 Y50.063
G01 F600 X18.747 Y50.263
G01 F600 X18.685 Y50.454
G01 F600 X18.584 Y50.628
G01 F600 X18.450 Y50.778
G01 F600 X18.287 Y50.896
G01 F600 X18.104 Y50.978
G01 F600 X17.907 Y51.019
G01 F600 X17.706 Y51.019
G00 F3000 Z3.000
G00 F3000 X116.706 Y44.128
G00 F1500 Z0
G01 F600 Z-0.200
G01 F600 X116.706 Y43.675
G01 F600 X113.908 Y43.693
G01 F600 X113.766 Y43.693
G01 F600 X113.662 Y43.671
G01 F600 X113.556 Y43.788
G01 F600 X113.366 Y43.927
G01 F600 X113.151 Y44.023
G01 F600 X112.920 Y44.072
G01 F600 X112.685 Y44.072
G01 F600 X112.455 Y44.023
G01 F600 X112.240 Y43.927
G01 F600 X112.049 Y43.788
G01 F600 X111.892 Y43.613
G01 F600 X111.774 Y43.410
G01 F600 X111.701 Y43.186
G01 F600 X111.676 Y42.951
G01 F600 X111.701 Y42.717
G01 F600 X111.774 Y42.493
G01 F600 X111.892 Y42.289
G01 F600 X112.049 Y42.114
G01 F600 X112.240 Y41.976
G01 F600 X112.455 Y41.880
G01 F600 X112.685 Y41.831
G01 F600 X112.920 Y41.831
G01 F600 X113.151 Y41.880
G01 F600 X113.366 Y41.976
G01 F600 X113.558 Y42.115
G01 F600 X113.659 Y42.233
G01 F600 X113.766 Y42.210
G01 F600 X116.576 Y42.192
G01 F600 X116.618 Y42.064
G01 F600 X116.696 Y41.929
G01 F600 X116.706 Y41.917
G01 F600 X116.706 Y41.775
G01 F600 X116.853 Y41.775
G01 F600 X116.926 Y41.722
G01 F600 X117.068 Y41.658
G01 F600 X117.221 Y41.626
G01 F600 X117.376 Y41.626
G01 F600 X117.529 Y41.658
G01 F600 X117.671 Y41.722
G01 F600 X117.745 Y41.775
G01 F600 X119.059 Y41.775
G01 F600 X119.059 Y44.128
G01 F600 X116.706 Y44.128
G00 F3000 Z3.000
G00 F3000 X80.698 Y24.095
G00 F1500 Z0
G01 F600 Z-0.200
G01 F600 X80.502 Y24.054
G01 F600 X80.318 Y23.972
G01 F600 X80.156 Y23.854
G01 F600 X80.021 Y23.704
G01 F600 X79.921 Y23.530
G01 F600 X79.859 Y23.339
G01 F600 X79.838 Y23.139
G01 F600 X79.859 Y22.940
G01 F600 X79.921 Y22.748
G01 F600 X80.021 Y22.574
G01 F600 X80.156 Y22.425
G01 F600 X80.318 Y22.307
G01 F600 X80.502 Y22.225
G01 F600 X80.698 Y22.183
G01 F600 X80.899 Y22.183
G01 F600 X81.096 Y22.225
G01 F600 X81.279 Y22.307
G01 F600 X81.442 Y22.425
G01 F600 X81.576 Y22.574
G01 F600 X81.677 Y22.748
G01 F600 X81.739 Y22.940
G01 F600 X81.760 Y23.139
G01 F600 X81.739 Y23.339
G01 F600 X81.677 Y23.530
G01 F600 X81.576 Y23.704
G01 F600 X81.442 Y23.854
G01 F600 X81.279 Y23.972
G01 F600 X81.096 Y24.054
G01 F600 X80.899 Y24.095
G01 F600 X80.698 Y24.095
G00 F3000 Z3.000
G00 F3000 X24.310 Y24.095
G00 F1500 Z0
G01 F600 Z-0.200
G01 F600 X24.114 Y24.054
G01 F600 X23.930 Y23.972
G01 F600 X23.768 Y23.854
G01 F600 X23.633 Y23.704
G01 F600 X23.533 Y23.530
G01 F600 X23.471 Y23.339
G01 F600 X23.450 Y23.139
G01 F600 X23.471 Y22.940
G01 F600 X23.533 Y22.748
G01 F600 X23.633 Y22.574
G01 F600 X23.768 Y22.425
G01 F600 X23.930 Y22.307
G01 F600 X24.114 Y22.225
G01 F600 X24.310 Y22.183
G01 F600 X24.511 Y22.183
G01 F600 X24.708 Y22.225
G01 F600 X24.891 Y22.307
G01 F600 X25.054 Y22.425
G01 F600 X25.056 Y22.428
G01 F600 X25.196 Y22.398
G01 F600 X43.513 Y22.398
G01 F600 X43.653 Y22.428
G01 F600 X43.656 Y22.425
G01 F600 X43.818 Y22.307
G01 F600 X44.002 Y22.225
G01 F600 X44.198 Y22.183
G01 F600 X44.399 Y22.183
G01 F600 X44.596 Y22.225
G01 F600 X44.779 Y22.307
G01 F600 X44.942 Y22.425
G01 F600 X45.077 Y22.574
G01 F600 X45.177 Y22.748
G01 F600 X45.239 Y22.940
G01 F600 X45.260 Y23.139
G01 F600 X45.239 Y23.339
G01 F600 X45.177 Y23.530
G01 F600 X45.077 Y23.704
G01 F600 X44.942 Y23.854
G01 F600 X44.779 Y23.972
G01 F600 X44.596 Y24.054
G01 F600 X44.399 Y24.095
G01 F600 X44.198 Y24.095
G01 F600 X44.002 Y24.054
G01 F600 X43.818 Y23.972
G01 F600 X43.656 Y23.854
G01 F600 X43.653 Y23.851
G01 F600 X43.513 Y23.881
G01 F600 X25.196 Y23.881
G01 F600 X25.056 Y23.851
G01 F600 X25.054 Y23.854
G01 F600 X24.891 Y23.972
G01 F600 X24.708 Y24.054
G01 F600 X24.511 Y24.095
G01 F600 X24.310 Y24.095
G00 F3000 Z3.000
G00 F3000 X50.218 Y24.095
G00 F1500 Z0
G01 F600 Z-0.200
G01 F600 X50.022 Y24.054
G01 F600 X49.838 Y23.972
G01 F600 X49.675 Y23.854
G01 F600 X49.541 Y23.704
G01 F600 X49.441 Y23.530
G01 F600 X49.379 Y23.339
G01 F600 X49.358 Y23.139
G01 F600 X49.379 Y22.940
G01 F600 X49.441 Y22.748
G01 F600 X49.541 Y22.574
G01 F600 X49.675 Y22.425
G01 F600 X49.838 Y22.307
G01 F600 X50.022 Y22.225
G01 F600 X50.218 Y22.183
G01 F600 X50.419 Y22.183
G01 F600 X50.616 Y22.225
G01 F600 X50.799 Y22.307
G01 F600 X50.962 Y22.425
G01 F600 X50.965 Y22.428
G01 F600 X51.104 Y22.398
G01 F600 X73.993 Y22.398
G01 F600 X74.133 Y22.428
G01 F600 X74.136 Y22.425
G01 F600 X74.298 Y22.307
G01 F600 X74.482 Y22.225
G01 F600 X74.678 Y22.183
G01 F600 X74.879 Y22.183
G01 F600 X75.076 Y22.225
G01 F600 X75.260 Y22.307
G01 F600 X75.422 Y22.425
G01 F600 X75.557 Y22.574
G01 F600 X75.657 Y22.748
G01 F600 X75.719 Y22.940
G01 F600 X75.740 Y23.139
G01 F600 X75.719 Y23.339
G01 F600 X75.657 Y23.530
G01 F600 X75.557 Y23.704
G01 F600 X75.422 Y23.854
G01 F600 X75.260 Y23.972
G01 F600 X75.076 Y24.054
G01 F600 X74.879 Y24.095
G01 F600 X74.678 Y24.095
G01 F600 X74.482 Y24.054
G01 F600 X74.298 Y23.972
G01 F600 X74.136 Y23.854
G01 F600 X74.133 Y23.851
G01 F600 X73.993 Y23.881
G01 F600 X51.104 Y23.881
G01 F600 X50.965 Y23.851
G01 F600 X50.962 Y23.854
G01 F600 X50.799 Y23.972
G01 F600 X50.616 Y24.054
G01 F600 X50.419 Y24.095
G01 F600 X50.218 Y24.095
G00 F3000 Z3.000
G00 F3000 X103.992 Y66.245
G00 F1500 Z0
G01 F600 Z-0.200
G01 F600 X103.798 Y66.204
G01 F600 X103.617 Y66.123
G01 F600 X103.457 Y66.007
G01 F600 X103.339 Y65.876
G01 F600 X95.062 Y55.069
G01 F600 X49.013 Y55.069
G01 F600 X48.894 Y55.094
G01 F600 X21.746 Y55.094
G01 F600 X21.553 Y55.053
G01 F600 X21.372 Y54.972
G01 F600 X21.212 Y54.856
G01 F600 X21.080 Y54.709
G01 F600 X20.981 Y54.538
G01 F600 X20.920 Y54.350
G01 F600 X20.913 Y54.286
G01 F600 X20.901 Y54.173
G01 F600 X20.850 Y50.912
G01 F600 X20.866 Y50.760
G01 F600 X20.854 Y50.747
G01 F600 X20.791 Y50.638
G01 F600 X20.728 Y50.747
G01 F600 X20.566 Y50.927
G01 F600 X20.369 Y51.070
G01 F600 X20.147 Y51.169
G01 F600 X19.909 Y51.219
G01 F600 X19.666 Y51.219
G01 F600 X19.429 Y51.169
G01 F600 X19.207 Y51.070
G01 F600 X19.010 Y50.927
G01 F600 X18.848 Y50.747
G01 F600 X18.797 Y50.660
G01 F600 X18.747 Y50.747
G01 F600 X18.585 Y50.927
G01 F600 X18.388 Y51.070
G01 F600 X18.166 Y51.169
G01 F600 X17.928 Y51.219
G01 F600 X17.685 Y51.219
G01 F600 X17.448 Y51.169
G01 F600 X17.226 Y51.070
G01 F600 X17.029 Y50.927
G01 F600 X16.866 Y50.747
G01 F600 X16.745 Y50.536
G01 F600 X16.670 Y50.305
G01 F600 X16.644 Y50.063
G01 F600 X16.670 Y49.822
G01 F600 X16.745 Y49.591
G01 F600 X16.867 Y49.379
G01 F600 X16.880 Y49.364
G01 F600 X16.862 Y49.188
G01 F600 X17.447 Y23.982
G01 F600 X17.462 Y23.835
G01 F600 X17.450 Y23.823
G01 F600 X17.329 Y23.612
G01 F600 X17.254 Y23.381
G01 F600 X17.229 Y23.139
G01 F600 X17.254 Y22.898
G01 F600 X17.329 Y22.667
G01 F600 X17.451 Y22.456
G01 F600 X17.613 Y22.276
G01 F600 X17.810 Y22.133
G01 F600 X18.032 Y22.034
G01 F600 X18.269 Y21.983
G01 F600 X18.512 Y21.983
G01 F600 X18.750 Y22.034
G01 F600 X18.972 Y22.133
G01 F600 X19.169 Y22.276
G01 F600 X19.331 Y22.456
G01 F600 X19.394 Y22.565
G01 F600 X19.458 Y22.454
G01 F600 X19.471 Y22.441
G01 F600 X19.453 Y22.270
G01 F600 X19.402 Y18.552
G01 F600 X19.421 Y18.371
G01 F600 X19.482 Y18.182
G01 F600 X19.581 Y18.011
G01 F600 X19.713 Y17.864
G01 F600 X19.873 Y17.748
G01 F600 X20.054 Y17.667
G01 F600 X20.248 Y17.626
G01 F600 X46.321 Y17.626
G01 F600 X76.750 Y18.133
G01 F600 X83.705 Y18.058
G01 F600 X83.869 Y18.058
G01 F600 X84.063 Y18.099
G01 F600 X84.244 Y18.180
G01 F600 X84.404 Y18.296
G01 F600 X84.516 Y18.421
G01 F600 X100.584 Y37.403
G01 F600 X121.397 Y36.981
G01 F600 X121.563 Y36.981
G01 F600 X121.757 Y37.022
G01 F600 X121.937 Y37.103
G01 F600 X122.097 Y37.219
G01 F600 X122.230 Y37.366
G01 F600 X122.329 Y37.537
G01 F600 X122.390 Y37.725
G01 F600 X122.409 Y37.905
G01 F600 X122.409 Y48.014
G01 F600 X121.849 Y59.665
G01 F600 X121.831 Y59.836
G01 F600 X121.770 Y60.024
G01 F600 X121.671 Y60.196
G01 F600 X121.548 Y60.332
G01 F600 X119.261 Y62.311
G01 F600 X119.158 Y62.385
G01 F600 X119.144 Y62.524
G01 F600 X119.061 Y62.780
G01 F600 X118.926 Y63.013
G01 F600 X118.745 Y63.214
G01 F600 X118.527 Y63.372
G01 F600 X118.310 Y63.469
G01 F600 X118.294 Y63.518
G01 F600 X117.237 Y65.708
G01 F600 X117.150 Y65.860
G01 F600 X117.017 Y66.007
G01 F600 X116.857 Y66.123
G01 F600 X116.677 Y66.204
G01 F600 X116.483 Y66.245
G01 F600 X103.992 Y66.245
G00 F3000 Z3.000
G00 F3000 X104.559 Y64.362
G00 F1500 Z0
G01 F600 Z-0.200
G01 F600 X115.790 Y64.362
G01 F600 X116.572 Y62.740
G01 F600 X116.649 Y62.607
G01 F600 X116.622 Y62.524
G01 F600 X116.613 Y62.440
G01 F600 X116.604 Y62.524
G01 F600 X116.521 Y62.780
G01 F600 X116.386 Y63.013
G01 F600 X116.205 Y63.214
G01 F600 X115.987 Y63.372
G01 F600 X115.741 Y63.482
G01 F600 X115.478 Y63.538
G01 F600 X115.208 Y63.538
G01 F600 X114.944 Y63.482
G01 F600 X114.698 Y63.372
G01 F600 X114.480 Y63.214
G01 F600 X114.300 Y63.013
G01 F600 X114.165 Y62.780
G01 F600 X114.082 Y62.524
G01 F600 X114.073 Y62.440
G01 F600 X114.064 Y62.524
G01 F600 X113.981 Y62.780
G01 F600 X113.846 Y63.013
G01 F600 X113.665 Y63.214
G01 F600 X113.447 Y63.372
G01 F600 X113.201 Y63.482
G01 F600 X112.938 Y63.538
G01 F600 X112.668 Y63.538
G01 F600 X112.404 Y63.482
G01 F600 X112.158 Y63.372
G01 F600 X111.940 Y63.214
G01 F600 X111.760 Y63.013
G01 F600 X111.625 Y62.780
G01 F600 X111.541 Y62.524
G01 F600 X111.533 Y62.440
G01 F600 X111.524 Y62.524
G01 F600 X111.441 Y62.780
G01 F600 X111.306 Y63.013
G01 F600 X111.125 Y63.214
G01 F600 X110.907 Y63.372
G01 F600 X110.661 Y63.482
G01 F600 X110.398 Y63.538
G01 F600 X110.128 Y63.538
G01 F600 X109.864 Y63.482
G01 F600 X109.618 Y63.372
G01 F600 X109.400 Y63.214
G01 F600 X109.220 Y63.013
G01 F600 X109.085 Y62.780
G01 F600 X109.002 Y62.524
G01 F600 X108.973 Y62.255
G01 F600 X109.002 Y61.987
G01 F600 X109.085 Y61.731
G01 F600 X109.220 Y61.498
G01 F600 X109.400 Y61.297
G01 F600 X109.618 Y61.139
G01 F600 X109.864 Y61.029
G01 F600 X110.128 Y60.973
G01 F600 X110.398 Y60.973
G01 F600 X110.661 Y61.029
G01 F600 X110.907 Y61.139
G01 F600 X111.125 Y61.297
G01 F600 X111.306 Y61.498
G01 F600 X111.441 Y61.731
G01 F600 X111.524 Y61.987
G01 F600 X111.533 Y62.071
G01 F600 X111.541 Y61.987
G01 F600 X111.625 Y61.731
G01 F600 X111.760 Y61.498
G01 F600 X111.940 Y61.297
G01 F600 X112.158 Y61.139
G01 F600 X112.404 Y61.029
G01 F600 X112.668 Y60.973
G01 F600 X112.938 Y60.973
G01 F600 X113.201 Y61.029
G01 F600 X113.447 Y61.139
G01 F600 X113.665 Y61.297
G01 F600 X113.846 Y61.498
G01 F600 X113.981 Y61.731
G01 F600 X114.064 Y61.987
G01 F600 X114.073 Y62.071
G01 F600 X114.082 Y61.987
G01 F600 X114.165 Y61.731
G01 F600 X114.300 Y61.498
G01 F600 X114.480 Y61.297
G01 F600 X114.698 Y61.139
G01 F600 X114.944 Y61.029
G01 F600 X115.208 Y60.973
G01 F600 X115.478 Y60.973
G01 F600 X115.741 Y61.029
G01 F600 X115.987 Y61.139
G01 F600 X116.205 Y61.297
G01 F600 X116.386 Y61.498
G01 F600 X116.521 Y61.731
G01 F600 X116.604 Y61.987
G01 F600 X116.613 Y62.071
G01 F600 X116.622 Y61.987
G01 F600 X116.705 Y61.731
G01 F600 X116.840 Y61.498
G01 F600 X117.020 Y61.297
G01 F600 X117.238 Y61.139
G01 F600 X117.484 Y61.029
G01 F600 X117.748 Y60.973
G01 F600 X117.938 Y60.973
G01 F600 X118.002 Y60.902
G01 F600 X119.982 Y59.189
G01 F600 X120.473 Y48.957
G01 F600 X118.881 Y48.972
G01 F600 X118.805 Y49.056
G01 F600 X118.572 Y49.225
G01 F600 X118.309 Y49.342
G01 F600 X118.027 Y49.402
G01 F600 X117.739 Y49.402
G01 F600 X117.457 Y49.342
G01 F600 X117.194 Y49.225
G01 F600 X116.960 Y49.056
G01 F600 X116.768 Y48.842
G01 F600 X116.624 Y48.592
G01 F600 X116.535 Y48.318
G01 F600 X116.505 Y48.031
G01 F600 X116.535 Y47.745
G01 F600 X116.624 Y47.471
G01 F600 X116.768 Y47.221
G01 F600 X116.960 Y47.007
G01 F600 X117.194 Y46.838
G01 F600 X117.365 Y46.761
G01 F600 X117.194 Y46.685
G01 F600 X116.960 Y46.516
G01 F600 X116.882 Y46.429
G01 F600 X116.864 Y46.433
G01 F600 X111.207 Y46.433
G01 F600 X111.207 Y53.637
G01 F600 X111.195 Y53.754
G01 F600 X111.306 Y53.878
G01 F600 X111.441 Y54.111
G01 F600 X111.524 Y54.367
G01 F600 X111.533 Y54.451
G01 F600 X111.541 Y54.367
G01 F600 X111.625 Y54.111
G01 F600 X111.760 Y53.878
G01 F600 X111.940 Y53.677
G01 F600 X112.158 Y53.519
G01 F600 X112.404 Y53.409
G01 F600 X112.668 Y53.353
G01 F600 X112.938 Y53.353
G01 F600 X113.201 Y53.409
G01 F600 X113.447 Y53.519
G01 F600 X113.665 Y53.677
G01 F600 X113.846 Y53.878
G01 F600 X113.981 Y54.111
G01 F600 X114.064 Y54.367
G01 F600 X114.073 Y54.451
G01 F600 X114.082 Y54.367
G01 F600 X114.165 Y54.111
G01 F600 X114.300 Y53.878
G01 F600 X114.480 Y53.677
G01 F600 X114.698 Y53.519
G01 F600 X114.944 Y53.409
G01 F600 X115.208 Y53.353
G01 F600 X115.478 Y53.353
G01 F600 X115.741 Y53.409
G01 F600 X115.987 Y53.519
G01 F600 X116.205 Y53.677
G01 F600 X116.386 Y53.878
G01 F600 X116.521 Y54.111
G01 F600 X116.595 Y54.341
G01 F600 X116.595 Y53.348
G01 F600 X119.170 Y53.348
G01 F600 X119.170 Y55.923
G01 F600 X118.841 Y55.923
G01 F600 X118.879 Y57.596
G01 F600 X118.859 Y57.779
G01 F600 X118.798 Y57.967
G01 F600 X118.699 Y58.138
G01 F600 X118.567 Y58.285
G01 F600 X118.407 Y58.401
G01 F600 X118.226 Y58.482
G01 F600 X118.034 Y58.523
G01 F600 X103.190 Y58.625
G01 F600 X103.026 Y58.625
G01 F600 X102.833 Y58.584
G01 F600 X102.652 Y58.503
G01 F600 X102.492 Y58.387
G01 F600 X102.382 Y58.264
G01 F600 X96.041 Y51.005
G01 F600 X83.519 Y51.005
G01 F600 X83.427 Y50.985
G01 F600 X83.310 Y51.070
G01 F600 X83.088 Y51.169
G01 F600 X82.851 Y51.219
G01 F600 X82.608 Y51.219
G01 F600 X82.370 Y51.169
G01 F600 X82.148 Y51.070
G01 F600 X81.951 Y50.927
G01 F600 X81.789 Y50.747
G01 F600 X81.726 Y50.638
G01 F600 X81.676 Y50.724
G01 F600 X81.673 Y50.728
G01 F600 X81.674 Y50.730
G01 F600 X81.692 Y50.907
G01 F600 X81.728 Y53.186
G01 F600 X95.630 Y53.186
G01 F600 X95.823 Y53.227
G01 F600 X96.004 Y53.308
G01 F600 X96.164 Y53.424
G01 F600 X96.282 Y53.555
G01 F600 X104.559 Y64.362
G00 F3000 Z3.000
G00 F3000 X103.551 Y56.739
G00 F1500 Z0
G01 F600 Z-0.200
G01 F600 X116.968 Y56.647
G01 F600 X116.951 Y55.923
G01 F600 X116.595 Y55.923
G01 F600 X116.595 Y54.930
G01 F600 X116.521 Y55.160
G01 F600 X116.386 Y55.393
G01 F600 X116.205 Y55.594
G01 F600 X115.987 Y55.752
G01 F600 X115.741 Y55.862
G01 F600 X115.478 Y55.918
G01 F600 X115.208 Y55.918
G01 F600 X114.944 Y55.862
G01 F600 X114.698 Y55.752
G01 F600 X114.480 Y55.594
G01 F600 X114.300 Y55.393
G01 F600 X114.165 Y55.160
G01 F600 X114.082 Y54.904
G01 F600 X114.073 Y54.820
G01 F600 X114.064 Y54.904
G01 F600 X113.981 Y55.160
G01 F600 X113.846 Y55.393
G01 F600 X113.665 Y55.594
G01 F600 X113.447 Y55.752
G01 F600 X113.201 Y55.862
G01 F600 X112.938 Y55.918
G01 F600 X112.668 Y55.918
G01 F600 X112.404 Y55.862
G01 F600 X112.158 Y55.752
G01 F600 X111.940 Y55.594
G01 F600 X111.760 Y55.393
G01 F600 X111.625 Y55.160
G01 F600 X111.541 Y54.904
G01 F600 X111.533 Y54.820
G01 F600 X111.524 Y54.904
G01 F600 X111.441 Y55.160
G01 F600 X111.306 Y55.393
G01 F600 X111.125 Y55.594
G01 F600 X110.907 Y55.752
G01 F600 X110.661 Y55.862
G01 F600 X110.398 Y55.918
G01 F600 X110.128 Y55.918
G01 F600 X109.864 Y55.862
G01 F600 X109.618 Y55.752
G01 F600 X109.400 Y55.594
G01 F600 X109.220 Y55.393
G01 F600 X109.085 Y55.160
G01 F600 X109.002 Y54.904
G01 F600 X108.973 Y54.635
G01 F600 X109.002 Y54.367
G01 F600 X109.085 Y54.111
G01 F600 X109.220 Y53.878
G01 F600 X109.330 Y53.755
G01 F600 X109.318 Y53.637
G01 F600 X109.318 Y46.433
G01 F600 X79.705 Y46.433
G01 F600 X79.686 Y49.193
G01 F600 X79.667 Y49.371
G01 F600 X79.661 Y49.389
G01 F600 X79.719 Y49.489
G01 F600 X79.782 Y49.380
G01 F600 X79.945 Y49.200
G01 F600 X80.141 Y49.057
G01 F600 X80.363 Y48.958
G01 F600 X80.601 Y48.907
G01 F600 X80.844 Y48.907
G01 F600 X81.082 Y48.958
G01 F600 X81.304 Y49.057
G01 F600 X81.500 Y49.200
G01 F600 X81.663 Y49.380
G01 F600 X81.726 Y49.489
G01 F600 X81.789 Y49.380
G01 F600 X81.951 Y49.200
G01 F600 X82.148 Y49.057
G01 F600 X82.370 Y48.958
G01 F600 X82.608 Y48.907
G01 F600 X82.851 Y48.907
G01 F600 X83.088 Y48.958
G01 F600 X83.310 Y49.057
G01 F600 X83.427 Y49.142
G01 F600 X83.519 Y49.122
G01 F600 X96.569 Y49.122
G01 F600 X96.763 Y49.163
G01 F600 X96.944 Y49.244
G01 F600 X97.104 Y49.360
G01 F600 X97.214 Y49.483
G01 F600 X103.551 Y56.739
G00 F3000 Z3.000
G00 F3000 X22.775 Y53.212
G00 F1500 Z0
G01 F600 Z-0.200
G01 F600 X47.835 Y53.212
G01 F600 X47.799 Y50.912
G01 F600 X47.813 Y50.785
G01 F600 X47.778 Y50.747
G01 F600 X47.715 Y50.638
G01 F600 X47.652 Y50.747
G01 F600 X47.490 Y50.927
G01 F600 X47.293 Y51.070
G01 F600 X47.071 Y51.169
G01 F600 X46.833 Y51.219
G01 F600 X46.590 Y51.219
G01 F600 X46.353 Y51.169
G01 F600 X46.131 Y51.070
G01 F600 X45.934 Y50.927
G01 F600 X45.772 Y50.747
G01 F600 X45.721 Y50.660
G01 F600 X45.671 Y50.747
G01 F600 X45.509 Y50.927
G01 F600 X45.312 Y51.070
G01 F600 X45.090 Y51.169
G01 F600 X44.852 Y51.219
G01 F600 X44.609 Y51.219
G01 F600 X44.372 Y51.169
G01 F600 X44.150 Y51.070
G01 F600 X44.033 Y50.985
G01 F600 X43.941 Y51.005
G01 F600 X24.591 Y51.005
G01 F600 X24.499 Y50.985
G01 F600 X24.382 Y51.070
G01 F600 X24.160 Y51.169
G01 F600 X23.923 Y51.219
G01 F600 X23.680 Y51.219
G01 F600 X23.442 Y51.169
G01 F600 X23.220 Y51.070
G01 F600 X23.023 Y50.927
G01 F600 X22.861 Y50.747
G01 F600 X22.798 Y50.638
G01 F600 X22.737 Y50.742
G01 F600 X22.723 Y50.759
G01 F600 X22.739 Y50.907
G01 F600 X22.775 Y53.212
G00 F3000 Z3.000
G00 F3000 X49.724 Y53.186
G00 F1500 Z0
G01 F600 Z-0.200
G01 F600 X79.839 Y53.186
G01 F600 X79.803 Y50.912
G01 F600 X79.817 Y50.785
G01 F600 X79.782 Y50.747
G01 F600 X79.719 Y50.638
G01 F600 X79.656 Y50.747
G01 F600 X79.494 Y50.927
G01 F600 X79.297 Y51.070
G01 F600 X79.075 Y51.169
G01 F600 X78.837 Y51.219
G01 F600 X78.594 Y51.219
G01 F600 X78.357 Y51.169
G01 F600 X78.135 Y51.070
G01 F600 X77.938 Y50.927
G01 F600 X77.776 Y50.747
G01 F600 X77.725 Y50.660
G01 F600 X77.675 Y50.747
G01 F600 X77.513 Y50.927
G01 F600 X77.316 Y51.070
G01 F600 X77.094 Y51.169
G01 F600 X76.856 Y51.219
G01 F600 X76.613 Y51.219
G01 F600 X76.376 Y51.169
G01 F600 X76.154 Y51.070
G01 F600 X76.037 Y50.985
G01 F600 X75.945 Y51.005
G01 F600 X51.515 Y51.005
G01 F600 X51.423 Y50.985
G01 F600 X51.306 Y51.070
G01 F600 X51.084 Y51.169
G01 F600 X50.847 Y51.219
G01 F600 X50.604 Y51.219
G01 F600 X50.366 Y51.169
G01 F600 X50.144 Y51.070
G01 F600 X49.947 Y50.927
G01 F600 X49.785 Y50.747
G01 F600 X49.722 Y50.638
G01 F600 X49.672 Y50.724
G01 F600 X49.669 Y50.728
G01 F600 X49.670 Y50.730
G01 F600 X49.688 Y50.907
G01 F600 X49.724 Y53.186
G00 F3000 Z3.000
G00 F3000 X20.791 Y49.489
G00 F1500 Z0
G01 F600 Z-0.200
G01 F600 X20.854 Y49.380
G01 F600 X21.017 Y49.200
G01 F600 X21.213 Y49.057
G01 F600 X21.435 Y48.958
G01 F600 X21.673 Y48.907
G01 F600 X21.916 Y48.907
G01 F600 X22.154 Y48.958
G01 F600 X22.376 Y49.057
G01 F600 X22.572 Y49.200
G01 F600 X22.735 Y49.380
G01 F600 X22.798 Y49.489
G01 F600 X22.861 Y49.380
G01 F600 X23.023 Y49.200
G01 F600 X23.220 Y49.057
G01 F600 X23.442 Y48.958
G01 F600 X23.680 Y48.907
G01 F600 X23.923 Y48.907
G01 F600 X24.160 Y48.958
G01 F600 X24.382 Y49.057
G01 F600 X24.499 Y49.142
G01 F600 X24.591 Y49.122
G01 F600 X43.941 Y49.122
G01 F600 X44.033 Y49.142
G01 F600 X44.150 Y49.057
G01 F600 X44.372 Y48.958
G01 F600 X44.609 Y48.907
G01 F600 X44.852 Y48.907
G01 F600 X45.090 Y48.958
G01 F600 X45.312 Y49.057
G01 F600 X45.509 Y49.200
G01 F600 X45.671 Y49.380
G01 F600 X45.721 Y49.467
G01 F600 X45.773 Y49.379
G01 F600 X45.785 Y49.364
G01 F600 X45.768 Y49.194
G01 F600 X45.753 Y47.883
G01 F600 X21.998 Y47.951
G01 F600 X21.969 Y47.957
G01 F600 X20.772 Y47.957
G01 F600 X20.772 Y48.010
G01 F600 X20.758 Y49.194
G01 F600 X20.739 Y49.371
G01 F600 X20.733 Y49.389
G01 F600 X20.791 Y49.489
G00 F3000 Z3.000
G00 F3000 X47.715 Y49.489
G00 F1500 Z0
G01 F600 Z-0.200
G01 F600 X47.778 Y49.380
G01 F600 X47.941 Y49.200
G01 F600 X48.137 Y49.057
G01 F600 X48.359 Y48.958
G01 F600 X48.597 Y48.907
G01 F600 X48.840 Y48.907
G01 F600 X49.078 Y48.958
G01 F600 X49.300 Y49.057
G01 F600 X49.496 Y49.200
G01 F600 X49.659 Y49.380
G01 F600 X49.722 Y49.489
G01 F600 X49.785 Y49.380
G01 F600 X49.947 Y49.200
G01 F600 X50.144 Y49.057
G01 F600 X50.366 Y48.958
G01 F600 X50.604 Y48.907
G01 F600 X50.847 Y48.907
G01 F600 X51.084 Y48.958
G01 F600 X51.306 Y49.057
G01 F600 X51.423 Y49.142
G01 F600 X51.515 Y49.122
G01 F600 X75.945 Y49.122
G01 F600 X76.037 Y49.142
G01 F600 X76.154 Y49.057
G01 F600 X76.376 Y48.958
G01 F600 X76.613 Y48.907
G01 F600 X76.856 Y48.907
G01 F600 X77.094 Y48.958
G01 F600 X77.316 Y49.057
G01 F600 X77.513 Y49.200
G01 F600 X77.675 Y49.380
G01 F600 X77.725 Y49.467
G01 F600 X77.776 Y49.380
G01 F600 X77.812 Y49.340
G01 F600 X77.797 Y49.192
G01 F600 X77.834 Y27.129
G01 F600 X23.255 Y27.129
G01 F600 X22.837 Y46.065
G01 F600 X46.622 Y45.998
G01 F600 X46.785 Y45.998
G01 F600 X46.979 Y46.039
G01 F600 X47.160 Y46.120
G01 F600 X47.320 Y46.236
G01 F600 X47.452 Y46.383
G01 F600 X47.551 Y46.554
G01 F600 X47.612 Y46.742
G01 F600 X47.631 Y46.920
G01 F600 X47.657 Y49.190
G01 F600 X47.638 Y49.365
G01 F600 X47.652 Y49.380
G01 F600 X47.715 Y49.489
G00 F3000 Z3.000
G00 F3000 X18.797 Y49.467
G00 F1500 Z0
G01 F600 Z-0.200
G01 F600 X18.848 Y49.380
G01 F600 X18.884 Y49.340
G01 F600 X18.869 Y49.190
G01 F600 X18.894 Y46.996
G01 F600 X18.913 Y46.819
G01 F600 X18.974 Y46.630
G01 F600 X19.073 Y46.459
G01 F600 X19.205 Y46.312
G01 F600 X19.365 Y46.196
G01 F600 X19.546 Y46.115
G01 F600 X19.739 Y46.074
G01 F600 X20.947 Y46.071
G01 F600 X21.434 Y23.982
G01 F600 X21.453 Y23.806
G01 F600 X21.453 Y23.805
G01 F600 X21.401 Y23.714
G01 F600 X21.338 Y23.823
G01 F600 X21.175 Y24.003
G01 F600 X20.979 Y24.146
G01 F600 X20.757 Y24.245
G01 F600 X20.519 Y24.295
G01 F600 X20.276 Y24.295
G01 F600 X20.038 Y24.245
G01 F600 X19.816 Y24.146
G01 F600 X19.620 Y24.003
G01 F600 X19.457 Y23.823
G01 F600 X19.394 Y23.713
G01 F600 X19.334 Y23.818
G01 F600 X19.320 Y23.835
G01 F600 X19.336 Y23.989
G01 F600 X18.751 Y49.196
G01 F600 X18.733 Y49.365
G01 F600 X18.747 Y49.380
G01 F600 X18.797 Y49.467
G00 F3000 Z3.000
G00 F3000 X118.877 Y47.088
G00 F1500 Z0
G01 F600 Z-0.200
G01 F600 X120.520 Y47.073
G01 F600 X120.520 Y38.884
G01 F600 X100.221 Y39.295
G01 F600 X100.055 Y39.295
G01 F600 X99.861 Y39.254
G01 F600 X99.680 Y39.174
G01 F600 X99.520 Y39.057
G01 F600 X99.408 Y38.933
G01 F600 X83.336 Y19.946
G01 F600 X77.694 Y20.007
G01 F600 X77.730 Y22.265
G01 F600 X77.712 Y22.441
G01 F600 X77.726 Y22.456
G01 F600 X77.789 Y22.565
G01 F600 X77.852 Y22.456
G01 F600 X78.014 Y22.276
G01 F600 X78.211 Y22.133
G01 F600 X78.433 Y22.034
G01 F600 X78.671 Y21.983
G01 F600 X78.914 Y21.983
G01 F600 X79.151 Y22.034
G01 F600 X79.373 Y22.133
G01 F600 X79.570 Y22.276
G01 F600 X79.733 Y22.456
G01 F600 X79.795 Y22.565
G01 F600 X79.858 Y22.456
G01 F600 X80.021 Y22.276
G01 F600 X80.218 Y22.133
G01 F600 X80.440 Y22.034
G01 F600 X80.677 Y21.983
G01 F600 X80.920 Y21.983
G01 F600 X81.158 Y22.034
G01 F600 X81.380 Y22.133
G01 F600 X81.577 Y22.276
G01 F600 X81.739 Y22.456
G01 F600 X81.861 Y22.667
G01 F600 X81.936 Y22.898
G01 F600 X81.961 Y23.139
G01 F600 X81.936 Y23.381
G01 F600 X81.861 Y23.612
G01 F600 X81.739 Y23.823
G01 F600 X81.577 Y24.003
G01 F600 X81.380 Y24.146
G01 F600 X81.158 Y24.245
G01 F600 X80.920 Y24.295
G01 F600 X80.677 Y24.295
G01 F600 X80.440 Y24.245
G01 F600 X80.218 Y24.146
G01 F600 X80.021 Y24.003
G01 F600 X79.858 Y23.823
G01 F600 X79.795 Y23.713
G01 F600 X79.735 Y23.818
G01 F600 X79.721 Y23.835
G01 F600 X79.737 Y23.986
G01 F600 X79.695 Y44.550
G01 F600 X109.318 Y44.550
G01 F600 X109.318 Y44.277
G01 F600 X108.937 Y44.277
G01 F600 X108.937 Y41.626
G01 F600 X111.588 Y41.626
G01 F600 X111.588 Y42.417
G01 F600 X111.590 Y42.412
G01 F600 X111.729 Y42.171
G01 F600 X111.914 Y41.965
G01 F600 X112.139 Y41.802
G01 F600 X112.392 Y41.689
G01 F600 X112.664 Y41.631
G01 F600 X112.941 Y41.631
G01 F600 X113.213 Y41.689
G01 F600 X113.467 Y41.802
G01 F600 X113.694 Y41.967
G01 F600 X113.733 Y42.013
G01 F600 X113.744 Y42.010
G01 F600 X116.430 Y41.993
G01 F600 X116.434 Y41.982
G01 F600 X116.506 Y41.857
G01 F600 X116.506 Y41.575
G01 F600 X116.788 Y41.575
G01 F600 X116.825 Y41.548
G01 F600 X117.006 Y41.467
G01 F600 X117.200 Y41.426
G01 F600 X117.397 Y41.426
G01 F600 X117.591 Y41.467
G01 F600 X117.772 Y41.548
G01 F600 X117.809 Y41.575
G01 F600 X119.259 Y41.575
G01 F600 X119.259 Y44.328
G01 F600 X118.613 Y44.328
G01 F600 X118.805 Y44.467
G01 F600 X118.998 Y44.681
G01 F600 X119.142 Y44.931
G01 F600 X119.231 Y45.205
G01 F600 X119.261 Y45.491
G01 F600 X119.231 Y45.778
G01 F600 X119.142 Y46.052
G01 F600 X118.998 Y46.302
G01 F600 X118.805 Y46.516
G01 F600 X118.572 Y46.685
G01 F600 X118.400 Y46.761
G01 F600 X118.572 Y46.838
G01 F600 X118.806 Y47.008
G01 F600 X118.877 Y47.088
G00 F3000 Z3.000
G00 F3000 X116.882 Y44.554
G00 F1500 Z0
G01 F600 Z-0.200
G01 F600 X116.960 Y44.467
G01 F600 X117.152 Y44.328
G01 F600 X116.506 Y44.328
G01 F600 X116.506 Y43.876
G01 F600 X113.909 Y43.893
G01 F600 X113.745 Y43.893
G01 F600 X113.734 Y43.890
G01 F600 X113.691 Y43.938
G01 F600 X113.467 Y44.101
G01 F600 X113.213 Y44.214
G01 F600 X112.941 Y44.272
G01 F600 X112.664 Y44.272
G01 F600 X112.392 Y44.214
G01 F600 X112.139 Y44.101
G01 F600 X111.914 Y43.938
G01 F600 X111.729 Y43.732
G01 F600 X111.590 Y43.491
G01 F600 X111.588 Y43.486
G01 F600 X111.588 Y44.277
G01 F600 X111.207 Y44.277
G01 F600 X111.207 Y44.550
G01 F600 X116.864 Y44.550
G01 F600 X116.882 Y44.554
G00 F3000 Z3.000
G00 F3000 X49.241 Y25.246
G00 F1500 Z0
G01 F600 Z-0.200
G01 F600 X77.822 Y25.246
G01 F600 X77.822 Y23.985
G01 F600 X77.841 Y23.804
G01 F600 X77.789 Y23.714
G01 F600 X77.726 Y23.823
G01 F600 X77.563 Y24.003
G01 F600 X77.367 Y24.146
G01 F600 X77.145 Y24.245
G01 F600 X76.907 Y24.295
G01 F600 X76.664 Y24.295
G01 F600 X76.426 Y24.245
G01 F600 X76.204 Y24.146
G01 F600 X76.008 Y24.003
G01 F600 X75.845 Y23.823
G01 F600 X75.782 Y23.714
G01 F600 X75.719 Y23.823
G01 F600 X75.557 Y24.003
G01 F600 X75.360 Y24.146
G01 F600 X75.138 Y24.245
G01 F600 X74.900 Y24.295
G01 F600 X74.657 Y24.295
G01 F600 X74.420 Y24.245
G01 F600 X74.198 Y24.146
G01 F600 X74.087 Y24.065
G01 F600 X74.014 Y24.081
G01 F600 X51.083 Y24.081
G01 F600 X51.011 Y24.065
G01 F600 X50.900 Y24.146
G01 F600 X50.678 Y24.245
G01 F600 X50.440 Y24.295
G01 F600 X50.197 Y24.295
G01 F600 X49.960 Y24.245
G01 F600 X49.738 Y24.146
G01 F600 X49.541 Y24.003
G01 F600 X49.378 Y23.823
G01 F600 X49.315 Y23.714
G01 F600 X49.256 Y23.817
G01 F600 X49.241 Y25.246
G00 F3000 Z3.000
G00 F3000 X23.333 Y25.246
G00 F1500 Z0
G01 F600 Z-0.200
G01 F600 X47.342 Y25.246
G01 F600 X47.342 Y23.985
G01 F600 X47.361 Y23.806
G01 F600 X47.361 Y23.805
G01 F600 X47.309 Y23.714
G01 F600 X47.246 Y23.823
G01 F600 X47.083 Y24.003
G01 F600 X46.887 Y24.146
G01 F600 X46.665 Y24.245
G01 F600 X46.427 Y24.295
G01 F600 X46.184 Y24.295
G01 F600 X45.946 Y24.245
G01 F600 X45.724 Y24.146
G01 F600 X45.528 Y24.003
G01 F600 X45.365 Y23.823
G01 F600 X45.302 Y23.714
G01 F600 X45.239 Y23.823
G01 F600 X45.077 Y24.003
G01 F600 X44.880 Y24.146
G01 F600 X44.658 Y24.245
G01 F600 X44.420 Y24.295
G01 F600 X44.177 Y24.295
G01 F600 X43.940 Y24.245
G01 F600 X43.718 Y24.146
G01 F600 X43.607 Y24.065
G01 F600 X43.534 Y24.081
G01 F600 X25.175 Y24.081
G01 F600 X25.103 Y24.065
G01 F600 X24.992 Y24.146
G01 F600 X24.770 Y24.245
G01 F600 X24.532 Y24.295
G01 F600 X24.289 Y24.295
G01 F600 X24.052 Y24.245
G01 F600 X23.829 Y24.146
G01 F600 X23.633 Y24.003
G01 F600 X23.470 Y23.823
G01 F600 X23.407 Y23.714
G01 F600 X23.348 Y23.817
G01 F600 X23.333 Y25.246
G00 F3000 Z3.000
G00 F3000 X21.401 Y22.565
G00 F1500 Z0
G01 F600 Z-0.200
G01 F600 X21.464 Y22.456
G01 F600 X21.626 Y22.276
G01 F600 X21.823 Y22.133
G01 F600 X22.045 Y22.034
G01 F600 X22.283 Y21.983
G01 F600 X22.526 Y21.983
G01 F600 X22.763 Y22.034
G01 F600 X22.985 Y22.133
G01 F600 X23.182 Y22.276
G01 F600 X23.345 Y22.456
G01 F600 X23.407 Y22.565
G01 F600 X23.470 Y22.456
G01 F600 X23.633 Y22.276
G01 F600 X23.829 Y22.133
G01 F600 X24.052 Y22.034
G01 F600 X24.289 Y21.983
G01 F600 X24.532 Y21.983
G01 F600 X24.770 Y22.034
G01 F600 X24.992 Y22.133
G01 F600 X25.103 Y22.213
G01 F600 X25.175 Y22.198
G01 F600 X43.534 Y22.198
G01 F600 X43.607 Y22.213
G01 F600 X43.718 Y22.133
G01 F600 X43.940 Y22.034
G01 F600 X44.177 Y21.983
G01 F600 X44.420 Y21.983
G01 F600 X44.658 Y22.034
G01 F600 X44.880 Y22.133
G01 F600 X45.077 Y22.276
G01 F600 X45.239 Y22.456
G01 F600 X45.302 Y22.565
G01 F600 X45.366 Y22.454
G01 F600 X45.379 Y22.441
G01 F600 X45.361 Y22.270
G01 F600 X45.323 Y19.533
G01 F600 X45.323 Y19.509
G01 F600 X21.304 Y19.509
G01 F600 X21.342 Y22.266
G01 F600 X21.324 Y22.441
G01 F600 X21.338 Y22.456
G01 F600 X21.401 Y22.565
G00 F3000 Z3.000
G00 F3000 X47.309 Y22.565
G00 F1500 Z0
G01 F600 Z-0.200
G01 F600 X47.372 Y22.456
G01 F600 X47.534 Y22.276
G01 F600 X47.731 Y22.133
G01 F600 X47.953 Y22.034
G01 F600 X48.191 Y21.983
G01 F600 X48.434 Y21.983
G01 F600 X48.671 Y22.034
G01 F600 X48.893 Y22.133
G01 F600 X49.090 Y22.276
G01 F600 X49.253 Y22.456
G01 F600 X49.315 Y22.565
G01 F600 X49.378 Y22.456
G01 F600 X49.541 Y22.276
G01 F600 X49.738 Y22.133
G01 F600 X49.960 Y22.034
G01 F600 X50.197 Y21.983
G01 F600 X50.440 Y21.983
G01 F600 X50.678 Y22.034
G01 F600 X50.900 Y22.133
G01 F600 X51.011 Y22.213
G01 F600 X51.083 Y22.198
G01 F600 X74.014 Y22.198
G01 F600 X74.087 Y22.213
G01 F600 X74.198 Y22.133
G01 F600 X74.420 Y22.034
G01 F600 X74.657 Y21.983
G01 F600 X74.900 Y21.983
G01 F600 X75.138 Y22.034
G01 F600 X75.360 Y22.133
G01 F600 X75.557 Y22.276
G01 F600 X75.719 Y22.456
G01 F600 X75.782 Y22.565
G01 F600 X75.846 Y22.454
G01 F600 X75.859 Y22.441
G01 F600 X75.841 Y22.271
G01 F600 X75.805 Y20.002
G01 F600 X47.213 Y19.526
G01 F600 X47.214 Y19.599
G01 F600 X47.250 Y22.266
G01 F600 X47.232 Y22.441
G01 F600 X47.246 Y22.456
G01 F600 X47.309 Y22.565
G00 F3000 Z3.000
G00 F3000 X103.971 Y66.445
G00 F1500 Z0
G01 F600 Z-0.200
G01 F600 X103.736 Y66.395
G01 F600 X103.517 Y66.297
G01 F600 X103.323 Y66.156
G01 F600 X103.186 Y66.004
G01 F600 X94.963 Y55.269
G01 F600 X49.034 Y55.269
G01 F600 X48.915 Y55.294
G01 F600 X21.725 Y55.294
G01 F600 X21.491 Y55.244
G01 F600 X21.271 Y55.147
G01 F600 X21.077 Y55.006
G01 F600 X20.917 Y54.827
G01 F600 X20.797 Y54.620
G01 F600 X20.723 Y54.392
G01 F600 X20.714 Y54.307
G01 F600 X20.701 Y54.185
G01 F600 X20.653 Y51.111
G01 F600 X20.470 Y51.244
G01 F600 X20.209 Y51.360
G01 F600 X19.930 Y51.419
G01 F600 X19.645 Y51.419
G01 F600 X19.367 Y51.360
G01 F600 X19.106 Y51.244
G01 F600 X18.876 Y51.077
G01 F600 X18.797 Y50.990
G01 F600 X18.719 Y51.077
G01 F600 X18.489 Y51.244
G01 F600 X18.228 Y51.360
G01 F600 X17.949 Y51.419
G01 F600 X17.664 Y51.419
G01 F600 X17.386 Y51.360
G01 F600 X17.125 Y51.244
G01 F600 X16.894 Y51.077
G01 F600 X16.704 Y50.865
G01 F600 X16.561 Y50.618
G01 F600 X16.473 Y50.347
G01 F600 X16.443 Y50.063
G01 F600 X16.473 Y49.780
G01 F600 X16.561 Y49.509
G01 F600 X16.674 Y49.314
G01 F600 X16.662 Y49.196
G01 F600 X17.247 Y23.969
G01 F600 X17.256 Y23.885
G01 F600 X17.145 Y23.694
G01 F600 X17.057 Y23.423
G01 F600 X17.027 Y23.139
G01 F600 X17.057 Y22.856
G01 F600 X17.145 Y22.585
G01 F600 X17.288 Y22.338
G01 F600 X17.479 Y22.126
G01 F600 X17.709 Y21.959
G01 F600 X17.970 Y21.843
G01 F600 X18.248 Y21.783
G01 F600 X18.533 Y21.783
G01 F600 X18.812 Y21.843
G01 F600 X19.073 Y21.959
G01 F600 X19.251 Y22.088
G01 F600 X19.202 Y18.543
G01 F600 X19.224 Y18.329
G01 F600 X19.298 Y18.101
G01 F600 X19.418 Y17.893
G01 F600 X19.579 Y17.715
G01 F600 X19.773 Y17.574
G01 F600 X19.992 Y17.476
G01 F600 X20.227 Y17.426
G01 F600 X46.323 Y17.426
G01 F600 X76.751 Y17.933
G01 F600 X83.704 Y17.858
G01 F600 X83.890 Y17.858
G01 F600 X84.125 Y17.908
G01 F600 X84.344 Y18.006
G01 F600 X84.538 Y18.146
G01 F600 X84.667 Y18.289
G01 F600 X100.675 Y37.201
G01 F600 X121.395 Y36.781
G01 F600 X121.584 Y36.781
G01 F600 X121.819 Y36.831
G01 F600 X122.038 Y36.928
G01 F600 X122.232 Y37.070
G01 F600 X122.393 Y37.248
G01 F600 X122.512 Y37.455
G01 F600 X122.587 Y37.684
G01 F600 X122.609 Y37.894
G01 F600 X122.609 Y48.019
G01 F600 X122.049 Y59.680
G01 F600 X122.028 Y59.878
G01 F600 X121.954 Y60.106
G01 F600 X121.834 Y60.314
G01 F600 X121.689 Y60.475
G01 F600 X119.386 Y62.468
G01 F600 X119.348 Y62.495
G01 F600 X119.341 Y62.565
G01 F600 X119.244 Y62.862
G01 F600 X119.089 Y63.132
G01 F600 X118.880 Y63.363
G01 F600 X118.628 Y63.546
G01 F600 X118.468 Y63.617
G01 F600 X117.414 Y65.802
G01 F600 X117.313 Y65.978
G01 F600 X117.152 Y66.156
G01 F600 X116.958 Y66.297
G01 F600 X116.739 Y66.395
G01 F600 X116.504 Y66.445
G01 F600 X103.971 Y66.445
G00 F3000 Z3.000
G00 F3000 X104.658 Y64.162
G00 F1500 Z0
G01 F600 Z-0.200
G01 F600 X115.664 Y64.162
G01 F600 X115.927 Y63.618
G01 F600 X115.803 Y63.673
G01 F600 X115.499 Y63.738
G01 F600 X115.187 Y63.738
G01 F600 X114.882 Y63.673
G01 F600 X114.597 Y63.546
G01 F600 X114.346 Y63.363
G01 F600 X114.137 Y63.132
G01 F600 X114.073 Y63.020
G01 F600 X114.009 Y63.132
G01 F600 X113.800 Y63.363
G01 F600 X113.548 Y63.546
G01 F600 X113.263 Y63.673
G01 F600 X112.959 Y63.738
G01 F600 X112.647 Y63.738
G01 F600 X112.342 Y63.673
G01 F600 X112.057 Y63.546
G01 F600 X111.806 Y63.363
G01 F600 X111.597 Y63.132
G01 F600 X111.533 Y63.020
G01 F600 X111.469 Y63.132
G01 F600 X111.260 Y63.363
G01 F600 X111.008 Y63.546
G01 F600 X110.723 Y63.673
G01 F600 X110.419 Y63.738
G01 F600 X110.107 Y63.738
G01 F600 X109.802 Y63.673
G01 F600 X109.517 Y63.546
G01 F600 X109.266 Y63.363
G01 F600 X109.057 Y63.132
G01 F600 X108.901 Y62.862
G01 F600 X108.805 Y62.565
G01 F600 X108.772 Y62.255
G01 F600 X108.805 Y61.946
G01 F600 X108.901 Y61.649
G01 F600 X109.057 Y61.379
G01 F600 X109.266 Y61.148
G01 F600 X109.517 Y60.965
G01 F600 X109.802 Y60.838
G01 F600 X110.107 Y60.773
G01 F600 X110.419 Y60.773
G01 F600 X110.723 Y60.838
G01 F600 X111.008 Y60.965
G01 F600 X111.260 Y61.148
G01 F600 X111.469 Y61.379
G01 F600 X111.533 Y61.491
G01 F600 X111.597 Y61.379
G01 F600 X111.806 Y61.148
G01 F600 X112.057 Y60.965
G01 F600 X112.342 Y60.838
G01 F600 X112.647 Y60.773
G01 F600 X112.959 Y60.773
G01 F600 X113.263 Y60.838
G01 F600 X113.548 Y60.965
G01 F600 X113.800 Y61.148
G01 F600 X114.009 Y61.379
G01 F600 X114.073 Y61.491
G01 F600 X114.137 Y61.379
G01 F600 X114.346 Y61.148
G01 F600 X114.597 Y60.965
G01 F600 X114.882 Y60.838
G01 F600 X115.187 Y60.773
G01 F600 X115.499 Y60.773
G01 F600 X115.803 Y60.838
G01 F600 X116.088 Y60.965
G01 F600 X116.340 Y61.148
G01 F600 X116.549 Y61.379
G01 F600 X116.613 Y61.491
G01 F600 X116.677 Y61.379
G01 F600 X116.886 Y61.148
G01 F600 X117.137 Y60.965
G01 F600 X117.422 Y60.838
G01 F600 X117.727 Y60.773
G01 F600 X117.849 Y60.773
G01 F600 X117.862 Y60.759
G01 F600 X119.786 Y59.094
G01 F600 X120.263 Y49.159
G01 F600 X118.970 Y49.171
G01 F600 X118.940 Y49.205
G01 F600 X118.672 Y49.399
G01 F600 X118.371 Y49.534
G01 F600 X118.048 Y49.602
G01 F600 X117.718 Y49.602
G01 F600 X117.395 Y49.534
G01 F600 X117.093 Y49.399
G01 F600 X116.826 Y49.205
G01 F600 X116.605 Y48.960
G01 F600 X116.440 Y48.674
G01 F600 X116.338 Y48.360
G01 F600 X116.303 Y48.031
G01 F600 X116.338 Y47.703
G01 F600 X116.440 Y47.389
G01 F600 X116.605 Y47.103
G01 F600 X116.826 Y46.858
G01 F600 X116.958 Y46.761
G01 F600 X116.826 Y46.665
G01 F600 X116.797 Y46.633
G01 F600 X111.407 Y46.633
G01 F600 X111.407 Y53.648
G01 F600 X111.403 Y53.687
G01 F600 X111.469 Y53.759
G01 F600 X111.533 Y53.870
G01 F600 X111.597 Y53.759
G01 F600 X111.806 Y53.528
G01 F600 X112.057 Y53.345
G01 F600 X112.342 Y53.218
G01 F600 X112.647 Y53.153
G01 F600 X112.959 Y53.153
G01 F600 X113.263 Y53.218
G01 F600 X113.548 Y53.345
G01 F600 X113.800 Y53.528
G01 F600 X114.009 Y53.759
G01 F600 X114.073 Y53.870
G01 F600 X114.137 Y53.759
G01 F600 X114.346 Y53.528
G01 F600 X114.597 Y53.345
G01 F600 X114.882 Y53.218
G01 F600 X115.187 Y53.153
G01 F600 X115.499 Y53.153
G01 F600 X115.803 Y53.218
G01 F600 X116.088 Y53.345
G01 F600 X116.340 Y53.528
G01 F600 X116.395 Y53.589
G01 F600 X116.395 Y53.148
G01 F600 X119.370 Y53.148
G01 F600 X119.370 Y56.123
G01 F600 X119.045 Y56.123
G01 F600 X119.079 Y57.604
G01 F600 X119.056 Y57.820
G01 F600 X118.982 Y58.049
G01 F600 X118.862 Y58.256
G01 F600 X118.701 Y58.434
G01 F600 X118.507 Y58.576
G01 F600 X118.288 Y58.673
G01 F600 X118.055 Y58.723
G01 F600 X103.191 Y58.825
G01 F600 X103.005 Y58.825
G01 F600 X102.771 Y58.775
G01 F600 X102.551 Y58.677
G01 F600 X102.357 Y58.536
G01 F600 X102.232 Y58.397
G01 F600 X95.951 Y51.205
G01 F600 X83.498 Y51.205
G01 F600 X83.473 Y51.199
G01 F600 X83.411 Y51.244
G01 F600 X83.150 Y51.360
G01 F600 X82.872 Y51.419
G01 F600 X82.587 Y51.419
G01 F600 X82.308 Y51.360
G01 F600 X82.047 Y51.244
G01 F600 X81.896 Y51.134
G01 F600 X81.925 Y52.986
G01 F600 X95.651 Y52.986
G01 F600 X95.885 Y53.036
G01 F600 X96.105 Y53.134
G01 F600 X96.299 Y53.275
G01 F600 X96.436 Y53.427
G01 F600 X104.658 Y64.162
G00 F3000 Z3.000
G00 F3000 X103.642 Y56.538
G00 F1500 Z0
G01 F600 Z-0.200
G01 F600 X116.763 Y56.448
G01 F600 X116.756 Y56.123
G01 F600 X116.395 Y56.123
G01 F600 X116.395 Y55.682
G01 F600 X116.340 Y55.743
G01 F600 X116.088 Y55.926
G01 F600 X115.803 Y56.053
G01 F600 X115.499 Y56.118
G01 F600 X115.187 Y56.118
G01 F600 X114.882 Y56.053
G01 F600 X114.597 Y55.926
G01 F600 X114.346 Y55.743
G01 F600 X114.137 Y55.512
G01 F600 X114.073 Y55.400
G01 F600 X114.009 Y55.512
G01 F600 X113.800 Y55.743
G01 F600 X113.548 Y55.926
G01 F600 X113.263 Y56.053
G01 F600 X112.959 Y56.118
G01 F600 X112.647 Y56.118
G01 F600 X112.342 Y56.053
G01 F600 X112.057 Y55.926
G01 F600 X111.806 Y55.743
G01 F600 X111.597 Y55.512
G01 F600 X111.533 Y55.400
G01 F600 X111.469 Y55.512
G01 F600 X111.260 Y55.743
G01 F600 X111.008 Y55.926
G01 F600 X110.723 Y56.053
G01 F600 X110.419 Y56.118
G01 F600 X110.107 Y56.118
G01 F600 X109.802 Y56.053
G01 F600 X109.517 Y55.926
G01 F600 X109.266 Y55.743
G01 F600 X109.057 Y55.512
G01 F600 X108.901 Y55.242
G01 F600 X108.805 Y54.945
G01 F600 X108.772 Y54.635
G01 F600 X108.805 Y54.326
G01 F600 X108.901 Y54.029
G01 F600 X109.057 Y53.759
G01 F600 X109.122 Y53.687
G01 F600 X109.118 Y53.647
G01 F600 X109.118 Y46.633
G01 F600 X79.903 Y46.633
G01 F600 X79.887 Y48.994
G01 F600 X80.041 Y48.883
G01 F600 X80.301 Y48.767
G01 F600 X80.580 Y48.707
G01 F600 X80.865 Y48.707
G01 F600 X81.144 Y48.767
G01 F600 X81.404 Y48.883
G01 F600 X81.635 Y49.050
G01 F600 X81.726 Y49.151
G01 F600 X81.817 Y49.050
G01 F600 X82.047 Y48.883
G01 F600 X82.308 Y48.767
G01 F600 X82.587 Y48.707
G01 F600 X82.872 Y48.707
G01 F600 X83.150 Y48.767
G01 F600 X83.411 Y48.883
G01 F600 X83.473 Y48.928
G01 F600 X83.498 Y48.922
G01 F600 X96.590 Y48.922
G01 F600 X96.825 Y48.972
G01 F600 X97.044 Y49.070
G01 F600 X97.238 Y49.211
G01 F600 X97.364 Y49.350
G01 F600 X103.642 Y56.538
G00 F3000 Z3.000
G00 F3000 X22.972 Y53.012
G00 F1500 Z0
G01 F600 Z-0.200
G01 F600 X47.632 Y53.012
G01 F600 X47.602 Y51.093
G01 F600 X47.394 Y51.244
G01 F600 X47.133 Y51.360
G01 F600 X46.854 Y51.419
G01 F600 X46.569 Y51.419
G01 F600 X46.291 Y51.360
G01 F600 X46.030 Y51.244
G01 F600 X45.800 Y51.077
G01 F600 X45.721 Y50.990
G01 F600 X45.643 Y51.077
G01 F600 X45.413 Y51.244
G01 F600 X45.152 Y51.360
G01 F600 X44.873 Y51.419
G01 F600 X44.588 Y51.419
G01 F600 X44.309 Y51.360
G01 F600 X44.049 Y51.244
G01 F600 X43.987 Y51.199
G01 F600 X43.962 Y51.205
G01 F600 X24.570 Y51.205
G01 F600 X24.545 Y51.199
G01 F600 X24.483 Y51.244
G01 F600 X24.222 Y51.360
G01 F600 X23.944 Y51.419
G01 F600 X23.659 Y51.419
G01 F600 X23.380 Y51.360
G01 F600 X23.119 Y51.244
G01 F600 X22.942 Y51.115
G01 F600 X22.972 Y53.012
G00 F3000 Z3.000
G00 F3000 X49.921 Y52.986
G00 F1500 Z0
G01 F600 Z-0.200
G01 F600 X79.636 Y52.986
G01 F600 X79.606 Y51.093
G01 F600 X79.398 Y51.244
G01 F600 X79.137 Y51.360
G01 F600 X78.858 Y51.419
G01 F600 X78.573 Y51.419
G01 F600 X78.295 Y51.360
G01 F600 X78.034 Y51.244
G01 F600 X77.803 Y51.077
G01 F600 X77.725 Y50.990
G01 F600 X77.647 Y51.077
G01 F600 X77.416 Y51.244
G01 F600 X77.156 Y51.360
G01 F600 X76.877 Y51.419
G01 F600 X76.592 Y51.419
G01 F600 X76.314 Y51.360
G01 F600 X76.053 Y51.244
G01 F600 X75.991 Y51.199
G01 F600 X75.966 Y51.205
G01 F600 X51.494 Y51.205
G01 F600 X51.469 Y51.199
G01 F600 X51.407 Y51.244
G01 F600 X51.146 Y51.360
G01 F600 X50.868 Y51.419
G01 F600 X50.583 Y51.419
G01 F600 X50.304 Y51.360
G01 F600 X50.043 Y51.244
G01 F600 X49.892 Y51.134
G01 F600 X49.921 Y52.986
G00 F3000 Z3.000
G00 F3000 X22.798 Y49.151
G00 F1500 Z0
G01 F600 Z-0.200
G01 F600 X22.889 Y49.050
G01 F600 X23.119 Y48.883
G01 F600 X23.380 Y48.767
G01 F600 X23.659 Y48.707
G01 F600 X23.944 Y48.707
G01 F600 X24.222 Y48.767
G01 F600 X24.483 Y48.883
G01 F600 X24.545 Y48.928
G01 F600 X24.570 Y48.922
G01 F600 X43.962 Y48.922
G01 F600 X43.987 Y48.928
G01 F600 X44.049 Y48.883
G01 F600 X44.309 Y48.767
G01 F600 X44.588 Y48.707
G01 F600 X44.873 Y48.707
G01 F600 X45.152 Y48.767
G01 F600 X45.413 Y48.883
G01 F600 X45.565 Y48.994
G01 F600 X45.555 Y48.084
G01 F600 X22.019 Y48.151
G01 F600 X21.990 Y48.157
G01 F600 X20.970 Y48.157
G01 F600 X20.960 Y48.994
G01 F600 X21.113 Y48.883
G01 F600 X21.373 Y48.767
G01 F600 X21.652 Y48.707
G01 F600 X21.937 Y48.707
G01 F600 X22.216 Y48.767
G01 F600 X22.476 Y48.883
G01 F600 X22.707 Y49.050
G01 F600 X22.798 Y49.151
G00 F3000 Z3.000
G00 F3000 X49.722 Y49.151
G00 F1500 Z0
G01 F600 Z-0.200
G01 F600 X49.813 Y49.050
G01 F600 X50.043 Y48.883
G01 F600 X50.304 Y48.767
G01 F600 X50.583 Y48.707
G01 F600 X50.868 Y48.707
G01 F600 X51.146 Y48.767
G01 F600 X51.407 Y48.883
G01 F600 X51.469 Y48.928
G01 F600 X51.494 Y48.922
G01 F600 X75.966 Y48.922
G01 F600 X75.991 Y48.928
G01 F600 X76.053 Y48.883
G01 F600 X76.314 Y48.767
G01 F600 X76.592 Y48.707
G01 F600 X76.877 Y48.707
G01 F600 X77.156 Y48.767
G01 F600 X77.416 Y48.883
G01 F600 X77.597 Y49.014
G01 F600 X77.634 Y27.329
G01 F600 X23.450 Y27.329
G01 F600 X23.041 Y45.865
G01 F600 X46.622 Y45.798
G01 F600 X46.806 Y45.798
G01 F600 X47.041 Y45.848
G01 F600 X47.260 Y45.946
G01 F600 X47.454 Y46.087
G01 F600 X47.615 Y46.265
G01 F600 X47.735 Y46.472
G01 F600 X47.809 Y46.701
G01 F600 X47.831 Y46.908
G01 F600 X47.855 Y49.015
G01 F600 X48.037 Y48.883
G01 F600 X48.297 Y48.767
G01 F600 X48.576 Y48.707
G01 F600 X48.861 Y48.707
G01 F600 X49.140 Y48.767
G01 F600 X49.400 Y48.883
G01 F600 X49.631 Y49.050
G01 F600 X49.722 Y49.151
G00 F3000 Z3.000
G00 F3000 X118.966 Y46.887
G00 F1500 Z0
G01 F600 Z-0.200
G01 F600 X120.320 Y46.875
G01 F600 X120.320 Y39.088
G01 F600 X100.223 Y39.495
G01 F600 X100.034 Y39.495
G01 F600 X99.799 Y39.446
G01 F600 X99.580 Y39.348
G01 F600 X99.386 Y39.207
G01 F600 X99.257 Y39.064
G01 F600 X83.245 Y20.147
G01 F600 X77.898 Y20.205
G01 F600 X77.928 Y22.091
G01 F600 X78.110 Y21.959
G01 F600 X78.371 Y21.843
G01 F600 X78.650 Y21.783
G01 F600 X78.935 Y21.783
G01 F600 X79.213 Y21.843
G01 F600 X79.474 Y21.959
G01 F600 X79.705 Y22.126
G01 F600 X79.795 Y22.227
G01 F600 X79.886 Y22.126
G01 F600 X80.117 Y21.959
G01 F600 X80.377 Y21.843
G01 F600 X80.656 Y21.783
G01 F600 X80.941 Y21.783
G01 F600 X81.220 Y21.843
G01 F600 X81.481 Y21.959
G01 F600 X81.711 Y22.126
G01 F600 X81.902 Y22.338
G01 F600 X82.044 Y22.585
G01 F600 X82.132 Y22.856
G01 F600 X82.162 Y23.139
G01 F600 X82.132 Y23.423
G01 F600 X82.044 Y23.694
G01 F600 X81.902 Y23.941
G01 F600 X81.711 Y24.152
G01 F600 X81.481 Y24.320
G01 F600 X81.220 Y24.436
G01 F600 X80.941 Y24.495
G01 F600 X80.656 Y24.495
G01 F600 X80.377 Y24.436
G01 F600 X80.117 Y24.320
G01 F600 X79.936 Y24.189
G01 F600 X79.896 Y44.350
G01 F600 X108.737 Y44.350
G01 F600 X108.737 Y41.426
G01 F600 X111.788 Y41.426
G01 F600 X111.788 Y41.809
G01 F600 X112.038 Y41.628
G01 F600 X112.330 Y41.498
G01 F600 X112.643 Y41.431
G01 F600 X112.962 Y41.431
G01 F600 X113.275 Y41.498
G01 F600 X113.567 Y41.628
G01 F600 X113.818 Y41.810
G01 F600 X116.306 Y41.794
G01 F600 X116.306 Y41.375
G01 F600 X116.723 Y41.375
G01 F600 X116.725 Y41.373
G01 F600 X116.944 Y41.276
G01 F600 X117.179 Y41.226
G01 F600 X117.418 Y41.226
G01 F600 X117.653 Y41.276
G01 F600 X117.872 Y41.373
G01 F600 X117.875 Y41.375
G01 F600 X119.459 Y41.375
G01 F600 X119.459 Y44.528
G01 F600 X119.129 Y44.528
G01 F600 X119.160 Y44.563
G01 F600 X119.326 Y44.849
G01 F600 X119.428 Y45.163
G01 F600 X119.462 Y45.491
G01 F600 X119.428 Y45.820
G01 F600 X119.326 Y46.134
G01 F600 X119.160 Y46.420
G01 F600 X118.940 Y46.665
G01 F600 X118.807 Y46.761
G01 F600 X118.941 Y46.859
G01 F600 X118.966 Y46.887
G00 F3000 Z3.000
G00 F3000 X19.020 Y46.219
G00 F1500 Z0
G01 F600 Z-0.200
G01 F600 X19.071 Y46.163
G01 F600 X19.265 Y46.022
G01 F600 X19.484 Y45.924
G01 F600 X19.718 Y45.874
G01 F600 X20.751 Y45.872
G01 F600 X21.229 Y24.211
G01 F600 X21.079 Y24.320
G01 F600 X20.819 Y24.436
G01 F600 X20.540 Y24.495
G01 F600 X20.255 Y24.495
G01 F600 X19.976 Y24.436
G01 F600 X19.716 Y24.320
G01 F600 X19.531 Y24.186
G01 F600 X19.020 Y46.219
G00 F3000 Z3.000
G00 F3000 X111.788 Y44.350
G00 F1500 Z0
G01 F600 Z-0.200
G01 F600 X112.207 Y44.350
G01 F600 X112.038 Y44.275
G01 F600 X111.788 Y44.093
G01 F600 X111.788 Y44.350
G00 F3000 Z3.000
G00 F3000 X113.399 Y44.350
G00 F1500 Z0
G01 F600 Z-0.200
G01 F600 X116.306 Y44.350
G01 F600 X116.306 Y44.078
G01 F600 X113.909 Y44.093
G01 F600 X113.818 Y44.093
G01 F600 X113.567 Y44.275
G01 F600 X113.399 Y44.350
G00 F3000 Z3.000
G00 F3000 X49.443 Y25.046
G00 F1500 Z0
G01 F600 Z-0.200
G01 F600 X77.622 Y25.046
G01 F600 X77.622 Y24.208
G01 F600 X77.467 Y24.320
G01 F600 X77.207 Y24.436
G01 F600 X76.928 Y24.495
G01 F600 X76.643 Y24.495
G01 F600 X76.364 Y24.436
G01 F600 X76.104 Y24.320
G01 F600 X75.873 Y24.152
G01 F600 X75.782 Y24.052
G01 F600 X75.691 Y24.152
G01 F600 X75.461 Y24.320
G01 F600 X75.200 Y24.436
G01 F600 X74.921 Y24.495
G01 F600 X74.636 Y24.495
G01 F600 X74.358 Y24.436
G01 F600 X74.097 Y24.320
G01 F600 X74.041 Y24.280
G01 F600 X74.035 Y24.281
G01 F600 X51.062 Y24.281
G01 F600 X51.056 Y24.280
G01 F600 X51.000 Y24.320
G01 F600 X50.740 Y24.436
G01 F600 X50.461 Y24.495
G01 F600 X50.176 Y24.495
G01 F600 X49.898 Y24.436
G01 F600 X49.637 Y24.320
G01 F600 X49.452 Y24.186
G01 F600 X49.443 Y25.046
G00 F3000 Z3.000
G00 F3000 X23.535 Y25.046
G00 F1500 Z0
G01 F600 Z-0.200
G01 F600 X47.142 Y25.046
G01 F600 X47.142 Y24.208
G01 F600 X46.987 Y24.320
G01 F600 X46.727 Y24.436
G01 F600 X46.448 Y24.495
G01 F600 X46.163 Y24.495
G01 F600 X45.884 Y24.436
G01 F600 X45.624 Y24.320
G01 F600 X45.393 Y24.152
G01 F600 X45.302 Y24.052
G01 F600 X45.211 Y24.152
G01 F600 X44.981 Y24.320
G01 F600 X44.720 Y24.436
G01 F600 X44.441 Y24.495
G01 F600 X44.156 Y24.495
G01 F600 X43.878 Y24.436
G01 F600 X43.617 Y24.320
G01 F600 X43.561 Y24.280
G01 F600 X43.555 Y24.281
G01 F600 X25.154 Y24.281
G01 F600 X25.149 Y24.280
G01 F600 X25.092 Y24.320
G01 F600 X24.832 Y24.436
G01 F600 X24.553 Y24.495
G01 F600 X24.268 Y24.495
G01 F600 X23.989 Y24.436
G01 F600 X23.729 Y24.320
G01 F600 X23.544 Y24.186
G01 F600 X23.535 Y25.046
G00 F3000 Z3.000
G00 F3000 X23.407 Y22.227
G00 F1500 Z0
G01 F600 Z-0.200
G01 F600 X23.498 Y22.126
G01 F600 X23.729 Y21.959
G01 F600 X23.989 Y21.843
G01 F600 X24.268 Y21.783
G01 F600 X24.553 Y21.783
G01 F600 X24.832 Y21.843
G01 F600 X25.092 Y21.959
G01 F600 X25.149 Y21.999
G01 F600 X25.154 Y21.998
G01 F600 X43.555 Y21.998
G01 F600 X43.561 Y21.999
G01 F600 X43.617 Y21.959
G01 F600 X43.878 Y21.843
G01 F600 X44.156 Y21.783
G01 F600 X44.441 Y21.783
G01 F600 X44.720 Y21.843
G01 F600 X44.981 Y21.959
G01 F600 X45.159 Y22.088
G01 F600 X45.126 Y19.709
G01 F600 X21.507 Y19.709
G01 F600 X21.540 Y22.091
G01 F600 X21.722 Y21.959
G01 F600 X21.983 Y21.843
G01 F600 X22.262 Y21.783
G01 F600 X22.547 Y21.783
G01 F600 X22.825 Y21.843
G01 F600 X23.086 Y21.959
G01 F600 X23.317 Y22.126
G01 F600 X23.407 Y22.227
G00 F3000 Z3.000
G00 F3000 X49.315 Y22.227
G00 F1500 Z0
G01 F600 Z-0.200
G01 F600 X49.406 Y22.126
G01 F600 X49.637 Y21.959
G01 F600 X49.898 Y21.843
G01 F600 X50.176 Y21.783
G01 F600 X50.461 Y21.783
G01 F600 X50.740 Y21.843
G01 F600 X51.000 Y21.959
G01 F600 X51.056 Y21.999
G01 F600 X51.062 Y21.998
G01 F600 X74.035 Y21.998
G01 F600 X74.041 Y21.999
G01 F600 X74.097 Y21.959
G01 F600 X74.358 Y21.843
G01 F600 X74.636 Y21.783
G01 F600 X74.921 Y21.783
G01 F600 X75.200 Y21.843
G01 F600 X75.461 Y21.959
G01 F600 X75.638 Y22.088
G01 F600 X75.608 Y20.199
G01 F600 X47.415 Y19.729
G01 F600 X47.448 Y22.091
G01 F600 X47.630 Y21.959
G01 F600 X47.891 Y21.843
G01 F600 X48.170 Y21.783
G01 F600 X48.455 Y21.783
G01 F600 X48.733 Y21.843
G01 F600 X48.994 Y21.959
G01 F600 X49.224 Y22.126
G01 F600 X49.315 Y22.227
G00 F3000 Z3.000
G00 F3000 Z3.000
G00 F3000 X0.000 Y0.000
M05
M30
%