( PCB Contour )
( Generated by Rapid-PCB.com )
( Material Size)
( X= 160.000, Y= 100.000, Z= 1.580)
()
G00
G17
G21
G40
G49
G54
G80
G90
G94
G00 F3000 Z3.000
M03 S9000
G00 F3000 X107.013 Y66.045
G00 F1500 Z0
G01 F600 Z-0.200
G01 F600 X106.860 Y66.012
G01 F600 X106.718 Y65.949
G01 F600 X106.592 Y65.857
G01 F600 X106.493 Y65.748
G01 F600 X98.161 Y54.869
G01 F600 X51.992 Y54.869
G01 F600 X51.873 Y54.894
G01 F600 X24.767 Y54.894
G01 F600 X24.615 Y54.862
G01 F600 X24.473 Y54.798
G01 F600 X24.347 Y54.707
G01 F600 X24.242 Y54.591
G01 F600 X24.164 Y54.456
G01 F600 X24.116 Y54.308
G01 F600 X24.101 Y54.161
G01 F600 X24.050 Y50.921
G01 F600 X24.066 Y50.772
G01 F600 X24.087 Y50.707
G01 F600 X24.017 Y50.628
G01 F600 X23.916 Y50.454
G01 F600 X23.854 Y50.263
G01 F600 X23.833 Y50.063
G01 F600 X23.854 Y49.864
G01 F600 X23.916 Y49.672
G01 F600 X24.017 Y49.498
G01 F600 X24.151 Y49.349
G01 F600 X24.314 Y49.231
G01 F600 X24.498 Y49.149
G01 F600 X24.694 Y49.107
G01 F600 X24.895 Y49.107
G01 F600 X25.091 Y49.149
G01 F600 X25.275 Y49.231
G01 F600 X25.438 Y49.349
G01 F600 X25.572 Y49.498
G01 F600 X25.673 Y49.672
G01 F600 X25.735 Y49.864
G01 F600 X25.756 Y50.063
G01 F600 X25.735 Y50.263
G01 F600 X25.673 Y50.454
G01 F600 X25.573 Y50.627
G01 F600 X25.503 Y50.709
G01 F600 X25.524 Y50.772
G01 F600 X25.539 Y50.919
G01 F600 X25.578 Y53.412
G01 F600 X51.038 Y53.412
G01 F600 X50.999 Y50.921
G01 F600 X51.014 Y50.783
G01 F600 X51.023 Y50.720
G01 F600 X50.941 Y50.628
G01 F600 X50.840 Y50.454
G01 F600 X50.778 Y50.263
G01 F600 X50.757 Y50.063
G01 F600 X50.778 Y49.864
G01 F600 X50.840 Y49.672
G01 F600 X50.941 Y49.498
G01 F600 X51.075 Y49.349
G01 F600 X51.238 Y49.231
G01 F600 X51.422 Y49.149
G01 F600 X51.618 Y49.107
G01 F600 X51.819 Y49.107
G01 F600 X52.016 Y49.149
G01 F600 X52.199 Y49.231
G01 F600 X52.362 Y49.349
G01 F600 X52.496 Y49.498
G01 F600 X52.597 Y49.672
G01 F600 X52.659 Y49.864
G01 F600 X52.680 Y50.063
G01 F600 X52.659 Y50.263
G01 F600 X52.597 Y50.454
G01 F600 X52.501 Y50.619
G01 F600 X52.449 Y50.699
G01 F600 X52.473 Y50.772
G01 F600 X52.488 Y50.919
G01 F600 X52.528 Y53.386
G01 F600 X83.042 Y53.386
G01 F600 X83.003 Y50.921
G01 F600 X83.018 Y50.783
G01 F600 X83.027 Y50.720
G01 F600 X82.945 Y50.628
G01 F600 X82.844 Y50.454
G01 F600 X82.782 Y50.263
G01 F600 X82.761 Y50.063
G01 F600 X82.782 Y49.864
G01 F600 X82.844 Y49.672
G01 F600 X82.945 Y49.498
G01 F600 X83.079 Y49.349
G01 F600 X83.242 Y49.231
G01 F600 X83.425 Y49.149
G01 F600 X83.622 Y49.107
G01 F600 X83.823 Y49.107
G01 F600 X84.020 Y49.149
G01 F600 X84.203 Y49.231
G01 F600 X84.366 Y49.349
G01 F600 X84.500 Y49.498
G01 F600 X84.601 Y49.672
G01 F600 X84.663 Y49.864
G01 F600 X84.684 Y50.063
G01 F600 X84.663 Y50.263
G01 F600 X84.601 Y50.454
G01 F600 X84.505 Y50.619
G01 F600 X84.453 Y50.699
G01 F600 X84.477 Y50.772
G01 F600 X84.492 Y50.919
G01 F600 X84.532 Y53.386
G01 F600 X98.609 Y53.386
G01 F600 X98.761 Y53.419
G01 F600 X98.903 Y53.482
G01 F600 X99.029 Y53.574
G01 F600 X99.128 Y53.683
G01 F600 X107.460 Y64.562
G01 F600 X118.915 Y64.562
G01 F600 X119.749 Y62.833
G01 F600 X119.824 Y62.705
G01 F600 X119.874 Y62.652
G01 F600 X119.818 Y62.482
G01 F600 X119.794 Y62.255
G01 F600 X119.818 Y62.029
G01 F600 X119.889 Y61.813
G01 F600 X120.002 Y61.616
G01 F600 X120.154 Y61.447
G01 F600 X120.339 Y61.313
G01 F600 X120.546 Y61.220
G01 F600 X120.769 Y61.173
G01 F600 X120.997 Y61.173
G01 F600 X121.028 Y61.180
G01 F600 X121.042 Y61.157
G01 F600 X121.142 Y61.045
G01 F600 X123.178 Y59.284
G01 F600 X123.684 Y48.747
G01 F600 X121.895 Y48.747
G01 F600 X121.828 Y48.731
G01 F600 X121.670 Y48.906
G01 F600 X121.471 Y49.051
G01 F600 X121.247 Y49.151
G01 F600 X121.006 Y49.202
G01 F600 X120.760 Y49.202
G01 F600 X120.519 Y49.151
G01 F600 X120.294 Y49.051
G01 F600 X120.095 Y48.906
G01 F600 X119.930 Y48.723
G01 F600 X119.807 Y48.510
G01 F600 X119.731 Y48.276
G01 F600 X119.706 Y48.031
G01 F600 X119.731 Y47.787
G01 F600 X119.807 Y47.553
G01 F600 X119.930 Y47.340
G01 F600 X120.095 Y47.157
G01 F600 X120.294 Y47.012
G01 F600 X120.519 Y46.912
G01 F600 X120.760 Y46.861
G01 F600 X121.006 Y46.861
G01 F600 X121.247 Y46.912
G01 F600 X121.471 Y47.012
G01 F600 X121.670 Y47.157
G01 F600 X121.788 Y47.288
G01 F600 X121.897 Y47.265
G01 F600 X123.720 Y47.265
G01 F600 X123.720 Y38.680
G01 F600 X103.219 Y39.095
G01 F600 X103.076 Y39.095
G01 F600 X102.923 Y39.063
G01 F600 X102.781 Y39.000
G01 F600 X102.655 Y38.908
G01 F600 X102.559 Y38.801
G01 F600 X86.428 Y19.745
G01 F600 X80.491 Y19.809
G01 F600 X80.530 Y22.256
G01 F600 X80.515 Y22.405
G01 F600 X80.487 Y22.490
G01 F600 X80.563 Y22.574
G01 F600 X80.664 Y22.748
G01 F600 X80.726 Y22.940
G01 F600 X80.747 Y23.139
G01 F600 X80.726 Y23.339
G01 F600 X80.664 Y23.530
G01 F600 X80.563 Y23.704
G01 F600 X80.429 Y23.854
G01 F600 X80.266 Y23.972
G01 F600 X80.083 Y24.054
G01 F600 X79.886 Y24.095
G01 F600 X79.685 Y24.095
G01 F600 X79.489 Y24.054
G01 F600 X79.305 Y23.972
G01 F600 X79.142 Y23.854
G01 F600 X79.008 Y23.704
G01 F600 X78.907 Y23.530
G01 F600 X78.845 Y23.339
G01 F600 X78.824 Y23.139
G01 F600 X78.845 Y22.940
G01 F600 X78.907 Y22.748
G01 F600 X79.008 Y22.574
G01 F600 X79.084 Y22.491
G01 F600 X79.056 Y22.405
G01 F600 X79.041 Y22.259
G01 F600 X79.002 Y19.806
G01 F600 X50.010 Y19.322
G01 F600 X50.050 Y22.257
G01 F600 X50.035 Y22.405
G01 F600 X50.007 Y22.490
G01 F600 X50.083 Y22.574
G01 F600 X50.184 Y22.748
G01 F600 X50.246 Y22.940
G01 F600 X50.267 Y23.139
G01 F600 X50.246 Y23.339
G01 F600 X50.184 Y23.530
G01 F600 X50.083 Y23.704
G01 F600 X49.949 Y23.854
G01 F600 X49.786 Y23.972
G01 F600 X49.602 Y24.054
G01 F600 X49.406 Y24.095
G01 F600 X49.205 Y24.095
G01 F600 X49.009 Y24.054
G01 F600 X48.825 Y23.972
G01 F600 X48.662 Y23.854
G01 F600 X48.528 Y23.704
G01 F600 X48.427 Y23.530
G01 F600 X48.365 Y23.339
G01 F600 X48.344 Y23.139
G01 F600 X48.365 Y22.940
G01 F600 X48.427 Y22.748
G01 F600 X48.528 Y22.574
G01 F600 X48.604 Y22.491
G01 F600 X48.576 Y22.405
G01 F600 X48.561 Y22.258
G01 F600 X48.520 Y19.309
G01 F600 X24.102 Y19.309
G01 F600 X24.142 Y22.257
G01 F600 X24.127 Y22.405
G01 F600 X24.099 Y22.490
G01 F600 X24.175 Y22.574
G01 F600 X24.276 Y22.748
G01 F600 X24.338 Y22.940
G01 F600 X24.359 Y23.139
G01 F600 X24.338 Y23.339
G01 F600 X24.276 Y23.530
G01 F600 X24.175 Y23.704
G01 F600 X24.041 Y23.854
G01 F600 X23.878 Y23.972
G01 F600 X23.695 Y24.054
G01 F600 X23.498 Y24.095
G01 F600 X23.297 Y24.095
G01 F600 X23.101 Y24.054
G01 F600 X22.917 Y23.972
G01 F600 X22.754 Y23.854
G01 F600 X22.620 Y23.704
G01 F600 X22.519 Y23.530
G01 F600 X22.457 Y23.339
G01 F600 X22.436 Y23.139
G01 F600 X22.457 Y22.940
G01 F600 X22.519 Y22.748
G01 F600 X22.620 Y22.574
G01 F600 X22.696 Y22.491
G01 F600 X22.668 Y22.405
G01 F600 X22.653 Y22.258
G01 F600 X22.602 Y18.561
G01 F600 X22.618 Y18.412
G01 F600 X22.666 Y18.264
G01 F600 X22.744 Y18.129
G01 F600 X22.848 Y18.014
G01 F600 X22.974 Y17.922
G01 F600 X23.116 Y17.858
G01 F600 X23.269 Y17.826
G01 F600 X49.320 Y17.826
G01 F600 X79.749 Y18.333
G01 F600 X86.706 Y18.258
G01 F600 X86.848 Y18.258
G01 F600 X87.001 Y18.290
G01 F600 X87.143 Y18.354
G01 F600 X87.269 Y18.445
G01 F600 X87.365 Y18.552
G01 F600 X103.492 Y37.605
G01 F600 X124.399 Y37.181
G01 F600 X124.542 Y37.181
G01 F600 X124.694 Y37.213
G01 F600 X124.837 Y37.277
G01 F600 X124.963 Y37.368
G01 F600 X125.067 Y37.484
G01 F600 X125.145 Y37.619
G01 F600 X125.193 Y37.767
G01 F600 X125.209 Y37.915
G01 F600 X125.209 Y48.009
G01 F600 X124.650 Y59.650
G01 F600 X124.634 Y59.794
G01 F600 X124.586 Y59.942
G01 F600 X124.508 Y60.077
G01 F600 X124.408 Y60.189
G01 F600 X122.137 Y62.154
G01 F600 X122.017 Y62.241
G01 F600 X121.970 Y62.261
G01 F600 X121.947 Y62.482
G01 F600 X121.877 Y62.698
G01 F600 X121.763 Y62.895
G01 F600 X121.611 Y63.064
G01 F600 X121.427 Y63.198
G01 F600 X121.219 Y63.290
G01 F600 X121.153 Y63.304
G01 F600 X121.108 Y63.443
G01 F600 X120.060 Y65.615
G01 F600 X119.987 Y65.742
G01 F600 X119.883 Y65.857
G01 F600 X119.757 Y65.949
G01 F600 X119.614 Y66.012
G01 F600 X119.462 Y66.045
G01 F600 X107.013 Y66.045
G00 F3000 Z3.000
G00 F3000 X118.229 Y63.338
G00 F1500 Z0
G01 F600 Z-0.200
G01 F600 X118.006 Y63.290
G01 F600 X117.799 Y63.198
G01 F600 X117.615 Y63.064
G01 F600 X117.462 Y62.895
G01 F600 X117.349 Y62.698
G01 F600 X117.278 Y62.482
G01 F600 X117.255 Y62.255
G01 F600 X117.278 Y62.029
G01 F600 X117.349 Y61.813
G01 F600 X117.462 Y61.616
G01 F600 X117.615 Y61.447
G01 F600 X117.799 Y61.313
G01 F600 X118.006 Y61.220
G01 F600 X118.229 Y61.173
G01 F600 X118.457 Y61.173
G01 F600 X118.679 Y61.220
G01 F600 X118.887 Y61.313
G01 F600 X119.071 Y61.447
G01 F600 X119.223 Y61.616
G01 F600 X119.337 Y61.813
G01 F600 X119.407 Y62.029
G01 F600 X119.431 Y62.255
G01 F600 X119.407 Y62.482
G01 F600 X119.337 Y62.698
G01 F600 X119.223 Y62.895
G01 F600 X119.071 Y63.064
G01 F600 X118.887 Y63.198
G01 F600 X118.679 Y63.290
G01 F600 X118.457 Y63.338
G01 F600 X118.229 Y63.338
G00 F3000 Z3.000
G00 F3000 X113.149 Y63.338
G00 F1500 Z0
G01 F600 Z-0.200
G01 F600 X112.926 Y63.290
G01 F600 X112.719 Y63.198
G01 F600 X112.535 Y63.064
G01 F600 X112.382 Y62.895
G01 F600 X112.269 Y62.698
G01 F600 X112.198 Y62.482
G01 F600 X112.175 Y62.255
G01 F600 X112.198 Y62.029
G01 F600 X112.269 Y61.813
G01 F600 X112.382 Y61.616
G01 F600 X112.535 Y61.447
G01 F600 X112.719 Y61.313
G01 F600 X112.926 Y61.220
G01 F600 X113.149 Y61.173
G01 F600 X113.377 Y61.173
G01 F600 X113.599 Y61.220
G01 F600 X113.807 Y61.313
G01 F600 X113.991 Y61.447
G01 F600 X114.143 Y61.616
G01 F600 X114.257 Y61.813
G01 F600 X114.327 Y62.029
G01 F600 X114.351 Y62.255
G01 F600 X114.327 Y62.482
G01 F600 X114.257 Y62.698
G01 F600 X114.143 Y62.895
G01 F600 X113.991 Y63.064
G01 F600 X113.807 Y63.198
G01 F600 X113.599 Y63.290
G01 F600 X113.377 Y63.338
G01 F600 X113.149 Y63.338
G00 F3000 Z3.000
G00 F3000 X115.689 Y63.338
G00 F1500 Z0
G01 F600 Z-0.200
G01 F600 X115.466 Y63.290
G01 F600 X115.259 Y63.198
G01 F600 X115.075 Y63.064
G01 F600 X114.922 Y62.895
G01 F600 X114.809 Y62.698
G01 F600 X114.738 Y62.482
G01 F600 X114.715 Y62.255
G01 F600 X114.738 Y62.029
G01 F600 X114.809 Y61.813
G01 F600 X114.922 Y61.616
G01 F600 X114.935 Y61.602
G01 F600 X114.645 Y59.974
G01 F600 X107.063 Y59.974
G01 F600 X106.911 Y59.942
G01 F600 X106.769 Y59.878
G01 F600 X106.643 Y59.787
G01 F600 X106.544 Y59.678
G01 F600 X99.687 Y50.805
G01 F600 X86.325 Y50.812
G01 F600 X86.210 Y50.896
G01 F600 X86.026 Y50.978
G01 F600 X85.830 Y51.019
G01 F600 X85.629 Y51.019
G01 F600 X85.432 Y50.978
G01 F600 X85.249 Y50.896
G01 F600 X85.086 Y50.778
G01 F600 X84.951 Y50.628
G01 F600 X84.851 Y50.454
G01 F600 X84.789 Y50.263
G01 F600 X84.768 Y50.063
G01 F600 X84.789 Y49.864
G01 F600 X84.851 Y49.672
G01 F600 X84.951 Y49.498
G01 F600 X85.086 Y49.349
G01 F600 X85.249 Y49.231
G01 F600 X85.432 Y49.149
G01 F600 X85.629 Y49.107
G01 F600 X85.830 Y49.107
G01 F600 X86.026 Y49.149
G01 F600 X86.210 Y49.231
G01 F600 X86.333 Y49.322
G01 F600 X100.133 Y49.322
G01 F600 X100.285 Y49.355
G01 F600 X100.427 Y49.418
G01 F600 X100.553 Y49.510
G01 F600 X100.652 Y49.619
G01 F600 X107.509 Y58.492
G01 F600 X115.347 Y58.492
G01 F600 X115.500 Y58.524
G01 F600 X115.642 Y58.587
G01 F600 X115.768 Y58.679
G01 F600 X115.872 Y58.795
G01 F600 X115.950 Y58.930
G01 F600 X115.997 Y59.073
G01 F600 X116.402 Y61.353
G01 F600 X116.531 Y61.447
G01 F600 X116.683 Y61.616
G01 F600 X116.797 Y61.813
G01 F600 X116.867 Y62.029
G01 F600 X116.891 Y62.255
G01 F600 X116.867 Y62.482
G01 F600 X116.797 Y62.698
G01 F600 X116.683 Y62.895
G01 F600 X116.531 Y63.064
G01 F600 X116.347 Y63.198
G01 F600 X116.139 Y63.290
G01 F600 X115.916 Y63.338
G01 F600 X115.689 Y63.338
G00 F3000 Z3.000
G00 F3000 X119.795 Y55.723
G00 F1500 Z0
G01 F600 Z-0.200
G01 F600 X119.795 Y53.548
G01 F600 X121.970 Y53.548
G01 F600 X121.970 Y55.723
G01 F600 X119.795 Y55.723
G00 F3000 Z3.000
G00 F3000 X118.229 Y55.718
G00 F1500 Z0
G01 F600 Z-0.200
G01 F600 X118.006 Y55.670
G01 F600 X117.799 Y55.578
G01 F600 X117.615 Y55.444
G01 F600 X117.462 Y55.275
G01 F600 X117.349 Y55.078
G01 F600 X117.278 Y54.862
G01 F600 X117.255 Y54.635
G01 F600 X117.278 Y54.409
G01 F600 X117.349 Y54.193
G01 F600 X117.462 Y53.996
G01 F600 X117.615 Y53.827
G01 F600 X117.799 Y53.693
G01 F600 X118.006 Y53.600
G01 F600 X118.229 Y53.553
G01 F600 X118.457 Y53.553
G01 F600 X118.679 Y53.600
G01 F600 X118.887 Y53.693
G01 F600 X119.071 Y53.827
G01 F600 X119.223 Y53.996
G01 F600 X119.337 Y54.193
G01 F600 X119.407 Y54.409
G01 F600 X119.431 Y54.635
G01 F600 X119.407 Y54.862
G01 F600 X119.337 Y55.078
G01 F600 X119.223 Y55.275
G01 F600 X119.071 Y55.444
G01 F600 X118.887 Y55.578
G01 F600 X118.679 Y55.670
G01 F600 X118.457 Y55.718
G01 F600 X118.229 Y55.718
G00 F3000 Z3.000
G00 F3000 X113.149 Y55.718
G00 F1500 Z0
G01 F600 Z-0.200
G01 F600 X112.926 Y55.670
G01 F600 X112.719 Y55.578
G01 F600 X112.535 Y55.444
G01 F600 X112.382 Y55.275
G01 F600 X112.269 Y55.078
G01 F600 X112.198 Y54.862
G01 F600 X112.175 Y54.635
G01 F600 X112.198 Y54.409
G01 F600 X112.269 Y54.193
G01 F600 X112.382 Y53.996
G01 F600 X112.534 Y53.827
G01 F600 X112.547 Y53.817
G01 F600 X112.534 Y53.774
G01 F600 X112.518 Y53.627
G01 F600 X112.518 Y46.233
G01 F600 X82.506 Y46.233
G01 F600 X82.486 Y49.182
G01 F600 X82.470 Y49.329
G01 F600 X82.436 Y49.435
G01 F600 X82.494 Y49.498
G01 F600 X82.594 Y49.672
G01 F600 X82.656 Y49.864
G01 F600 X82.677 Y50.063
G01 F600 X82.656 Y50.263
G01 F600 X82.594 Y50.454
G01 F600 X82.494 Y50.628
G01 F600 X82.359 Y50.778
G01 F600 X82.197 Y50.896
G01 F600 X82.013 Y50.978
G01 F600 X81.816 Y51.019
G01 F600 X81.615 Y51.019
G01 F600 X81.419 Y50.978
G01 F600 X81.235 Y50.896
G01 F600 X81.073 Y50.778
G01 F600 X80.938 Y50.628
G01 F600 X80.838 Y50.454
G01 F600 X80.776 Y50.263
G01 F600 X80.755 Y50.063
G01 F600 X80.776 Y49.864
G01 F600 X80.838 Y49.672
G01 F600 X80.938 Y49.498
G01 F600 X81.033 Y49.393
G01 F600 X81.012 Y49.329
G01 F600 X80.997 Y49.181
G01 F600 X81.042 Y26.929
G01 F600 X26.059 Y26.929
G01 F600 X25.632 Y46.266
G01 F600 X49.623 Y46.198
G01 F600 X49.764 Y46.198
G01 F600 X49.917 Y46.230
G01 F600 X50.059 Y46.294
G01 F600 X50.185 Y46.385
G01 F600 X50.290 Y46.501
G01 F600 X50.367 Y46.636
G01 F600 X50.416 Y46.784
G01 F600 X50.431 Y46.931
G01 F600 X50.457 Y49.181
G01 F600 X50.441 Y49.329
G01 F600 X50.413 Y49.414
G01 F600 X50.490 Y49.498
G01 F600 X50.590 Y49.672
G01 F600 X50.652 Y49.864
G01 F600 X50.673 Y50.063
G01 F600 X50.652 Y50.263
G01 F600 X50.590 Y50.454
G01 F600 X50.490 Y50.628
G01 F600 X50.355 Y50.778
G01 F600 X50.193 Y50.896
G01 F600 X50.009 Y50.978
G01 F600 X49.812 Y51.019
G01 F600 X49.611 Y51.019
G01 F600 X49.415 Y50.978
G01 F600 X49.231 Y50.896
G01 F600 X49.069 Y50.778
G01 F600 X48.934 Y50.628
G01 F600 X48.834 Y50.454
G01 F600 X48.772 Y50.263
G01 F600 X48.751 Y50.063
G01 F600 X48.772 Y49.864
G01 F600 X48.834 Y49.672
G01 F600 X48.935 Y49.498
G01 F600 X49.011 Y49.415
G01 F600 X48.983 Y49.329
G01 F600 X48.967 Y49.182
G01 F600 X48.950 Y47.683
G01 F600 X24.977 Y47.751
G01 F600 X24.949 Y47.757
G01 F600 X23.575 Y47.757
G01 F600 X23.558 Y49.182
G01 F600 X23.542 Y49.329
G01 F600 X23.508 Y49.435
G01 F600 X23.566 Y49.498
G01 F600 X23.666 Y49.672
G01 F600 X23.728 Y49.864
G01 F600 X23.749 Y50.063
G01 F600 X23.728 Y50.263
G01 F600 X23.666 Y50.454
G01 F600 X23.566 Y50.628
G01 F600 X23.431 Y50.778
G01 F600 X23.268 Y50.896
G01 F600 X23.085 Y50.978
G01 F600 X22.888 Y51.019
G01 F600 X22.687 Y51.019
G01 F600 X22.491 Y50.978
G01 F600 X22.307 Y50.896
G01 F600 X22.145 Y50.778
G01 F600 X22.010 Y50.628
G01 F600 X21.910 Y50.454
G01 F600 X21.848 Y50.263
G01 F600 X21.827 Y50.063
G01 F600 X21.848 Y49.864
G01 F600 X21.910 Y49.672
G01 F600 X22.010 Y49.498
G01 F600 X22.105 Y49.393
G01 F600 X22.084 Y49.329
G01 F600 X22.069 Y49.181
G01 F600 X22.094 Y47.008
G01 F600 X22.110 Y46.860
G01 F600 X22.158 Y46.712
G01 F600 X22.236 Y46.577
G01 F600 X22.340 Y46.462
G01 F600 X22.466 Y46.370
G01 F600 X22.608 Y46.306
G01 F600 X22.761 Y46.274
G01 F600 X24.143 Y46.270
G01 F600 X24.634 Y23.994
G01 F600 X24.650 Y23.846
G01 F600 X24.680 Y23.764
G01 F600 X24.626 Y23.704
G01 F600 X24.526 Y23.530
G01 F600 X24.464 Y23.339
G01 F600 X24.443 Y23.139
G01 F600 X24.464 Y22.940
G01 F600 X24.526 Y22.748
G01 F600 X24.626 Y22.574
G01 F600 X24.761 Y22.425
G01 F600 X24.924 Y22.307
G01 F600 X25.107 Y22.225
G01 F600 X25.304 Y22.183
G01 F600 X25.505 Y22.183
G01 F600 X25.701 Y22.225
G01 F600 X25.885 Y22.307
G01 F600 X26.047 Y22.425
G01 F600 X26.182 Y22.574
G01 F600 X26.282 Y22.748
G01 F600 X26.344 Y22.940
G01 F600 X26.365 Y23.139
G01 F600 X26.344 Y23.339
G01 F600 X26.282 Y23.530
G01 F600 X26.181 Y23.706
G01 F600 X26.092 Y23.800
G01 F600 X26.108 Y23.848
G01 F600 X26.123 Y23.996
G01 F600 X26.123 Y25.446
G01 F600 X50.542 Y25.446
G01 F600 X50.542 Y23.996
G01 F600 X50.558 Y23.846
G01 F600 X50.588 Y23.764
G01 F600 X50.534 Y23.704
G01 F600 X50.434 Y23.530
G01 F600 X50.372 Y23.339
G01 F600 X50.351 Y23.139
G01 F600 X50.372 Y22.940
G01 F600 X50.434 Y22.748
G01 F600 X50.534 Y22.574
G01 F600 X50.669 Y22.425
G01 F600 X50.832 Y22.307
G01 F600 X51.015 Y22.225
G01 F600 X51.212 Y22.183
G01 F600 X51.413 Y22.183
G01 F600 X51.609 Y22.225
G01 F600 X51.793 Y22.307
G01 F600 X51.955 Y22.425
G01 F600 X52.090 Y22.574
G01 F600 X52.190 Y22.748
G01 F600 X52.252 Y22.940
G01 F600 X52.273 Y23.139
G01 F600 X52.252 Y23.339
G01 F600 X52.190 Y23.530
G01 F600 X52.089 Y23.706
G01 F600 X52.000 Y23.800
G01 F600 X52.016 Y23.848
G01 F600 X52.031 Y23.996
G01 F600 X52.031 Y25.446
G01 F600 X81.022 Y25.446
G01 F600 X81.022 Y23.996
G01 F600 X81.038 Y23.846
G01 F600 X81.068 Y23.764
G01 F600 X81.014 Y23.704
G01 F600 X80.914 Y23.530
G01 F600 X80.852 Y23.339
G01 F600 X80.831 Y23.139
G01 F600 X80.852 Y22.940
G01 F600 X80.914 Y22.748
G01 F600 X81.014 Y22.574
G01 F600 X81.149 Y22.425
G01 F600 X81.312 Y22.307
G01 F600 X81.495 Y22.225
G01 F600 X81.692 Y22.183
G01 F600 X81.893 Y22.183
G01 F600 X82.089 Y22.225
G01 F600 X82.273 Y22.307
G01 F600 X82.435 Y22.425
G01 F600 X82.570 Y22.574
G01 F600 X82.670 Y22.748
G01 F600 X82.732 Y22.940
G01 F600 X82.753 Y23.139
G01 F600 X82.732 Y23.339
G01 F600 X82.670 Y23.530
G01 F600 X82.571 Y23.703
G01 F600 X82.501 Y23.785
G01 F600 X82.521 Y23.848
G01 F600 X82.537 Y23.996
G01 F600 X82.495 Y44.750
G01 F600 X112.518 Y44.750
G01 F600 X112.518 Y44.077
G01 F600 X112.137 Y44.077
G01 F600 X112.137 Y41.826
G01 F600 X114.388 Y41.826
G01 F600 X114.388 Y44.077
G01 F600 X114.007 Y44.077
G01 F600 X114.007 Y44.750
G01 F600 X119.843 Y44.750
G01 F600 X119.954 Y44.774
G01 F600 X120.095 Y44.617
G01 F600 X120.294 Y44.472
G01 F600 X120.519 Y44.372
G01 F600 X120.760 Y44.321
G01 F600 X121.006 Y44.321
G01 F600 X121.247 Y44.372
G01 F600 X121.471 Y44.472
G01 F600 X121.670 Y44.617
G01 F600 X121.835 Y44.800
G01 F600 X121.958 Y45.013
G01 F600 X122.034 Y45.247
G01 F600 X122.060 Y45.491
G01 F600 X122.034 Y45.736
G01 F600 X121.958 Y45.970
G01 F600 X121.835 Y46.183
G01 F600 X121.670 Y46.366
G01 F600 X121.471 Y46.511
G01 F600 X121.247 Y46.611
G01 F600 X121.006 Y46.662
G01 F600 X120.760 Y46.662
G01 F600 X120.519 Y46.611
G01 F600 X120.294 Y46.511
G01 F600 X120.095 Y46.366
G01 F600 X119.954 Y46.209
G01 F600 X119.843 Y46.233
G01 F600 X114.007 Y46.233
G01 F600 X114.007 Y53.627
G01 F600 X113.992 Y53.775
G01 F600 X113.978 Y53.817
G01 F600 X113.991 Y53.827
G01 F600 X114.143 Y53.996
G01 F600 X114.257 Y54.193
G01 F600 X114.327 Y54.409
G01 F600 X114.351 Y54.635
G01 F600 X114.327 Y54.862
G01 F600 X114.257 Y55.078
G01 F600 X114.143 Y55.275
G01 F600 X113.991 Y55.444
G01 F600 X113.807 Y55.578
G01 F600 X113.599 Y55.670
G01 F600 X113.377 Y55.718
G01 F600 X113.149 Y55.718
G00 F3000 Z3.000
G00 F3000 X115.689 Y55.718
G00 F1500 Z0
G01 F600 Z-0.200
G01 F600 X115.466 Y55.670
G01 F600 X115.259 Y55.578
G01 F600 X115.075 Y55.444
G01 F600 X114.922 Y55.275
G01 F600 X114.809 Y55.078
G01 F600 X114.738 Y54.862
G01 F600 X114.715 Y54.635
G01 F600 X114.738 Y54.409
G01 F600 X114.809 Y54.193
G01 F600 X114.922 Y53.996
G01 F600 X115.075 Y53.827
G01 F600 X115.259 Y53.693
G01 F600 X115.466 Y53.600
G01 F600 X115.689 Y53.553
G01 F600 X115.916 Y53.553
G01 F600 X116.139 Y53.600
G01 F600 X116.347 Y53.693
G01 F600 X116.531 Y53.827
G01 F600 X116.683 Y53.996
G01 F600 X116.797 Y54.193
G01 F600 X116.867 Y54.409
G01 F600 X116.891 Y54.635
G01 F600 X116.867 Y54.862
G01 F600 X116.797 Y55.078
G01 F600 X116.683 Y55.275
G01 F600 X116.531 Y55.444
G01 F600 X116.347 Y55.578
G01 F600 X116.139 Y55.670
G01 F600 X115.916 Y55.718
G01 F600 X115.689 Y55.718
G00 F3000 Z3.000
G00 F3000 X53.625 Y51.019
G00 F1500 Z0
G01 F600 Z-0.200
G01 F600 X53.428 Y50.978
G01 F600 X53.245 Y50.896
G01 F600 X53.082 Y50.778
G01 F600 X52.947 Y50.628
G01 F600 X52.847 Y50.454
G01 F600 X52.785 Y50.263
G01 F600 X52.764 Y50.063
G01 F600 X52.785 Y49.864
G01 F600 X52.847 Y49.672
G01 F600 X52.947 Y49.498
G01 F600 X53.082 Y49.349
G01 F600 X53.245 Y49.231
G01 F600 X53.428 Y49.149
G01 F600 X53.625 Y49.107
G01 F600 X53.826 Y49.107
G01 F600 X54.022 Y49.149
G01 F600 X54.206 Y49.231
G01 F600 X54.368 Y49.349
G01 F600 X54.376 Y49.358
G01 F600 X54.384 Y49.355
G01 F600 X54.536 Y49.322
G01 F600 X78.924 Y49.322
G01 F600 X79.076 Y49.355
G01 F600 X79.084 Y49.358
G01 F600 X79.092 Y49.349
G01 F600 X79.254 Y49.231
G01 F600 X79.438 Y49.149
G01 F600 X79.634 Y49.107
G01 F600 X79.835 Y49.107
G01 F600 X80.032 Y49.149
G01 F600 X80.215 Y49.231
G01 F600 X80.378 Y49.349
G01 F600 X80.512 Y49.498
G01 F600 X80.613 Y49.672
G01 F600 X80.675 Y49.864
G01 F600 X80.696 Y50.063
G01 F600 X80.675 Y50.263
G01 F600 X80.613 Y50.454
G01 F600 X80.512 Y50.628
G01 F600 X80.378 Y50.778
G01 F600 X80.215 Y50.896
G01 F600 X80.032 Y50.978
G01 F600 X79.835 Y51.019
G01 F600 X79.634 Y51.019
G01 F600 X79.438 Y50.978
G01 F600 X79.254 Y50.896
G01 F600 X79.092 Y50.778
G01 F600 X79.084 Y50.769
G01 F600 X79.076 Y50.772
G01 F600 X78.924 Y50.805
G01 F600 X54.536 Y50.805
G01 F600 X54.384 Y50.772
G01 F600 X54.376 Y50.769
G01 F600 X54.368 Y50.778
G01 F600 X54.206 Y50.896
G01 F600 X54.022 Y50.978
G01 F600 X53.826 Y51.019
G01 F600 X53.625 Y51.019
G00 F3000 Z3.000
G00 F3000 X26.701 Y51.019
G00 F1500 Z0
G01 F600 Z-0.200
G01 F600 X26.504 Y50.978
G01 F600 X26.321 Y50.896
G01 F600 X26.158 Y50.778
G01 F600 X26.023 Y50.628
G01 F600 X25.923 Y50.454
G01 F600 X25.861 Y50.263
G01 F600 X25.840 Y50.063
G01 F600 X25.861 Y49.864
G01 F600 X25.923 Y49.672
G01 F600 X26.023 Y49.498
G01 F600 X26.158 Y49.349
G01 F600 X26.321 Y49.231
G01 F600 X26.504 Y49.149
G01 F600 X26.701 Y49.107
G01 F600 X26.902 Y49.107
G01 F600 X27.098 Y49.149
G01 F600 X27.282 Y49.231
G01 F600 X27.444 Y49.349
G01 F600 X27.452 Y49.358
G01 F600 X27.460 Y49.355
G01 F600 X27.612 Y49.322
G01 F600 X46.920 Y49.322
G01 F600 X47.072 Y49.355
G01 F600 X47.080 Y49.358
G01 F600 X47.088 Y49.349
G01 F600 X47.250 Y49.231
G01 F600 X47.434 Y49.149
G01 F600 X47.630 Y49.107
G01 F600 X47.831 Y49.107
G01 F600 X48.028 Y49.149
G01 F600 X48.211 Y49.231
G01 F600 X48.374 Y49.349
G01 F600 X48.508 Y49.498
G01 F600 X48.609 Y49.672
G01 F600 X48.671 Y49.864
G01 F600 X48.692 Y50.063
G01 F600 X48.671 Y50.263
G01 F600 X48.609 Y50.454
G01 F600 X48.508 Y50.628
G01 F600 X48.374 Y50.778
G01 F600 X48.211 Y50.896
G01 F600 X48.028 Y50.978
G01 F600 X47.831 Y51.019
G01 F600 X47.630 Y51.019
G01 F600 X47.434 Y50.978
G01 F600 X47.250 Y50.896
G01 F600 X47.088 Y50.778
G01 F600 X47.080 Y50.769
G01 F600 X47.072 Y50.772
G01 F600 X46.920 Y50.805
G01 F600 X27.612 Y50.805
G01 F600 X27.460 Y50.772
G01 F600 X27.452 Y50.769
G01 F600 X27.444 Y50.778
G01 F600 X27.282 Y50.896
G01 F600 X27.098 Y50.978
G01 F600 X26.902 Y51.019
G01 F600 X26.701 Y51.019
G00 F3000 Z3.000
G00 F3000 X20.706 Y51.019
G00 F1500 Z0
G01 F600 Z-0.200
G01 F600 X20.510 Y50.978
G01 F600 X20.326 Y50.896
G01 F600 X20.164 Y50.778
G01 F600 X20.029 Y50.628
G01 F600 X19.929 Y50.454
G01 F600 X19.867 Y50.263
G01 F600 X19.846 Y50.063
G01 F600 X19.867 Y49.864
G01 F600 X19.929 Y49.672
G01 F600 X20.029 Y49.498
G01 F600 X20.105 Y49.415
G01 F600 X20.078 Y49.329
G01 F600 X20.062 Y49.180
G01 F600 X20.646 Y23.994
G01 F600 X20.662 Y23.848
G01 F600 X20.684 Y23.783
G01 F600 X20.613 Y23.704
G01 F600 X20.513 Y23.530
G01 F600 X20.451 Y23.339
G01 F600 X20.430 Y23.139
G01 F600 X20.451 Y22.940
G01 F600 X20.513 Y22.748
G01 F600 X20.613 Y22.574
G01 F600 X20.748 Y22.425
G01 F600 X20.910 Y22.307
G01 F600 X21.094 Y22.225
G01 F600 X21.290 Y22.183
G01 F600 X21.491 Y22.183
G01 F600 X21.688 Y22.225
G01 F600 X21.872 Y22.307
G01 F600 X22.034 Y22.425
G01 F600 X22.169 Y22.574
G01 F600 X22.269 Y22.748
G01 F600 X22.331 Y22.940
G01 F600 X22.352 Y23.139
G01 F600 X22.331 Y23.339
G01 F600 X22.269 Y23.530
G01 F600 X22.169 Y23.703
G01 F600 X22.100 Y23.785
G01 F600 X22.120 Y23.848
G01 F600 X22.136 Y23.998
G01 F600 X21.551 Y49.183
G01 F600 X21.536 Y49.329
G01 F600 X21.508 Y49.414
G01 F600 X21.584 Y49.498
G01 F600 X21.685 Y49.672
G01 F600 X21.747 Y49.864
G01 F600 X21.768 Y50.063
G01 F600 X21.747 Y50.263
G01 F600 X21.685 Y50.454
G01 F600 X21.584 Y50.628
G01 F600 X21.450 Y50.778
G01 F600 X21.287 Y50.896
G01 F600 X21.104 Y50.978
G01 F600 X20.907 Y51.019
G01 F600 X20.706 Y51.019
G00 F3000 Z3.000
G00 F3000 X119.706 Y44.128
G00 F1500 Z0
G01 F600 Z-0.200
G01 F600 X119.706 Y43.675
G01 F600 X116.908 Y43.693
G01 F600 X116.766 Y43.693
G01 F600 X116.662 Y43.671
G01 F600 X116.556 Y43.788
G01 F600 X116.366 Y43.927
G01 F600 X116.151 Y44.023
G01 F600 X115.920 Y44.072
G01 F600 X115.685 Y44.072
G01 F600 X115.455 Y44.023
G01 F600 X115.240 Y43.927
G01 F600 X115.049 Y43.788
G01 F600 X114.892 Y43.613
G01 F600 X114.774 Y43.410
G01 F600 X114.701 Y43.186
G01 F600 X114.676 Y42.951
G01 F600 X114.701 Y42.717
G01 F600 X114.774 Y42.493
G01 F600 X114.892 Y42.289
G01 F600 X115.049 Y42.114
G01 F600 X115.240 Y41.976
G01 F600 X115.455 Y41.880
G01 F600 X115.685 Y41.831
G01 F600 X115.920 Y41.831
G01 F600 X116.151 Y41.880
G01 F600 X116.366 Y41.976
G01 F600 X116.558 Y42.115
G01 F600 X116.659 Y42.233
G01 F600 X116.766 Y42.210
G01 F600 X119.353 Y42.194
G01 F600 X119.350 Y42.164
G01 F600 X119.366 Y42.009
G01 F600 X119.414 Y41.861
G01 F600 X119.492 Y41.726
G01 F600 X119.597 Y41.610
G01 F600 X119.723 Y41.519
G01 F600 X119.865 Y41.455
G01 F600 X120.017 Y41.423
G01 F600 X120.173 Y41.423
G01 F600 X120.326 Y41.455
G01 F600 X120.468 Y41.519
G01 F600 X120.591 Y41.608
G01 F600 X120.758 Y41.775
G01 F600 X122.059 Y41.775
G01 F600 X122.059 Y44.128
G01 F600 X119.706 Y44.128
G00 F3000 Z3.000
G00 F3000 X83.698 Y24.095
G00 F1500 Z0
G01 F600 Z-0.200
G01 F600 X83.502 Y24.054
G01 F600 X83.318 Y23.972
G01 F600 X83.156 Y23.854
G01 F600 X83.021 Y23.704
G01 F600 X82.921 Y23.530
G01 F600 X82.859 Y23.339
G01 F600 X82.838 Y23.139
G01 F600 X82.859 Y22.940
G01 F600 X82.921 Y22.748
G01 F600 X83.021 Y22.574
G01 F600 X83.156 Y22.425
G01 F600 X83.318 Y22.307
G01 F600 X83.502 Y22.225
G01 F600 X83.698 Y22.183
G01 F600 X83.899 Y22.183
G01 F600 X84.096 Y22.225
G01 F600 X84.279 Y22.307
G01 F600 X84.442 Y22.425
G01 F600 X84.576 Y22.574
G01 F600 X84.677 Y22.748
G01 F600 X84.739 Y22.940
G01 F600 X84.760 Y23.139
G01 F600 X84.739 Y23.339
G01 F600 X84.677 Y23.530
G01 F600 X84.576 Y23.704
G01 F600 X84.442 Y23.854
G01 F600 X84.279 Y23.972
G01 F600 X84.096 Y24.054
G01 F600 X83.899 Y24.095
G01 F600 X83.698 Y24.095
G00 F3000 Z3.000
G00 F3000 X27.310 Y24.095
G00 F1500 Z0
G01 F600 Z-0.200
G01 F600 X27.114 Y24.054
G01 F600 X26.930 Y23.972
G01 F600 X26.768 Y23.854
G01 F600 X26.633 Y23.704
G01 F600 X26.533 Y23.530
G01 F600 X26.471 Y23.339
G01 F600 X26.450 Y23.139
G01 F600 X26.471 Y22.940
G01 F600 X26.533 Y22.748
G01 F600 X26.633 Y22.574
G01 F600 X26.768 Y22.425
G01 F600 X26.930 Y22.307
G01 F600 X27.114 Y22.225
G01 F600 X27.310 Y22.183
G01 F600 X27.511 Y22.183
G01 F600 X27.708 Y22.225
G01 F600 X27.891 Y22.307
G01 F600 X28.054 Y22.425
G01 F600 X28.056 Y22.428
G01 F600 X28.196 Y22.398
G01 F600 X46.513 Y22.398
G01 F600 X46.653 Y22.428
G01 F600 X46.656 Y22.425
G01 F600 X46.818 Y22.307
G01 F600 X47.002 Y22.225
G01 F600 X47.198 Y22.183
G01 F600 X47.399 Y22.183
G01 F600 X47.596 Y22.225
G01 F600 X47.779 Y22.307
G01 F600 X47.942 Y22.425
G01 F600 X48.077 Y22.574
G01 F600 X48.177 Y22.748
G01 F600 X48.239 Y22.940
G01 F600 X48.260 Y23.139
G01 F600 X48.239 Y23.339
G01 F600 X48.177 Y23.530
G01 F600 X48.077 Y23.704
G01 F600 X47.942 Y23.854
G01 F600 X47.779 Y23.972
G01 F600 X47.596 Y24.054
G01 F600 X47.399 Y24.095
G01 F600 X47.198 Y24.095
G01 F600 X47.002 Y24.054
G01 F600 X46.818 Y23.972
G01 F600 X46.656 Y23.854
G01 F600 X46.653 Y23.851
G01 F600 X46.513 Y23.881
G01 F600 X28.196 Y23.881
G01 F600 X28.056 Y23.851
G01 F600 X28.054 Y23.854
G01 F600 X27.891 Y23.972
G01 F600 X27.708 Y24.054
G01 F600 X27.511 Y24.095
G01 F600 X27.310 Y24.095
G00 F3000 Z3.000
G00 F3000 X53.218 Y24.095
G00 F1500 Z0
G01 F600 Z-0.200
G01 F600 X53.022 Y24.054
G01 F600 X52.838 Y23.972
G01 F600 X52.675 Y23.854
G01 F600 X52.541 Y23.704
G01 F600 X52.441 Y23.530
G01 F600 X52.379 Y23.339
G01 F600 X52.358 Y23.139
G01 F600 X52.379 Y22.940
G01 F600 X52.441 Y22.748
G01 F600 X52.541 Y22.574
G01 F600 X52.675 Y22.425
G01 F600 X52.838 Y22.307
G01 F600 X53.022 Y22.225
G01 F600 X53.218 Y22.183
G01 F600 X53.419 Y22.183
G01 F600 X53.616 Y22.225
G01 F600 X53.799 Y22.307
G01 F600 X53.962 Y22.425
G01 F600 X53.965 Y22.428
G01 F600 X54.104 Y22.398
G01 F600 X76.993 Y22.398
G01 F600 X77.133 Y22.428
G01 F600 X77.136 Y22.425
G01 F600 X77.298 Y22.307
G01 F600 X77.482 Y22.225
G01 F600 X77.678 Y22.183
G01 F600 X77.879 Y22.183
G01 F600 X78.076 Y22.225
G01 F600 X78.260 Y22.307
G01 F600 X78.422 Y22.425
G01 F600 X78.557 Y22.574
G01 F600 X78.657 Y22.748
G01 F600 X78.719 Y22.940
G01 F600 X78.740 Y23.139
G01 F600 X78.719 Y23.339
G01 F600 X78.657 Y23.530
G01 F600 X78.557 Y23.704
G01 F600 X78.422 Y23.854
G01 F600 X78.260 Y23.972
G01 F600 X78.076 Y24.054
G01 F600 X77.879 Y24.095
G01 F600 X77.678 Y24.095
G01 F600 X77.482 Y24.054
G01 F600 X77.298 Y23.972
G01 F600 X77.136 Y23.854
G01 F600 X77.133 Y23.851
G01 F600 X76.993 Y23.881
G01 F600 X54.104 Y23.881
G01 F600 X53.965 Y23.851
G01 F600 X53.962 Y23.854
G01 F600 X53.799 Y23.972
G01 F600 X53.616 Y24.054
G01 F600 X53.419 Y24.095
G01 F600 X53.218 Y24.095
G00 F3000 Z3.000
G00 F3000 X106.992 Y66.245
G00 F1500 Z0
G01 F600 Z-0.200
G01 F600 X106.798 Y66.204
G01 F600 X106.617 Y66.123
G01 F600 X106.457 Y66.007
G01 F600 X106.339 Y65.876
G01 F600 X98.062 Y55.069
G01 F600 X52.013 Y55.069
G01 F600 X51.894 Y55.094
G01 F600 X24.746 Y55.094
G01 F600 X24.553 Y55.053
G01 F600 X24.372 Y54.972
G01 F600 X24.212 Y54.856
G01 F600 X24.080 Y54.709
G01 F600 X23.981 Y54.538
G01 F600 X23.920 Y54.350
G01 F600 X23.901 Y54.173
G01 F600 X23.850 Y50.912
G01 F600 X23.866 Y50.760
G01 F600 X23.854 Y50.747
G01 F600 X23.791 Y50.638
G01 F600 X23.728 Y50.747
G01 F600 X23.566 Y50.927
G01 F600 X23.369 Y51.070
G01 F600 X23.147 Y51.169
G01 F600 X22.909 Y51.219
G01 F600 X22.666 Y51.219
G01 F600 X22.429 Y51.169
G01 F600 X22.207 Y51.070
G01 F600 X22.010 Y50.927
G01 F600 X21.848 Y50.747
G01 F600 X21.797 Y50.660
G01 F600 X21.747 Y50.747
G01 F600 X21.585 Y50.927
G01 F600 X21.388 Y51.070
G01 F600 X21.166 Y51.169
G01 F600 X20.928 Y51.219
G01 F600 X20.685 Y51.219
G01 F600 X20.448 Y51.169
G01 F600 X20.226 Y51.070
G01 F600 X20.029 Y50.927
G01 F600 X19.866 Y50.747
G01 F600 X19.745 Y50.536
G01 F600 X19.670 Y50.305
G01 F600 X19.644 Y50.063
G01 F600 X19.670 Y49.822
G01 F600 X19.745 Y49.591
G01 F600 X19.867 Y49.379
G01 F600 X19.880 Y49.364
G01 F600 X19.862 Y49.188
G01 F600 X20.447 Y23.982
G01 F600 X20.462 Y23.835
G01 F600 X20.450 Y23.823
G01 F600 X20.329 Y23.612
G01 F600 X20.254 Y23.381
G01 F600 X20.229 Y23.139
G01 F600 X20.254 Y22.898
G01 F600 X20.329 Y22.667
G01 F600 X20.451 Y22.456
G01 F600 X20.613 Y22.276
G01 F600 X20.810 Y22.133
G01 F600 X21.032 Y22.034
G01 F600 X21.269 Y21.983
G01 F600 X21.512 Y21.983
G01 F600 X21.750 Y22.034
G01 F600 X21.972 Y22.133
G01 F600 X22.169 Y22.276
G01 F600 X22.331 Y22.456
G01 F600 X22.394 Y22.565
G01 F600 X22.458 Y22.454
G01 F600 X22.471 Y22.441
G01 F600 X22.453 Y22.270
G01 F600 X22.402 Y18.552
G01 F600 X22.421 Y18.371
G01 F600 X22.482 Y18.182
G01 F600 X22.581 Y18.011
G01 F600 X22.713 Y17.864
G01 F600 X22.873 Y17.748
G01 F600 X23.054 Y17.667
G01 F600 X23.248 Y17.626
G01 F600 X49.321 Y17.626
G01 F600 X79.750 Y18.133
G01 F600 X86.705 Y18.058
G01 F600 X86.869 Y18.058
G01 F600 X87.063 Y18.099
G01 F600 X87.244 Y18.180
G01 F600 X87.404 Y18.296
G01 F600 X87.516 Y18.421
G01 F600 X103.584 Y37.403
G01 F600 X124.397 Y36.981
G01 F600 X124.563 Y36.981
G01 F600 X124.757 Y37.022
G01 F600 X124.937 Y37.103
G01 F600 X125.097 Y37.219
G01 F600 X125.230 Y37.366
G01 F600 X125.329 Y37.537
G01 F600 X125.390 Y37.725
G01 F600 X125.409 Y37.905
G01 F600 X125.409 Y48.014
G01 F600 X124.849 Y59.665
G01 F600 X124.831 Y59.836
G01 F600 X124.770 Y60.024
G01 F600 X124.671 Y60.196
G01 F600 X124.548 Y60.332
G01 F600 X122.261 Y62.311
G01 F600 X122.158 Y62.385
G01 F600 X122.144 Y62.524
G01 F600 X122.061 Y62.780
G01 F600 X121.926 Y63.013
G01 F600 X121.745 Y63.214
G01 F600 X121.527 Y63.372
G01 F600 X121.310 Y63.469
G01 F600 X121.294 Y63.518
G01 F600 X120.237 Y65.708
G01 F600 X120.150 Y65.860
G01 F600 X120.017 Y66.007
G01 F600 X119.857 Y66.123
G01 F600 X119.677 Y66.204
G01 F600 X119.483 Y66.245
G01 F600 X106.992 Y66.245
G00 F3000 Z3.000
G00 F3000 X107.559 Y64.362
G00 F1500 Z0
G01 F600 Z-0.200
G01 F600 X118.790 Y64.362
G01 F600 X119.572 Y62.740
G01 F600 X119.649 Y62.607
G01 F600 X119.622 Y62.524
G01 F600 X119.613 Y62.440
G01 F600 X119.604 Y62.524
G01 F600 X119.521 Y62.780
G01 F600 X119.386 Y63.013
G01 F600 X119.205 Y63.214
G01 F600 X118.987 Y63.372
G01 F600 X118.741 Y63.482
G01 F600 X118.478 Y63.538
G01 F600 X118.208 Y63.538
G01 F600 X117.944 Y63.482
G01 F600 X117.698 Y63.372
G01 F600 X117.480 Y63.214
G01 F600 X117.300 Y63.013
G01 F600 X117.165 Y62.780
G01 F600 X117.082 Y62.524
G01 F600 X117.073 Y62.440
G01 F600 X117.064 Y62.524
G01 F600 X116.981 Y62.780
G01 F600 X116.846 Y63.013
G01 F600 X116.665 Y63.214
G01 F600 X116.447 Y63.372
G01 F600 X116.201 Y63.482
G01 F600 X115.938 Y63.538
G01 F600 X115.668 Y63.538
G01 F600 X115.404 Y63.482
G01 F600 X115.158 Y63.372
G01 F600 X114.940 Y63.214
G01 F600 X114.760 Y63.013
G01 F600 X114.625 Y62.780
G01 F600 X114.541 Y62.524
G01 F600 X114.533 Y62.440
G01 F600 X114.524 Y62.524
G01 F600 X114.441 Y62.780
G01 F600 X114.306 Y63.013
G01 F600 X114.125 Y63.214
G01 F600 X113.907 Y63.372
G01 F600 X113.661 Y63.482
G01 F600 X113.398 Y63.538
G01 F600 X113.128 Y63.538
G01 F600 X112.864 Y63.482
G01 F600 X112.618 Y63.372
G01 F600 X112.400 Y63.214
G01 F600 X112.220 Y63.013
G01 F600 X112.085 Y62.780
G01 F600 X112.002 Y62.524
G01 F600 X111.973 Y62.255
G01 F600 X112.002 Y61.987
G01 F600 X112.085 Y61.731
G01 F600 X112.220 Y61.498
G01 F600 X112.400 Y61.297
G01 F600 X112.618 Y61.139
G01 F600 X112.864 Y61.029
G01 F600 X113.128 Y60.973
G01 F600 X113.398 Y60.973
G01 F600 X113.661 Y61.029
G01 F600 X113.907 Y61.139
G01 F600 X114.125 Y61.297
G01 F600 X114.306 Y61.498
G01 F600 X114.441 Y61.731
G01 F600 X114.524 Y61.987
G01 F600 X114.533 Y62.071
G01 F600 X114.541 Y61.987
G01 F600 X114.625 Y61.731
G01 F600 X114.724 Y61.559
G01 F600 X114.478 Y60.174
G01 F600 X107.042 Y60.174
G01 F600 X106.849 Y60.133
G01 F600 X106.668 Y60.052
G01 F600 X106.508 Y59.936
G01 F600 X106.391 Y59.806
G01 F600 X99.589 Y51.005
G01 F600 X86.390 Y51.012
G01 F600 X86.310 Y51.070
G01 F600 X86.088 Y51.169
G01 F600 X85.851 Y51.219
G01 F600 X85.608 Y51.219
G01 F600 X85.370 Y51.169
G01 F600 X85.148 Y51.070
G01 F600 X84.951 Y50.927
G01 F600 X84.789 Y50.747
G01 F600 X84.726 Y50.638
G01 F600 X84.676 Y50.724
G01 F600 X84.673 Y50.728
G01 F600 X84.674 Y50.730
G01 F600 X84.692 Y50.907
G01 F600 X84.729 Y53.186
G01 F600 X98.630 Y53.186
G01 F600 X98.823 Y53.227
G01 F600 X99.004 Y53.308
G01 F600 X99.164 Y53.424
G01 F600 X99.282 Y53.555
G01 F600 X107.559 Y64.362
G00 F3000 Z3.000
G00 F3000 X117.073 Y62.071
G00 F1500 Z0
G01 F600 Z-0.200
G01 F600 X117.082 Y61.987
G01 F600 X117.165 Y61.731
G01 F600 X117.300 Y61.498
G01 F600 X117.480 Y61.297
G01 F600 X117.698 Y61.139
G01 F600 X117.944 Y61.029
G01 F600 X118.208 Y60.973
G01 F600 X118.478 Y60.973
G01 F600 X118.741 Y61.029
G01 F600 X118.987 Y61.139
G01 F600 X119.205 Y61.297
G01 F600 X119.386 Y61.498
G01 F600 X119.521 Y61.731
G01 F600 X119.604 Y61.987
G01 F600 X119.613 Y62.071
G01 F600 X119.622 Y61.987
G01 F600 X119.705 Y61.731
G01 F600 X119.840 Y61.498
G01 F600 X120.020 Y61.297
G01 F600 X120.238 Y61.139
G01 F600 X120.484 Y61.029
G01 F600 X120.748 Y60.973
G01 F600 X120.938 Y60.973
G01 F600 X121.002 Y60.902
G01 F600 X122.982 Y59.189
G01 F600 X123.474 Y48.947
G01 F600 X121.903 Y48.947
G01 F600 X121.805 Y49.056
G01 F600 X121.572 Y49.225
G01 F600 X121.309 Y49.342
G01 F600 X121.027 Y49.402
G01 F600 X120.739 Y49.402
G01 F600 X120.457 Y49.342
G01 F600 X120.194 Y49.225
G01 F600 X119.960 Y49.056
G01 F600 X119.768 Y48.842
G01 F600 X119.624 Y48.592
G01 F600 X119.535 Y48.318
G01 F600 X119.505 Y48.031
G01 F600 X119.535 Y47.745
G01 F600 X119.624 Y47.471
G01 F600 X119.768 Y47.221
G01 F600 X119.960 Y47.007
G01 F600 X120.194 Y46.838
G01 F600 X120.365 Y46.761
G01 F600 X120.194 Y46.685
G01 F600 X119.960 Y46.516
G01 F600 X119.882 Y46.429
G01 F600 X119.864 Y46.433
G01 F600 X114.207 Y46.433
G01 F600 X114.207 Y53.637
G01 F600 X114.195 Y53.754
G01 F600 X114.306 Y53.878
G01 F600 X114.441 Y54.111
G01 F600 X114.524 Y54.367
G01 F600 X114.533 Y54.451
G01 F600 X114.541 Y54.367
G01 F600 X114.625 Y54.111
G01 F600 X114.760 Y53.878
G01 F600 X114.940 Y53.677
G01 F600 X115.158 Y53.519
G01 F600 X115.404 Y53.409
G01 F600 X115.668 Y53.353
G01 F600 X115.938 Y53.353
G01 F600 X116.201 Y53.409
G01 F600 X116.447 Y53.519
G01 F600 X116.665 Y53.677
G01 F600 X116.846 Y53.878
G01 F600 X116.981 Y54.111
G01 F600 X117.064 Y54.367
G01 F600 X117.073 Y54.451
G01 F600 X117.082 Y54.367
G01 F600 X117.165 Y54.111
G01 F600 X117.300 Y53.878
G01 F600 X117.480 Y53.677
G01 F600 X117.698 Y53.519
G01 F600 X117.944 Y53.409
G01 F600 X118.208 Y53.353
G01 F600 X118.478 Y53.353
G01 F600 X118.741 Y53.409
G01 F600 X118.987 Y53.519
G01 F600 X119.205 Y53.677
G01 F600 X119.386 Y53.878
G01 F600 X119.521 Y54.111
G01 F600 X119.595 Y54.341
G01 F600 X119.595 Y53.348
G01 F600 X122.170 Y53.348
G01 F600 X122.170 Y55.923
G01 F600 X119.595 Y55.923
G01 F600 X119.595 Y54.930
G01 F600 X119.521 Y55.160
G01 F600 X119.386 Y55.393
G01 F600 X119.205 Y55.594
G01 F600 X118.987 Y55.752
G01 F600 X118.741 Y55.862
G01 F600 X118.478 Y55.918
G01 F600 X118.208 Y55.918
G01 F600 X117.944 Y55.862
G01 F600 X117.698 Y55.752
G01 F600 X117.480 Y55.594
G01 F600 X117.300 Y55.393
G01 F600 X117.165 Y55.160
G01 F600 X117.082 Y54.904
G01 F600 X117.073 Y54.820
G01 F600 X117.064 Y54.904
G01 F600 X116.981 Y55.160
G01 F600 X116.846 Y55.393
G01 F600 X116.665 Y55.594
G01 F600 X116.447 Y55.752
G01 F600 X116.201 Y55.862
G01 F600 X115.938 Y55.918
G01 F600 X115.668 Y55.918
G01 F600 X115.404 Y55.862
G01 F600 X115.158 Y55.752
G01 F600 X114.940 Y55.594
G01 F600 X114.760 Y55.393
G01 F600 X114.625 Y55.160
G01 F600 X114.541 Y54.904
G01 F600 X114.533 Y54.820
G01 F600 X114.524 Y54.904
G01 F600 X114.441 Y55.160
G01 F600 X114.306 Y55.393
G01 F600 X114.125 Y55.594
G01 F600 X113.907 Y55.752
G01 F600 X113.661 Y55.862
G01 F600 X113.398 Y55.918
G01 F600 X113.128 Y55.918
G01 F600 X112.864 Y55.862
G01 F600 X112.618 Y55.752
G01 F600 X112.400 Y55.594
G01 F600 X112.220 Y55.393
G01 F600 X112.085 Y55.160
G01 F600 X112.002 Y54.904
G01 F600 X111.973 Y54.635
G01 F600 X112.002 Y54.367
G01 F600 X112.085 Y54.111
G01 F600 X112.220 Y53.878
G01 F600 X112.330 Y53.755
G01 F600 X112.318 Y53.637
G01 F600 X112.318 Y46.433
G01 F600 X82.705 Y46.433
G01 F600 X82.686 Y49.193
G01 F600 X82.667 Y49.371
G01 F600 X82.661 Y49.389
G01 F600 X82.719 Y49.489
G01 F600 X82.782 Y49.380
G01 F600 X82.945 Y49.200
G01 F600 X83.141 Y49.057
G01 F600 X83.363 Y48.958
G01 F600 X83.601 Y48.907
G01 F600 X83.844 Y48.907
G01 F600 X84.082 Y48.958
G01 F600 X84.304 Y49.057
G01 F600 X84.500 Y49.200
G01 F600 X84.663 Y49.380
G01 F600 X84.726 Y49.489
G01 F600 X84.789 Y49.380
G01 F600 X84.951 Y49.200
G01 F600 X85.148 Y49.057
G01 F600 X85.370 Y48.958
G01 F600 X85.608 Y48.907
G01 F600 X85.851 Y48.907
G01 F600 X86.088 Y48.958
G01 F600 X86.312 Y49.058
G01 F600 X86.399 Y49.122
G01 F600 X100.154 Y49.122
G01 F600 X100.347 Y49.163
G01 F600 X100.528 Y49.244
G01 F600 X100.688 Y49.360
G01 F600 X100.805 Y49.490
G01 F600 X107.607 Y58.292
G01 F600 X115.368 Y58.292
G01 F600 X115.562 Y58.333
G01 F600 X115.743 Y58.413
G01 F600 X115.903 Y58.530
G01 F600 X116.035 Y58.677
G01 F600 X116.134 Y58.848
G01 F600 X116.191 Y59.025
G01 F600 X116.585 Y61.239
G01 F600 X116.666 Y61.297
G01 F600 X116.846 Y61.498
G01 F600 X116.981 Y61.731
G01 F600 X117.064 Y61.987
G01 F600 X117.073 Y62.071
G00 F3000 Z3.000
G00 F3000 X25.775 Y53.212
G00 F1500 Z0
G01 F600 Z-0.200
G01 F600 X50.835 Y53.212
G01 F600 X50.799 Y50.912
G01 F600 X50.813 Y50.785
G01 F600 X50.778 Y50.747
G01 F600 X50.715 Y50.638
G01 F600 X50.652 Y50.747
G01 F600 X50.490 Y50.927
G01 F600 X50.293 Y51.070
G01 F600 X50.071 Y51.169
G01 F600 X49.833 Y51.219
G01 F600 X49.590 Y51.219
G01 F600 X49.353 Y51.169
G01 F600 X49.131 Y51.070
G01 F600 X48.934 Y50.927
G01 F600 X48.772 Y50.747
G01 F600 X48.721 Y50.660
G01 F600 X48.671 Y50.747
G01 F600 X48.509 Y50.927
G01 F600 X48.312 Y51.070
G01 F600 X48.090 Y51.169
G01 F600 X47.852 Y51.219
G01 F600 X47.609 Y51.219
G01 F600 X47.372 Y51.169
G01 F600 X47.150 Y51.070
G01 F600 X47.033 Y50.985
G01 F600 X46.941 Y51.005
G01 F600 X27.591 Y51.005
G01 F600 X27.499 Y50.985
G01 F600 X27.382 Y51.070
G01 F600 X27.160 Y51.169
G01 F600 X26.923 Y51.219
G01 F600 X26.680 Y51.219
G01 F600 X26.442 Y51.169
G01 F600 X26.220 Y51.070
G01 F600 X26.023 Y50.927
G01 F600 X25.861 Y50.747
G01 F600 X25.798 Y50.638
G01 F600 X25.737 Y50.742
G01 F600 X25.723 Y50.759
G01 F600 X25.739 Y50.907
G01 F600 X25.775 Y53.212
G00 F3000 Z3.000
G00 F3000 X52.724 Y53.186
G00 F1500 Z0
G01 F600 Z-0.200
G01 F600 X82.839 Y53.186
G01 F600 X82.803 Y50.912
G01 F600 X82.817 Y50.785
G01 F600 X82.782 Y50.747
G01 F600 X82.719 Y50.638
G01 F600 X82.656 Y50.747
G01 F600 X82.494 Y50.927
G01 F600 X82.297 Y51.070
G01 F600 X82.075 Y51.169
G01 F600 X81.837 Y51.219
G01 F600 X81.594 Y51.219
G01 F600 X81.357 Y51.169
G01 F600 X81.135 Y51.070
G01 F600 X80.938 Y50.927
G01 F600 X80.776 Y50.747
G01 F600 X80.725 Y50.660
G01 F600 X80.675 Y50.747
G01 F600 X80.513 Y50.927
G01 F600 X80.316 Y51.070
G01 F600 X80.094 Y51.169
G01 F600 X79.856 Y51.219
G01 F600 X79.613 Y51.219
G01 F600 X79.376 Y51.169
G01 F600 X79.154 Y51.070
G01 F600 X79.037 Y50.985
G01 F600 X78.945 Y51.005
G01 F600 X54.515 Y51.005
G01 F600 X54.423 Y50.985
G01 F600 X54.306 Y51.070
G01 F600 X54.084 Y51.169
G01 F600 X53.847 Y51.219
G01 F600 X53.604 Y51.219
G01 F600 X53.366 Y51.169
G01 F600 X53.144 Y51.070
G01 F600 X52.947 Y50.927
G01 F600 X52.785 Y50.747
G01 F600 X52.722 Y50.638
G01 F600 X52.672 Y50.724
G01 F600 X52.669 Y50.728
G01 F600 X52.670 Y50.730
G01 F600 X52.688 Y50.907
G01 F600 X52.724 Y53.186
G00 F3000 Z3.000
G00 F3000 X23.791 Y49.489
G00 F1500 Z0
G01 F600 Z-0.200
G01 F600 X23.854 Y49.380
G01 F600 X24.017 Y49.200
G01 F600 X24.213 Y49.057
G01 F600 X24.435 Y48.958
G01 F600 X24.673 Y48.907
G01 F600 X24.916 Y48.907
G01 F600 X25.154 Y48.958
G01 F600 X25.376 Y49.057
G01 F600 X25.572 Y49.200
G01 F600 X25.735 Y49.380
G01 F600 X25.798 Y49.489
G01 F600 X25.861 Y49.380
G01 F600 X26.023 Y49.200
G01 F600 X26.220 Y49.057
G01 F600 X26.442 Y48.958
G01 F600 X26.680 Y48.907
G01 F600 X26.923 Y48.907
G01 F600 X27.160 Y48.958
G01 F600 X27.382 Y49.057
G01 F600 X27.499 Y49.142
G01 F600 X27.591 Y49.122
G01 F600 X46.941 Y49.122
G01 F600 X47.033 Y49.142
G01 F600 X47.150 Y49.057
G01 F600 X47.372 Y48.958
G01 F600 X47.609 Y48.907
G01 F600 X47.852 Y48.907
G01 F600 X48.090 Y48.958
G01 F600 X48.312 Y49.057
G01 F600 X48.509 Y49.200
G01 F600 X48.671 Y49.380
G01 F600 X48.721 Y49.467
G01 F600 X48.773 Y49.379
G01 F600 X48.785 Y49.364
G01 F600 X48.768 Y49.194
G01 F600 X48.753 Y47.883
G01 F600 X24.998 Y47.951
G01 F600 X24.969 Y47.957
G01 F600 X23.772 Y47.957
G01 F600 X23.758 Y49.194
G01 F600 X23.739 Y49.371
G01 F600 X23.733 Y49.389
G01 F600 X23.791 Y49.489
G00 F3000 Z3.000
G00 F3000 X50.715 Y49.489
G00 F1500 Z0
G01 F600 Z-0.200
G01 F600 X50.778 Y49.380
G01 F600 X50.941 Y49.200
G01 F600 X51.137 Y49.057
G01 F600 X51.359 Y48.958
G01 F600 X51.597 Y48.907
G01 F600 X51.840 Y48.907
G01 F600 X52.078 Y48.958
G01 F600 X52.300 Y49.057
G01 F600 X52.496 Y49.200
G01 F600 X52.659 Y49.380
G01 F600 X52.722 Y49.489
G01 F600 X52.785 Y49.380
G01 F600 X52.947 Y49.200
G01 F600 X53.144 Y49.057
G01 F600 X53.366 Y48.958
G01 F600 X53.604 Y48.907
G01 F600 X53.847 Y48.907
G01 F600 X54.084 Y48.958
G01 F600 X54.306 Y49.057
G01 F600 X54.423 Y49.142
G01 F600 X54.515 Y49.122
G01 F600 X78.945 Y49.122
G01 F600 X79.037 Y49.142
G01 F600 X79.154 Y49.057
G01 F600 X79.376 Y48.958
G01 F600 X79.613 Y48.907
G01 F600 X79.856 Y48.907
G01 F600 X80.094 Y48.958
G01 F600 X80.316 Y49.057
G01 F600 X80.513 Y49.200
G01 F600 X80.675 Y49.380
G01 F600 X80.725 Y49.467
G01 F600 X80.776 Y49.380
G01 F600 X80.812 Y49.340
G01 F600 X80.797 Y49.192
G01 F600 X80.841 Y27.129
G01 F600 X26.255 Y27.129
G01 F600 X25.837 Y46.065
G01 F600 X49.622 Y45.998
G01 F600 X49.785 Y45.998
G01 F600 X49.979 Y46.039
G01 F600 X50.160 Y46.120
G01 F600 X50.320 Y46.236
G01 F600 X50.452 Y46.383
G01 F600 X50.551 Y46.554
G01 F600 X50.612 Y46.742
G01 F600 X50.631 Y46.920
G01 F600 X50.657 Y49.190
G01 F600 X50.638 Y49.365
G01 F600 X50.652 Y49.380
G01 F600 X50.715 Y49.489
G00 F3000 Z3.000
G00 F3000 X21.797 Y49.467
G00 F1500 Z0
G01 F600 Z-0.200
G01 F600 X21.848 Y49.380
G01 F600 X21.884 Y49.340
G01 F600 X21.869 Y49.190
G01 F600 X21.894 Y46.996
G01 F600 X21.913 Y46.819
G01 F600 X21.974 Y46.630
G01 F600 X22.073 Y46.459
G01 F600 X22.205 Y46.312
G01 F600 X22.365 Y46.196
G01 F600 X22.546 Y46.115
G01 F600 X22.739 Y46.074
G01 F600 X23.947 Y46.071
G01 F600 X24.434 Y23.982
G01 F600 X24.453 Y23.804
G01 F600 X24.401 Y23.714
G01 F600 X24.338 Y23.823
G01 F600 X24.175 Y24.003
G01 F600 X23.979 Y24.146
G01 F600 X23.757 Y24.245
G01 F600 X23.519 Y24.295
G01 F600 X23.276 Y24.295
G01 F600 X23.038 Y24.245
G01 F600 X22.816 Y24.146
G01 F600 X22.620 Y24.003
G01 F600 X22.457 Y23.823
G01 F600 X22.394 Y23.713
G01 F600 X22.334 Y23.818
G01 F600 X22.320 Y23.835
G01 F600 X22.336 Y23.989
G01 F600 X21.751 Y49.196
G01 F600 X21.733 Y49.365
G01 F600 X21.747 Y49.380
G01 F600 X21.797 Y49.467
G00 F3000 Z3.000
G00 F3000 X121.860 Y47.068
G00 F1500 Z0
G01 F600 Z-0.200
G01 F600 X121.876 Y47.065
G01 F600 X123.520 Y47.065
G01 F600 X123.520 Y38.884
G01 F600 X103.221 Y39.295
G01 F600 X103.055 Y39.295
G01 F600 X102.861 Y39.254
G01 F600 X102.680 Y39.174
G01 F600 X102.520 Y39.057
G01 F600 X102.408 Y38.933
G01 F600 X86.336 Y19.946
G01 F600 X80.694 Y20.007
G01 F600 X80.730 Y22.265
G01 F600 X80.712 Y22.441
G01 F600 X80.726 Y22.456
G01 F600 X80.789 Y22.565
G01 F600 X80.852 Y22.456
G01 F600 X81.014 Y22.276
G01 F600 X81.211 Y22.133
G01 F600 X81.433 Y22.034
G01 F600 X81.671 Y21.983
G01 F600 X81.914 Y21.983
G01 F600 X82.151 Y22.034
G01 F600 X82.373 Y22.133
G01 F600 X82.570 Y22.276
G01 F600 X82.733 Y22.456
G01 F600 X82.795 Y22.565
G01 F600 X82.858 Y22.456
G01 F600 X83.021 Y22.276
G01 F600 X83.218 Y22.133
G01 F600 X83.440 Y22.034
G01 F600 X83.677 Y21.983
G01 F600 X83.920 Y21.983
G01 F600 X84.158 Y22.034
G01 F600 X84.380 Y22.133
G01 F600 X84.577 Y22.276
G01 F600 X84.739 Y22.456
G01 F600 X84.861 Y22.667
G01 F600 X84.936 Y22.898
G01 F600 X84.961 Y23.139
G01 F600 X84.936 Y23.381
G01 F600 X84.861 Y23.612
G01 F600 X84.739 Y23.823
G01 F600 X84.577 Y24.003
G01 F600 X84.380 Y24.146
G01 F600 X84.158 Y24.245
G01 F600 X83.920 Y24.295
G01 F600 X83.677 Y24.295
G01 F600 X83.440 Y24.245
G01 F600 X83.218 Y24.146
G01 F600 X83.021 Y24.003
G01 F600 X82.858 Y23.823
G01 F600 X82.795 Y23.713
G01 F600 X82.735 Y23.818
G01 F600 X82.721 Y23.835
G01 F600 X82.737 Y23.986
G01 F600 X82.695 Y44.550
G01 F600 X112.318 Y44.550
G01 F600 X112.318 Y44.277
G01 F600 X111.937 Y44.277
G01 F600 X111.937 Y41.626
G01 F600 X114.588 Y41.626
G01 F600 X114.588 Y42.417
G01 F600 X114.590 Y42.412
G01 F600 X114.729 Y42.171
G01 F600 X114.914 Y41.965
G01 F600 X115.139 Y41.802
G01 F600 X115.392 Y41.689
G01 F600 X115.664 Y41.631
G01 F600 X115.941 Y41.631
G01 F600 X116.213 Y41.689
G01 F600 X116.467 Y41.802
G01 F600 X116.694 Y41.967
G01 F600 X116.733 Y42.013
G01 F600 X116.744 Y42.010
G01 F600 X119.167 Y41.995
G01 F600 X119.169 Y41.967
G01 F600 X119.231 Y41.779
G01 F600 X119.330 Y41.608
G01 F600 X119.462 Y41.461
G01 F600 X119.622 Y41.344
G01 F600 X119.803 Y41.264
G01 F600 X119.996 Y41.223
G01 F600 X120.194 Y41.223
G01 F600 X120.388 Y41.264
G01 F600 X120.569 Y41.344
G01 F600 X120.722 Y41.455
G01 F600 X120.841 Y41.575
G01 F600 X122.259 Y41.575
G01 F600 X122.259 Y44.328
G01 F600 X121.613 Y44.328
G01 F600 X121.805 Y44.467
G01 F600 X121.998 Y44.681
G01 F600 X122.142 Y44.931
G01 F600 X122.231 Y45.205
G01 F600 X122.261 Y45.491
G01 F600 X122.231 Y45.778
G01 F600 X122.142 Y46.052
G01 F600 X121.998 Y46.302
G01 F600 X121.805 Y46.516
G01 F600 X121.572 Y46.685
G01 F600 X121.400 Y46.761
G01 F600 X121.572 Y46.838
G01 F600 X121.805 Y47.007
G01 F600 X121.860 Y47.068
G00 F3000 Z3.000
G00 F3000 X119.882 Y44.554
G00 F1500 Z0
G01 F600 Z-0.200
G01 F600 X119.960 Y44.467
G01 F600 X120.152 Y44.328
G01 F600 X119.506 Y44.328
G01 F600 X119.506 Y43.876
G01 F600 X116.909 Y43.893
G01 F600 X116.745 Y43.893
G01 F600 X116.734 Y43.890
G01 F600 X116.691 Y43.938
G01 F600 X116.467 Y44.101
G01 F600 X116.213 Y44.214
G01 F600 X115.941 Y44.272
G01 F600 X115.664 Y44.272
G01 F600 X115.392 Y44.214
G01 F600 X115.139 Y44.101
G01 F600 X114.914 Y43.938
G01 F600 X114.729 Y43.732
G01 F600 X114.590 Y43.491
G01 F600 X114.588 Y43.486
G01 F600 X114.588 Y44.277
G01 F600 X114.207 Y44.277
G01 F600 X114.207 Y44.550
G01 F600 X119.864 Y44.550
G01 F600 X119.882 Y44.554
G00 F3000 Z3.000
G00 F3000 X52.231 Y25.246
G00 F1500 Z0
G01 F600 Z-0.200
G01 F600 X80.822 Y25.246
G01 F600 X80.822 Y23.985
G01 F600 X80.841 Y23.804
G01 F600 X80.789 Y23.714
G01 F600 X80.726 Y23.823
G01 F600 X80.563 Y24.003
G01 F600 X80.367 Y24.146
G01 F600 X80.145 Y24.245
G01 F600 X79.907 Y24.295
G01 F600 X79.664 Y24.295
G01 F600 X79.426 Y24.245
G01 F600 X79.204 Y24.146
G01 F600 X79.008 Y24.003
G01 F600 X78.845 Y23.823
G01 F600 X78.782 Y23.714
G01 F600 X78.719 Y23.823
G01 F600 X78.557 Y24.003
G01 F600 X78.360 Y24.146
G01 F600 X78.138 Y24.245
G01 F600 X77.900 Y24.295
G01 F600 X77.657 Y24.295
G01 F600 X77.420 Y24.245
G01 F600 X77.198 Y24.146
G01 F600 X77.087 Y24.065
G01 F600 X77.014 Y24.081
G01 F600 X54.083 Y24.081
G01 F600 X54.011 Y24.065
G01 F600 X53.900 Y24.146
G01 F600 X53.678 Y24.245
G01 F600 X53.440 Y24.295
G01 F600 X53.197 Y24.295
G01 F600 X52.960 Y24.245
G01 F600 X52.738 Y24.146
G01 F600 X52.541 Y24.003
G01 F600 X52.378 Y23.823
G01 F600 X52.315 Y23.714
G01 F600 X52.251 Y23.826
G01 F600 X52.218 Y23.860
G01 F600 X52.231 Y23.985
G01 F600 X52.231 Y25.246
G00 F3000 Z3.000
G00 F3000 X26.323 Y25.246
G00 F1500 Z0
G01 F600 Z-0.200
G01 F600 X50.342 Y25.246
G01 F600 X50.342 Y23.985
G01 F600 X50.361 Y23.804
G01 F600 X50.309 Y23.714
G01 F600 X50.246 Y23.823
G01 F600 X50.083 Y24.003
G01 F600 X49.887 Y24.146
G01 F600 X49.665 Y24.245
G01 F600 X49.427 Y24.295
G01 F600 X49.184 Y24.295
G01 F600 X48.946 Y24.245
G01 F600 X48.724 Y24.146
G01 F600 X48.528 Y24.003
G01 F600 X48.365 Y23.823
G01 F600 X48.302 Y23.714
G01 F600 X48.239 Y23.823
G01 F600 X48.077 Y24.003
G01 F600 X47.880 Y24.146
G01 F600 X47.658 Y24.245
G01 F600 X47.420 Y24.295
G01 F600 X47.177 Y24.295
G01 F600 X46.940 Y24.245
G01 F600 X46.718 Y24.146
G01 F600 X46.607 Y24.065
G01 F600 X46.534 Y24.081
G01 F600 X28.175 Y24.081
G01 F600 X28.103 Y24.065
G01 F600 X27.992 Y24.146
G01 F600 X27.770 Y24.245
G01 F600 X27.532 Y24.295
G01 F600 X27.289 Y24.295
G01 F600 X27.052 Y24.245
G01 F600 X26.830 Y24.146
G01 F600 X26.633 Y24.003
G01 F600 X26.470 Y23.823
G01 F600 X26.407 Y23.714
G01 F600 X26.343 Y23.826
G01 F600 X26.310 Y23.860
G01 F600 X26.323 Y23.985
G01 F600 X26.323 Y25.246
G00 F3000 Z3.000
G00 F3000 X24.401 Y22.565
G00 F1500 Z0
G01 F600 Z-0.200
G01 F600 X24.464 Y22.456
G01 F600 X24.626 Y22.276
G01 F600 X24.823 Y22.133
G01 F600 X25.045 Y22.034
G01 F600 X25.283 Y21.983
G01 F600 X25.526 Y21.983
G01 F600 X25.763 Y22.034
G01 F600 X25.985 Y22.133
G01 F600 X26.182 Y22.276
G01 F600 X26.345 Y22.456
G01 F600 X26.407 Y22.565
G01 F600 X26.470 Y22.456
G01 F600 X26.633 Y22.276
G01 F600 X26.830 Y22.133
G01 F600 X27.052 Y22.034
G01 F600 X27.289 Y21.983
G01 F600 X27.532 Y21.983
G01 F600 X27.770 Y22.034
G01 F600 X27.992 Y22.133
G01 F600 X28.103 Y22.213
G01 F600 X28.175 Y22.198
G01 F600 X46.534 Y22.198
G01 F600 X46.607 Y22.213
G01 F600 X46.718 Y22.133
G01 F600 X46.940 Y22.034
G01 F600 X47.177 Y21.983
G01 F600 X47.420 Y21.983
G01 F600 X47.658 Y22.034
G01 F600 X47.880 Y22.133
G01 F600 X48.077 Y22.276
G01 F600 X48.239 Y22.456
G01 F600 X48.302 Y22.565
G01 F600 X48.366 Y22.454
G01 F600 X48.379 Y22.441
G01 F600 X48.361 Y22.270
G01 F600 X48.323 Y19.509
G01 F600 X24.304 Y19.509
G01 F600 X24.342 Y22.266
G01 F600 X24.324 Y22.441
G01 F600 X24.338 Y22.456
G01 F600 X24.401 Y22.565
G00 F3000 Z3.000
G00 F3000 X50.309 Y22.565
G00 F1500 Z0
G01 F600 Z-0.200
G01 F600 X50.372 Y22.456
G01 F600 X50.534 Y22.276
G01 F600 X50.731 Y22.133
G01 F600 X50.953 Y22.034
G01 F600 X51.191 Y21.983
G01 F600 X51.434 Y21.983
G01 F600 X51.671 Y22.034
G01 F600 X51.893 Y22.133
G01 F600 X52.090 Y22.276
G01 F600 X52.253 Y22.456
G01 F600 X52.315 Y22.565
G01 F600 X52.378 Y22.456
G01 F600 X52.541 Y22.276
G01 F600 X52.738 Y22.133
G01 F600 X52.960 Y22.034
G01 F600 X53.197 Y21.983
G01 F600 X53.440 Y21.983
G01 F600 X53.678 Y22.034
G01 F600 X53.900 Y22.133
G01 F600 X54.011 Y22.213
G01 F600 X54.083 Y22.198
G01 F600 X77.014 Y22.198
G01 F600 X77.087 Y22.213
G01 F600 X77.198 Y22.133
G01 F600 X77.420 Y22.034
G01 F600 X77.657 Y21.983
G01 F600 X77.900 Y21.983
G01 F600 X78.138 Y22.034
G01 F600 X78.360 Y22.133
G01 F600 X78.557 Y22.276
G01 F600 X78.719 Y22.456
G01 F600 X78.782 Y22.565
G01 F600 X78.846 Y22.454
G01 F600 X78.859 Y22.441
G01 F600 X78.841 Y22.271
G01 F600 X78.805 Y20.002
G01 F600 X50.213 Y19.526
G01 F600 X50.250 Y22.266
G01 F600 X50.232 Y22.441
G01 F600 X50.246 Y22.456
G01 F600 X50.309 Y22.565
G00 F3000 Z3.000
G00 F3000 X106.971 Y66.445
G00 F1500 Z0
G01 F600 Z-0.200
G01 F600 X106.736 Y66.395
G01 F600 X106.517 Y66.297
G01 F600 X106.323 Y66.156
G01 F600 X106.186 Y66.004
G01 F600 X97.963 Y55.269
G01 F600 X52.034 Y55.269
G01 F600 X51.915 Y55.294
G01 F600 X24.725 Y55.294
G01 F600 X24.491 Y55.244
G01 F600 X24.271 Y55.147
G01 F600 X24.077 Y55.006
G01 F600 X23.917 Y54.827
G01 F600 X23.797 Y54.620
G01 F600 X23.723 Y54.391
G01 F600 X23.701 Y54.185
G01 F600 X23.653 Y51.111
G01 F600 X23.470 Y51.244
G01 F600 X23.209 Y51.360
G01 F600 X22.930 Y51.419
G01 F600 X22.645 Y51.419
G01 F600 X22.367 Y51.360
G01 F600 X22.106 Y51.244
G01 F600 X21.876 Y51.077
G01 F600 X21.797 Y50.990
G01 F600 X21.719 Y51.077
G01 F600 X21.489 Y51.244
G01 F600 X21.228 Y51.360
G01 F600 X20.949 Y51.419
G01 F600 X20.664 Y51.419
G01 F600 X20.386 Y51.360
G01 F600 X20.125 Y51.244
G01 F600 X19.894 Y51.077
G01 F600 X19.704 Y50.865
G01 F600 X19.561 Y50.618
G01 F600 X19.473 Y50.347
G01 F600 X19.443 Y50.063
G01 F600 X19.473 Y49.780
G01 F600 X19.561 Y49.509
G01 F600 X19.674 Y49.314
G01 F600 X19.662 Y49.196
G01 F600 X20.247 Y23.969
G01 F600 X20.256 Y23.885
G01 F600 X20.145 Y23.694
G01 F600 X20.057 Y23.423
G01 F600 X20.027 Y23.139
G01 F600 X20.057 Y22.856
G01 F600 X20.145 Y22.585
G01 F600 X20.288 Y22.338
G01 F600 X20.479 Y22.126
G01 F600 X20.709 Y21.959
G01 F600 X20.970 Y21.843
G01 F600 X21.248 Y21.783
G01 F600 X21.533 Y21.783
G01 F600 X21.812 Y21.843
G01 F600 X22.073 Y21.959
G01 F600 X22.251 Y22.088
G01 F600 X22.202 Y18.543
G01 F600 X22.224 Y18.329
G01 F600 X22.298 Y18.101
G01 F600 X22.418 Y17.893
G01 F600 X22.579 Y17.715
G01 F600 X22.773 Y17.574
G01 F600 X22.992 Y17.476
G01 F600 X23.227 Y17.426
G01 F600 X49.323 Y17.426
G01 F600 X79.751 Y17.933
G01 F600 X86.704 Y17.858
G01 F600 X86.890 Y17.858
G01 F600 X87.125 Y17.908
G01 F600 X87.344 Y18.006
G01 F600 X87.538 Y18.146
G01 F600 X87.667 Y18.289
G01 F600 X103.675 Y37.201
G01 F600 X124.395 Y36.781
G01 F600 X124.584 Y36.781
G01 F600 X124.819 Y36.831
G01 F600 X125.038 Y36.928
G01 F600 X125.232 Y37.070
G01 F600 X125.393 Y37.248
G01 F600 X125.512 Y37.455
G01 F600 X125.587 Y37.684
G01 F600 X125.609 Y37.894
G01 F600 X125.609 Y48.019
G01 F600 X125.049 Y59.680
G01 F600 X125.028 Y59.878
G01 F600 X124.954 Y60.106
G01 F600 X124.834 Y60.314
G01 F600 X124.689 Y60.475
G01 F600 X122.386 Y62.468
G01 F600 X122.348 Y62.495
G01 F600 X122.341 Y62.565
G01 F600 X122.244 Y62.862
G01 F600 X122.089 Y63.132
G01 F600 X121.880 Y63.363
G01 F600 X121.628 Y63.546
G01 F600 X121.468 Y63.617
G01 F600 X120.414 Y65.802
G01 F600 X120.313 Y65.978
G01 F600 X120.152 Y66.156
G01 F600 X119.958 Y66.297
G01 F600 X119.739 Y66.395
G01 F600 X119.504 Y66.445
G01 F600 X106.971 Y66.445
G00 F3000 Z3.000
G00 F3000 X107.658 Y64.162
G00 F1500 Z0
G01 F600 Z-0.200
G01 F600 X118.664 Y64.162
G01 F600 X118.927 Y63.618
G01 F600 X118.803 Y63.673
G01 F600 X118.499 Y63.738
G01 F600 X118.187 Y63.738
G01 F600 X117.882 Y63.673
G01 F600 X117.597 Y63.546
G01 F600 X117.346 Y63.363
G01 F600 X117.137 Y63.132
G01 F600 X117.073 Y63.020
G01 F600 X117.009 Y63.132
G01 F600 X116.800 Y63.363
G01 F600 X116.548 Y63.546
G01 F600 X116.263 Y63.673
G01 F600 X115.959 Y63.738
G01 F600 X115.647 Y63.738
G01 F600 X115.342 Y63.673
G01 F600 X115.057 Y63.546
G01 F600 X114.806 Y63.363
G01 F600 X114.597 Y63.132
G01 F600 X114.533 Y63.020
G01 F600 X114.469 Y63.132
G01 F600 X114.260 Y63.363
G01 F600 X114.008 Y63.546
G01 F600 X113.723 Y63.673
G01 F600 X113.419 Y63.738
G01 F600 X113.107 Y63.738
G01 F600 X112.802 Y63.673
G01 F600 X112.517 Y63.546
G01 F600 X112.266 Y63.363
G01 F600 X112.057 Y63.132
G01 F600 X111.901 Y62.862
G01 F600 X111.805 Y62.565
G01 F600 X111.772 Y62.255
G01 F600 X111.805 Y61.946
G01 F600 X111.901 Y61.649
G01 F600 X112.057 Y61.379
G01 F600 X112.266 Y61.148
G01 F600 X112.517 Y60.965
G01 F600 X112.802 Y60.838
G01 F600 X113.107 Y60.773
G01 F600 X113.419 Y60.773
G01 F600 X113.723 Y60.838
G01 F600 X114.008 Y60.965
G01 F600 X114.260 Y61.148
G01 F600 X114.469 Y61.379
G01 F600 X114.498 Y61.430
G01 F600 X114.310 Y60.374
G01 F600 X107.021 Y60.374
G01 F600 X106.787 Y60.324
G01 F600 X106.567 Y60.227
G01 F600 X106.373 Y60.086
G01 F600 X106.237 Y59.934
G01 F600 X99.491 Y51.205
G01 F600 X86.455 Y51.212
G01 F600 X86.411 Y51.244
G01 F600 X86.150 Y51.360
G01 F600 X85.872 Y51.419
G01 F600 X85.587 Y51.419
G01 F600 X85.308 Y51.360
G01 F600 X85.047 Y51.244
G01 F600 X84.896 Y51.134
G01 F600 X84.925 Y52.986
G01 F600 X98.651 Y52.986
G01 F600 X98.885 Y53.036
G01 F600 X99.105 Y53.134
G01 F600 X99.299 Y53.275
G01 F600 X99.436 Y53.427
G01 F600 X107.658 Y64.162
G00 F3000 Z3.000
G00 F3000 X117.073 Y61.491
G00 F1500 Z0
G01 F600 Z-0.200
G01 F600 X117.137 Y61.379
G01 F600 X117.346 Y61.148
G01 F600 X117.597 Y60.965
G01 F600 X117.882 Y60.838
G01 F600 X118.187 Y60.773
G01 F600 X118.499 Y60.773
G01 F600 X118.803 Y60.838
G01 F600 X119.088 Y60.965
G01 F600 X119.340 Y61.148
G01 F600 X119.549 Y61.379
G01 F600 X119.613 Y61.491
G01 F600 X119.677 Y61.379
G01 F600 X119.886 Y61.148
G01 F600 X120.137 Y60.965
G01 F600 X120.422 Y60.838
G01 F600 X120.727 Y60.773
G01 F600 X120.849 Y60.773
G01 F600 X120.862 Y60.759
G01 F600 X122.786 Y59.094
G01 F600 X123.264 Y49.147
G01 F600 X121.992 Y49.147
G01 F600 X121.940 Y49.205
G01 F600 X121.672 Y49.399
G01 F600 X121.371 Y49.534
G01 F600 X121.048 Y49.602
G01 F600 X120.718 Y49.602
G01 F600 X120.395 Y49.534
G01 F600 X120.093 Y49.399
G01 F600 X119.826 Y49.205
G01 F600 X119.605 Y48.960
G01 F600 X119.440 Y48.674
G01 F600 X119.338 Y48.360
G01 F600 X119.303 Y48.031
G01 F600 X119.338 Y47.703
G01 F600 X119.440 Y47.389
G01 F600 X119.605 Y47.103
G01 F600 X119.826 Y46.858
G01 F600 X119.958 Y46.761
G01 F600 X119.826 Y46.665
G01 F600 X119.797 Y46.633
G01 F600 X114.407 Y46.633
G01 F600 X114.407 Y53.648
G01 F600 X114.403 Y53.687
G01 F600 X114.469 Y53.759
G01 F600 X114.533 Y53.870
G01 F600 X114.597 Y53.759
G01 F600 X114.806 Y53.528
G01 F600 X115.057 Y53.345
G01 F600 X115.342 Y53.218
G01 F600 X115.647 Y53.153
G01 F600 X115.959 Y53.153
G01 F600 X116.263 Y53.218
G01 F600 X116.548 Y53.345
G01 F600 X116.800 Y53.528
G01 F600 X117.009 Y53.759
G01 F600 X117.073 Y53.870
G01 F600 X117.137 Y53.759
G01 F600 X117.346 Y53.528
G01 F600 X117.597 Y53.345
G01 F600 X117.882 Y53.218
G01 F600 X118.187 Y53.153
G01 F600 X118.499 Y53.153
G01 F600 X118.803 Y53.218
G01 F600 X119.088 Y53.345
G01 F600 X119.340 Y53.528
G01 F600 X119.395 Y53.589
G01 F600 X119.395 Y53.148
G01 F600 X122.370 Y53.148
G01 F600 X122.370 Y56.123
G01 F600 X119.395 Y56.123
G01 F600 X119.395 Y55.682
G01 F600 X119.340 Y55.743
G01 F600 X119.088 Y55.926
G01 F600 X118.803 Y56.053
G01 F600 X118.499 Y56.118
G01 F600 X118.187 Y56.118
G01 F600 X117.882 Y56.053
G01 F600 X117.597 Y55.926
G01 F600 X117.346 Y55.743
G01 F600 X117.137 Y55.512
G01 F600 X117.073 Y55.400
G01 F600 X117.009 Y55.512
G01 F600 X116.800 Y55.743
G01 F600 X116.548 Y55.926
G01 F600 X116.263 Y56.053
G01 F600 X115.959 Y56.118
G01 F600 X115.647 Y56.118
G01 F600 X115.342 Y56.053
G01 F600 X115.057 Y55.926
G01 F600 X114.806 Y55.743
G01 F600 X114.597 Y55.512
G01 F600 X114.533 Y55.400
G01 F600 X114.469 Y55.512
G01 F600 X114.260 Y55.743
G01 F600 X114.008 Y55.926
G01 F600 X113.723 Y56.053
G01 F600 X113.419 Y56.118
G01 F600 X113.107 Y56.118
G01 F600 X112.802 Y56.053
G01 F600 X112.517 Y55.926
G01 F600 X112.266 Y55.743
G01 F600 X112.057 Y55.512
G01 F600 X111.901 Y55.242
G01 F600 X111.805 Y54.945
G01 F600 X111.772 Y54.635
G01 F600 X111.805 Y54.326
G01 F600 X111.901 Y54.029
G01 F600 X112.057 Y53.759
G01 F600 X112.122 Y53.687
G01 F600 X112.118 Y53.647
G01 F600 X112.118 Y46.633
G01 F600 X82.903 Y46.633
G01 F600 X82.887 Y48.994
G01 F600 X83.041 Y48.883
G01 F600 X83.301 Y48.767
G01 F600 X83.580 Y48.707
G01 F600 X83.865 Y48.707
G01 F600 X84.144 Y48.767
G01 F600 X84.404 Y48.883
G01 F600 X84.635 Y49.050
G01 F600 X84.726 Y49.151
G01 F600 X84.817 Y49.050
G01 F600 X85.047 Y48.883
G01 F600 X85.308 Y48.767
G01 F600 X85.587 Y48.707
G01 F600 X85.872 Y48.707
G01 F600 X86.150 Y48.767
G01 F600 X86.413 Y48.884
G01 F600 X86.465 Y48.922
G01 F600 X100.175 Y48.922
G01 F600 X100.409 Y48.972
G01 F600 X100.629 Y49.070
G01 F600 X100.823 Y49.211
G01 F600 X100.959 Y49.362
G01 F600 X107.705 Y58.092
G01 F600 X115.389 Y58.092
G01 F600 X115.624 Y58.141
G01 F600 X115.843 Y58.239
G01 F600 X116.037 Y58.380
G01 F600 X116.198 Y58.558
G01 F600 X116.318 Y58.766
G01 F600 X116.386 Y58.976
G01 F600 X116.768 Y61.124
G01 F600 X116.800 Y61.148
G01 F600 X117.009 Y61.379
G01 F600 X117.073 Y61.491
G00 F3000 Z3.000
G00 F3000 X25.972 Y53.012
G00 F1500 Z0
G01 F600 Z-0.200
G01 F600 X50.632 Y53.012
G01 F600 X50.602 Y51.093
G01 F600 X50.394 Y51.244
G01 F600 X50.133 Y51.360
G01 F600 X49.854 Y51.419
G01 F600 X49.569 Y51.419
G01 F600 X49.291 Y51.360
G01 F600 X49.030 Y51.244
G01 F600 X48.800 Y51.077
G01 F600 X48.721 Y50.990
G01 F600 X48.643 Y51.077
G01 F600 X48.413 Y51.244
G01 F600 X48.152 Y51.360
G01 F600 X47.873 Y51.419
G01 F600 X47.588 Y51.419
G01 F600 X47.309 Y51.360
G01 F600 X47.049 Y51.244
G01 F600 X46.987 Y51.199
G01 F600 X46.962 Y51.205
G01 F600 X27.570 Y51.205
G01 F600 X27.545 Y51.199
G01 F600 X27.483 Y51.244
G01 F600 X27.222 Y51.360
G01 F600 X26.944 Y51.419
G01 F600 X26.659 Y51.419
G01 F600 X26.380 Y51.360
G01 F600 X26.119 Y51.244
G01 F600 X25.942 Y51.115
G01 F600 X25.972 Y53.012
G00 F3000 Z3.000
G00 F3000 X52.921 Y52.986
G00 F1500 Z0
G01 F600 Z-0.200
G01 F600 X82.636 Y52.986
G01 F600 X82.606 Y51.093
G01 F600 X82.398 Y51.244
G01 F600 X82.137 Y51.360
G01 F600 X81.858 Y51.419
G01 F600 X81.573 Y51.419
G01 F600 X81.295 Y51.360
G01 F600 X81.034 Y51.244
G01 F600 X80.803 Y51.077
G01 F600 X80.725 Y50.990
G01 F600 X80.647 Y51.077
G01 F600 X80.416 Y51.244
G01 F600 X80.156 Y51.360
G01 F600 X79.877 Y51.419
G01 F600 X79.592 Y51.419
G01 F600 X79.314 Y51.360
G01 F600 X79.053 Y51.244
G01 F600 X78.991 Y51.199
G01 F600 X78.966 Y51.205
G01 F600 X54.494 Y51.205
G01 F600 X54.469 Y51.199
G01 F600 X54.407 Y51.244
G01 F600 X54.146 Y51.360
G01 F600 X53.868 Y51.419
G01 F600 X53.583 Y51.419
G01 F600 X53.304 Y51.360
G01 F600 X53.043 Y51.244
G01 F600 X52.892 Y51.134
G01 F600 X52.921 Y52.986
G00 F3000 Z3.000
G00 F3000 X25.798 Y49.151
G00 F1500 Z0
G01 F600 Z-0.200
G01 F600 X25.889 Y49.050
G01 F600 X26.119 Y48.883
G01 F600 X26.380 Y48.767
G01 F600 X26.659 Y48.707
G01 F600 X26.944 Y48.707
G01 F600 X27.222 Y48.767
G01 F600 X27.483 Y48.883
G01 F600 X27.545 Y48.928
G01 F600 X27.570 Y48.922
G01 F600 X46.962 Y48.922
G01 F600 X46.987 Y48.928
G01 F600 X47.049 Y48.883
G01 F600 X47.309 Y48.767
G01 F600 X47.588 Y48.707
G01 F600 X47.873 Y48.707
G01 F600 X48.152 Y48.767
G01 F600 X48.413 Y48.883
G01 F600 X48.565 Y48.994
G01 F600 X48.555 Y48.084
G01 F600 X25.019 Y48.151
G01 F600 X24.990 Y48.157
G01 F600 X23.970 Y48.157
G01 F600 X23.960 Y48.994
G01 F600 X24.113 Y48.883
G01 F600 X24.373 Y48.767
G01 F600 X24.652 Y48.707
G01 F600 X24.937 Y48.707
G01 F600 X25.216 Y48.767
G01 F600 X25.476 Y48.883
G01 F600 X25.707 Y49.050
G01 F600 X25.798 Y49.151
G00 F3000 Z3.000
G00 F3000 X52.722 Y49.151
G00 F1500 Z0
G01 F600 Z-0.200
G01 F600 X52.813 Y49.050
G01 F600 X53.043 Y48.883
G01 F600 X53.304 Y48.767
G01 F600 X53.583 Y48.707
G01 F600 X53.868 Y48.707
G01 F600 X54.146 Y48.767
G01 F600 X54.407 Y48.883
G01 F600 X54.469 Y48.928
G01 F600 X54.494 Y48.922
G01 F600 X78.966 Y48.922
G01 F600 X78.991 Y48.928
G01 F600 X79.053 Y48.883
G01 F600 X79.314 Y48.767
G01 F600 X79.592 Y48.707
G01 F600 X79.877 Y48.707
G01 F600 X80.156 Y48.767
G01 F600 X80.416 Y48.883
G01 F600 X80.597 Y49.014
G01 F600 X80.641 Y27.329
G01 F600 X26.450 Y27.329
G01 F600 X26.041 Y45.865
G01 F600 X49.622 Y45.798
G01 F600 X49.806 Y45.798
G01 F600 X50.041 Y45.848
G01 F600 X50.260 Y45.946
G01 F600 X50.454 Y46.087
G01 F600 X50.615 Y46.265
G01 F600 X50.735 Y46.472
G01 F600 X50.809 Y46.701
G01 F600 X50.831 Y46.908
G01 F600 X50.855 Y49.015
G01 F600 X51.037 Y48.883
G01 F600 X51.297 Y48.767
G01 F600 X51.576 Y48.707
G01 F600 X51.861 Y48.707
G01 F600 X52.140 Y48.767
G01 F600 X52.400 Y48.883
G01 F600 X52.631 Y49.050
G01 F600 X52.722 Y49.151
G00 F3000 Z3.000
G00 F3000 X121.946 Y46.865
G00 F1500 Z0
G01 F600 Z-0.200
G01 F600 X123.320 Y46.865
G01 F600 X123.320 Y39.088
G01 F600 X103.223 Y39.495
G01 F600 X103.034 Y39.495
G01 F600 X102.799 Y39.446
G01 F600 X102.580 Y39.348
G01 F600 X102.386 Y39.207
G01 F600 X102.257 Y39.064
G01 F600 X86.245 Y20.147
G01 F600 X80.898 Y20.205
G01 F600 X80.928 Y22.091
G01 F600 X81.110 Y21.959
G01 F600 X81.371 Y21.843
G01 F600 X81.650 Y21.783
G01 F600 X81.935 Y21.783
G01 F600 X82.213 Y21.843
G01 F600 X82.474 Y21.959
G01 F600 X82.705 Y22.126
G01 F600 X82.795 Y22.227
G01 F600 X82.886 Y22.126
G01 F600 X83.117 Y21.959
G01 F600 X83.377 Y21.843
G01 F600 X83.656 Y21.783
G01 F600 X83.941 Y21.783
G01 F600 X84.220 Y21.843
G01 F600 X84.481 Y21.959
G01 F600 X84.711 Y22.126
G01 F600 X84.902 Y22.338
G01 F600 X85.044 Y22.585
G01 F600 X85.132 Y22.856
G01 F600 X85.162 Y23.139
G01 F600 X85.132 Y23.423
G01 F600 X85.044 Y23.694
G01 F600 X84.902 Y23.941
G01 F600 X84.711 Y24.152
G01 F600 X84.481 Y24.320
G01 F600 X84.220 Y24.436
G01 F600 X83.941 Y24.495
G01 F600 X83.656 Y24.495
G01 F600 X83.377 Y24.436
G01 F600 X83.117 Y24.320
G01 F600 X82.936 Y24.189
G01 F600 X82.896 Y44.350
G01 F600 X111.737 Y44.350
G01 F600 X111.737 Y41.426
G01 F600 X114.788 Y41.426
G01 F600 X114.788 Y41.809
G01 F600 X115.038 Y41.628
G01 F600 X115.330 Y41.498
G01 F600 X115.643 Y41.431
G01 F600 X115.962 Y41.431
G01 F600 X116.275 Y41.498
G01 F600 X116.567 Y41.628
G01 F600 X116.818 Y41.810
G01 F600 X119.015 Y41.796
G01 F600 X119.047 Y41.697
G01 F600 X119.167 Y41.489
G01 F600 X119.327 Y41.311
G01 F600 X119.521 Y41.170
G01 F600 X119.741 Y41.073
G01 F600 X119.975 Y41.023
G01 F600 X120.215 Y41.023
G01 F600 X120.450 Y41.073
G01 F600 X120.669 Y41.170
G01 F600 X120.852 Y41.303
G01 F600 X120.924 Y41.375
G01 F600 X122.459 Y41.375
G01 F600 X122.459 Y44.528
G01 F600 X122.129 Y44.528
G01 F600 X122.160 Y44.563
G01 F600 X122.326 Y44.849
G01 F600 X122.428 Y45.163
G01 F600 X122.462 Y45.491
G01 F600 X122.428 Y45.820
G01 F600 X122.326 Y46.134
G01 F600 X122.160 Y46.420
G01 F600 X121.940 Y46.665
G01 F600 X121.807 Y46.761
G01 F600 X121.940 Y46.858
G01 F600 X121.946 Y46.865
G00 F3000 Z3.000
G00 F3000 X22.020 Y46.219
G00 F1500 Z0
G01 F600 Z-0.200
G01 F600 X22.071 Y46.163
G01 F600 X22.265 Y46.022
G01 F600 X22.484 Y45.924
G01 F600 X22.718 Y45.874
G01 F600 X23.751 Y45.872
G01 F600 X24.229 Y24.211
G01 F600 X24.079 Y24.320
G01 F600 X23.819 Y24.436
G01 F600 X23.540 Y24.495
G01 F600 X23.255 Y24.495
G01 F600 X22.976 Y24.436
G01 F600 X22.716 Y24.320
G01 F600 X22.531 Y24.186
G01 F600 X22.020 Y46.219
G00 F3000 Z3.000
G00 F3000 X114.788 Y44.350
G00 F1500 Z0
G01 F600 Z-0.200
G01 F600 X115.207 Y44.350
G01 F600 X115.038 Y44.275
G01 F600 X114.788 Y44.093
G01 F600 X114.788 Y44.350
G00 F3000 Z3.000
G00 F3000 X116.399 Y44.350
G00 F1500 Z0
G01 F600 Z-0.200
G01 F600 X119.306 Y44.350
G01 F600 X119.306 Y44.078
G01 F600 X116.909 Y44.093
G01 F600 X116.818 Y44.093
G01 F600 X116.567 Y44.275
G01 F600 X116.399 Y44.350
G00 F3000 Z3.000
G00 F3000 X52.431 Y25.046
G00 F1500 Z0
G01 F600 Z-0.200
G01 F600 X80.622 Y25.046
G01 F600 X80.622 Y24.208
G01 F600 X80.467 Y24.320
G01 F600 X80.207 Y24.436
G01 F600 X79.928 Y24.495
G01 F600 X79.643 Y24.495
G01 F600 X79.364 Y24.436
G01 F600 X79.104 Y24.320
G01 F600 X78.873 Y24.152
G01 F600 X78.782 Y24.052
G01 F600 X78.691 Y24.152
G01 F600 X78.461 Y24.320
G01 F600 X78.200 Y24.436
G01 F600 X77.921 Y24.495
G01 F600 X77.636 Y24.495
G01 F600 X77.358 Y24.436
G01 F600 X77.097 Y24.320
G01 F600 X77.041 Y24.280
G01 F600 X77.035 Y24.281
G01 F600 X54.062 Y24.281
G01 F600 X54.056 Y24.280
G01 F600 X54.000 Y24.320
G01 F600 X53.740 Y24.436
G01 F600 X53.461 Y24.495
G01 F600 X53.176 Y24.495
G01 F600 X52.898 Y24.436
G01 F600 X52.637 Y24.320
G01 F600 X52.431 Y24.171
G01 F600 X52.431 Y25.046
G00 F3000 Z3.000
G00 F3000 X26.523 Y25.046
G00 F1500 Z0
G01 F600 Z-0.200
G01 F600 X50.142 Y25.046
G01 F600 X50.142 Y24.208
G01 F600 X49.987 Y24.320
G01 F600 X49.727 Y24.436
G01 F600 X49.448 Y24.495
G01 F600 X49.163 Y24.495
G01 F600 X48.884 Y24.436
G01 F600 X48.624 Y24.320
G01 F600 X48.393 Y24.152
G01 F600 X48.302 Y24.052
G01 F600 X48.211 Y24.152
G01 F600 X47.981 Y24.320
G01 F600 X47.720 Y24.436
G01 F600 X47.441 Y24.495
G01 F600 X47.156 Y24.495
G01 F600 X46.878 Y24.436
G01 F600 X46.617 Y24.320
G01 F600 X46.561 Y24.280
G01 F600 X46.555 Y24.281
G01 F600 X28.154 Y24.281
G01 F600 X28.149 Y24.280
G01 F600 X28.092 Y24.320
G01 F600 X27.832 Y24.436
G01 F600 X27.553 Y24.495
G01 F600 X27.268 Y24.495
G01 F600 X26.989 Y24.436
G01 F600 X26.729 Y24.320
G01 F600 X26.523 Y24.171
G01 F600 X26.523 Y25.046
G00 F3000 Z3.000
G00 F3000 X26.407 Y22.227
G00 F1500 Z0
G01 F600 Z-0.200
G01 F600 X26.498 Y22.126
G01 F600 X26.729 Y21.959
G01 F600 X26.989 Y21.843
G01 F600 X27.268 Y21.783
G01 F600 X27.553 Y21.783
G01 F600 X27.832 Y21.843
G01 F600 X28.092 Y21.959
G01 F600 X28.149 Y21.999
G01 F600 X28.154 Y21.998
G01 F600 X46.555 Y21.998
G01 F600 X46.561 Y21.999
G01 F600 X46.617 Y21.959
G01 F600 X46.878 Y21.843
G01 F600 X47.156 Y21.783
G01 F600 X47.441 Y21.783
G01 F600 X47.720 Y21.843
G01 F600 X47.981 Y21.959
G01 F600 X48.159 Y22.088
G01 F600 X48.126 Y19.709
G01 F600 X24.507 Y19.709
G01 F600 X24.540 Y22.091
G01 F600 X24.722 Y21.959
G01 F600 X24.983 Y21.843
G01 F600 X25.262 Y21.783
G01 F600 X25.547 Y21.783
G01 F600 X25.825 Y21.843
G01 F600 X26.086 Y21.959
G01 F600 X26.317 Y22.126
G01 F600 X26.407 Y22.227
G00 F3000 Z3.000
G00 F3000 X52.315 Y22.227
G00 F1500 Z0
G01 F600 Z-0.200
G01 F600 X52.406 Y22.126
G01 F600 X52.637 Y21.959
G01 F600 X52.898 Y21.843
G01 F600 X53.176 Y21.783
G01 F600 X53.461 Y21.783
G01 F600 X53.740 Y21.843
G01 F600 X54.000 Y21.959
G01 F600 X54.056 Y21.999
G01 F600 X54.062 Y21.998
G01 F600 X77.035 Y21.998
G01 F600 X77.041 Y21.999
G01 F600 X77.097 Y21.959
G01 F600 X77.358 Y21.843
G01 F600 X77.636 Y21.783
G01 F600 X77.921 Y21.783
G01 F600 X78.200 Y21.843
G01 F600 X78.461 Y21.959
G01 F600 X78.638 Y22.088
G01 F600 X78.608 Y20.199
G01 F600 X50.415 Y19.729
G01 F600 X50.448 Y22.091
G01 F600 X50.630 Y21.959
G01 F600 X50.891 Y21.843
G01 F600 X51.170 Y21.783
G01 F600 X51.455 Y21.783
G01 F600 X51.733 Y21.843
G01 F600 X51.994 Y21.959
G01 F600 X52.224 Y22.126
G01 F600 X52.315 Y22.227
G00 F3000 Z3.000
G00 F3000 Z3.000
G00 F3000 X0.000 Y0.000
M05
M30
%