( PCB drills )
( Generated by Rapid-PCB.com )
( Material Size)
( X= 160.000, Y= 100.000, Z= 1.580)
()
G00
G17
G21
G40
G49
G54
G80
G90
G94
G00 F3000 Z3.000
M03 S9000
G00 F3000 X120.875 Y48.021
G00 F1500 Z0
G01 F60 Z-2.000
G00 F3000 Z3.000
G00 F3000 X120.875 Y42.941
G00 F1500 Z0
G01 F60 Z-2.000
G00 F3000 Z3.000
G00 F3000 X120.875 Y45.481
G00 F1500 Z0
G01 F60 Z-2.000
G00 F3000 Z3.000
G00 F3000 X120.875 Y62.245
G00 F1500 Z0
G01 F60 Z-2.000
G00 F3000 Z3.000
G00 F3000 X113.255 Y54.625
G00 F1500 Z0
G01 F60 Z-2.000
G00 F3000 Z3.000
G00 F3000 X115.795 Y54.625
G00 F1500 Z0
G01 F60 Z-2.000
G00 F3000 Z3.000
G00 F3000 X118.335 Y54.625
G00 F1500 Z0
G01 F60 Z-2.000
G00 F3000 Z3.000
G00 F3000 X113.255 Y62.245
G00 F1500 Z0
G01 F60 Z-2.000
G00 F3000 Z3.000
G00 F3000 X115.795 Y62.245
G00 F1500 Z0
G01 F60 Z-2.000
G00 F3000 Z3.000
G00 F3000 X120.875 Y54.625
G00 F1500 Z0
G01 F60 Z-2.000
G00 F3000 Z3.000
G00 F3000 X118.335 Y62.245
G00 F1500 Z0
G01 F60 Z-2.000
G00 F3000 Z3.000
G00 F3000 X77.792 Y23.129
G00 F1500 Z0
G01 F60 Z-2.000
G00 F3000 Z3.000
G00 F3000 X81.729 Y50.053
G00 F1500 Z0
G01 F60 Z-2.000
G00 F3000 Z3.000
G00 F3000 X51.310 Y23.129
G00 F1500 Z0
G01 F60 Z-2.000
G00 F3000 Z3.000
G00 F3000 X22.801 Y50.053
G00 F1500 Z0
G01 F60 Z-2.000
G00 F3000 Z3.000
G00 F3000 X53.723 Y50.053
G00 F1500 Z0
G01 F60 Z-2.000
G00 F3000 Z3.000
G00 F3000 X47.723 Y50.053
G00 F1500 Z0
G01 F60 Z-2.000
G00 F3000 Z3.000
G00 F3000 X21.404 Y23.129
G00 F1500 Z0
G01 F60 Z-2.000
G00 F3000 Z3.000
G00 F3000 X47.312 Y23.129
G00 F1500 Z0
G01 F60 Z-2.000
G00 F3000 Z3.000
G00 F3000 X24.797 Y50.053
G00 F1500 Z0
G01 F60 Z-2.000
G00 F3000 Z3.000
G00 F3000 X85.727 Y50.053
G00 F1500 Z0
G01 F60 Z-2.000
G00 F3000 Z3.000
G00 F3000 X83.791 Y23.129
G00 F1500 Z0
G01 F60 Z-2.000
G00 F3000 Z3.000
G00 F3000 X49.725 Y50.053
G00 F1500 Z0
G01 F60 Z-2.000
G00 F3000 Z3.000
G00 F3000 X51.721 Y50.053
G00 F1500 Z0
G01 F60 Z-2.000
G00 F3000 Z3.000
G00 F3000 X27.403 Y23.129
G00 F1500 Z0
G01 F60 Z-2.000
G00 F3000 Z3.000
G00 F3000 X53.311 Y23.129
G00 F1500 Z0
G01 F60 Z-2.000
G00 F3000 Z3.000
G00 F3000 X25.402 Y23.129
G00 F1500 Z0
G01 F60 Z-2.000
G00 F3000 Z3.000
G00 F3000 X79.793 Y23.129
G00 F1500 Z0
G01 F60 Z-2.000
G00 F3000 Z3.000
G00 F3000 X83.725 Y50.053
G00 F1500 Z0
G01 F60 Z-2.000
G00 F3000 Z3.000
G00 F3000 X20.799 Y50.053
G00 F1500 Z0
G01 F60 Z-2.000
G00 F3000 Z3.000
G00 F3000 X23.405 Y23.129
G00 F1500 Z0
G01 F60 Z-2.000
G00 F3000 Z3.000
G00 F3000 X49.313 Y23.129
G00 F1500 Z0
G01 F60 Z-2.000
G00 F3000 Z3.000
G00 F3000 X26.799 Y50.053
G00 F1500 Z0
G01 F60 Z-2.000
G00 F3000 Z3.000
G00 F3000 X81.790 Y23.129
G00 F1500 Z0
G01 F60 Z-2.000
G00 F3000 Z3.000
G00 F3000 X79.727 Y50.053
G00 F1500 Z0
G01 F60 Z-2.000
G00 F3000 Z3.000
G00 F3000 X113.255 Y42.941
G00 F1500 Z0
G01 F60 Z-2.000
G00 F3000 Z3.000
G00 F3000 X115.795 Y42.941
G00 F1500 Z0
G01 F60 Z-2.000
G00 F3000 Z3.000
G00 F3000 Z3.000
G00 F3000 X0.000 Y0.000
M05
M30
%