( PCB Contour )
( Generated by Rapid-PCB.com )
( Material Size)
( X= 160.000, Y= 100.000, Z= 1.580)
()
G00
G17
G21
G40
G49
G54
G80
G90
G94
G00 F3000 Z3.000
M03 S9000
G00 F3000 X106.685 Y66.045
G00 F1500 Z0
G01 F600 Z-0.200
G01 F600 X106.532 Y66.012
G01 F600 X106.390 Y65.949
G01 F600 X106.264 Y65.857
G01 F600 X106.160 Y65.742
G01 F600 X106.088 Y65.618
G01 F600 X99.847 Y54.335
G01 F600 X34.234 Y54.335
G01 F600 X30.703 Y54.361
G01 F600 X30.561 Y54.361
G01 F600 X30.409 Y54.328
G01 F600 X30.266 Y54.265
G01 F600 X30.143 Y54.175
G01 F600 X27.085 Y51.117
G01 F600 X26.988 Y51.010
G01 F600 X26.910 Y50.875
G01 F600 X26.862 Y50.726
G01 F600 X26.846 Y50.578
G01 F600 X26.872 Y38.347
G01 F600 X26.887 Y38.199
G01 F600 X26.935 Y38.051
G01 F600 X27.013 Y37.916
G01 F600 X27.110 Y37.809
G01 F600 X51.961 Y11.967
G01 F600 X52.085 Y11.877
G01 F600 X52.227 Y11.813
G01 F600 X52.380 Y11.781
G01 F600 X55.634 Y11.781
G01 F600 X55.787 Y11.813
G01 F600 X55.929 Y11.877
G01 F600 X56.055 Y11.968
G01 F600 X56.159 Y12.084
G01 F600 X56.237 Y12.219
G01 F600 X56.285 Y12.367
G01 F600 X56.301 Y12.516
G01 F600 X56.275 Y16.162
G01 F600 X56.260 Y16.309
G01 F600 X56.232 Y16.394
G01 F600 X56.309 Y16.478
G01 F600 X56.409 Y16.652
G01 F600 X56.471 Y16.844
G01 F600 X56.492 Y17.043
G01 F600 X56.471 Y17.243
G01 F600 X56.409 Y17.434
G01 F600 X56.309 Y17.608
G01 F600 X56.174 Y17.758
G01 F600 X56.011 Y17.876
G01 F600 X55.828 Y17.958
G01 F600 X55.631 Y17.999
G01 F600 X55.430 Y17.999
G01 F600 X55.234 Y17.958
G01 F600 X55.050 Y17.876
G01 F600 X54.888 Y17.758
G01 F600 X54.753 Y17.608
G01 F600 X54.653 Y17.434
G01 F600 X54.591 Y17.243
G01 F600 X54.570 Y17.043
G01 F600 X54.591 Y16.844
G01 F600 X54.653 Y16.652
G01 F600 X54.754 Y16.478
G01 F600 X54.830 Y16.395
G01 F600 X54.802 Y16.309
G01 F600 X54.786 Y16.161
G01 F600 X54.806 Y13.264
G01 F600 X52.775 Y13.264
G01 F600 X28.360 Y38.652
G01 F600 X28.336 Y50.265
G01 F600 X30.947 Y52.876
G01 F600 X33.425 Y52.858
G01 F600 X33.425 Y49.396
G01 F600 X33.441 Y49.246
G01 F600 X33.470 Y49.164
G01 F600 X33.417 Y49.104
G01 F600 X33.317 Y48.930
G01 F600 X33.255 Y48.739
G01 F600 X33.234 Y48.539
G01 F600 X33.255 Y48.340
G01 F600 X33.317 Y48.148
G01 F600 X33.417 Y47.974
G01 F600 X33.552 Y47.825
G01 F600 X33.714 Y47.707
G01 F600 X33.898 Y47.625
G01 F600 X34.094 Y47.583
G01 F600 X34.295 Y47.583
G01 F600 X34.492 Y47.625
G01 F600 X34.675 Y47.707
G01 F600 X34.838 Y47.825
G01 F600 X34.973 Y47.974
G01 F600 X35.073 Y48.148
G01 F600 X35.135 Y48.340
G01 F600 X35.156 Y48.539
G01 F600 X35.135 Y48.739
G01 F600 X35.073 Y48.930
G01 F600 X34.972 Y49.106
G01 F600 X34.883 Y49.200
G01 F600 X34.898 Y49.248
G01 F600 X34.914 Y49.396
G01 F600 X34.914 Y52.853
G01 F600 X71.021 Y52.853
G01 F600 X71.042 Y49.396
G01 F600 X71.058 Y49.248
G01 F600 X71.079 Y49.183
G01 F600 X71.009 Y49.104
G01 F600 X70.909 Y48.930
G01 F600 X70.847 Y48.739
G01 F600 X70.826 Y48.539
G01 F600 X70.847 Y48.340
G01 F600 X70.909 Y48.148
G01 F600 X71.009 Y47.974
G01 F600 X71.144 Y47.825
G01 F600 X71.306 Y47.707
G01 F600 X71.490 Y47.625
G01 F600 X71.686 Y47.583
G01 F600 X71.887 Y47.583
G01 F600 X72.084 Y47.625
G01 F600 X72.267 Y47.707
G01 F600 X72.430 Y47.825
G01 F600 X72.565 Y47.974
G01 F600 X72.665 Y48.148
G01 F600 X72.727 Y48.340
G01 F600 X72.748 Y48.539
G01 F600 X72.727 Y48.739
G01 F600 X72.665 Y48.930
G01 F600 X72.565 Y49.103
G01 F600 X72.495 Y49.185
G01 F600 X72.516 Y49.248
G01 F600 X72.531 Y49.396
G01 F600 X72.511 Y52.853
G01 F600 X100.364 Y52.853
G01 F600 X100.516 Y52.885
G01 F600 X100.658 Y52.949
G01 F600 X100.784 Y53.040
G01 F600 X100.889 Y53.156
G01 F600 X100.960 Y53.280
G01 F600 X107.201 Y64.562
G01 F600 X117.245 Y64.562
G01 F600 X117.245 Y63.239
G01 F600 X117.260 Y63.091
G01 F600 X117.274 Y63.050
G01 F600 X117.134 Y62.895
G01 F600 X117.021 Y62.698
G01 F600 X116.950 Y62.482
G01 F600 X116.927 Y62.255
G01 F600 X116.950 Y62.029
G01 F600 X117.021 Y61.813
G01 F600 X117.134 Y61.616
G01 F600 X117.287 Y61.447
G01 F600 X117.471 Y61.313
G01 F600 X117.678 Y61.220
G01 F600 X117.901 Y61.173
G01 F600 X118.129 Y61.173
G01 F600 X118.351 Y61.220
G01 F600 X118.559 Y61.313
G01 F600 X118.743 Y61.447
G01 F600 X118.824 Y61.536
G01 F600 X118.928 Y61.514
G01 F600 X120.852 Y61.514
G01 F600 X120.852 Y48.747
G01 F600 X119.535 Y48.747
G01 F600 X119.468 Y48.731
G01 F600 X119.311 Y48.906
G01 F600 X119.111 Y49.051
G01 F600 X118.887 Y49.151
G01 F600 X118.646 Y49.202
G01 F600 X118.400 Y49.202
G01 F600 X118.159 Y49.151
G01 F600 X117.934 Y49.051
G01 F600 X117.735 Y48.906
G01 F600 X117.571 Y48.723
G01 F600 X117.447 Y48.510
G01 F600 X117.371 Y48.276
G01 F600 X117.346 Y48.031
G01 F600 X117.371 Y47.787
G01 F600 X117.447 Y47.553
G01 F600 X117.571 Y47.340
G01 F600 X117.735 Y47.157
G01 F600 X117.934 Y47.012
G01 F600 X118.159 Y46.912
G01 F600 X118.400 Y46.861
G01 F600 X118.646 Y46.861
G01 F600 X118.887 Y46.912
G01 F600 X119.111 Y47.012
G01 F600 X119.311 Y47.157
G01 F600 X119.429 Y47.288
G01 F600 X119.537 Y47.265
G01 F600 X121.674 Y47.265
G01 F600 X121.827 Y47.297
G01 F600 X121.969 Y47.361
G01 F600 X122.095 Y47.452
G01 F600 X122.199 Y47.568
G01 F600 X122.277 Y47.703
G01 F600 X122.325 Y47.851
G01 F600 X122.341 Y47.999
G01 F600 X122.341 Y62.263
G01 F600 X122.325 Y62.410
G01 F600 X122.277 Y62.559
G01 F600 X122.199 Y62.694
G01 F600 X122.095 Y62.809
G01 F600 X121.969 Y62.901
G01 F600 X121.827 Y62.964
G01 F600 X121.674 Y62.997
G01 F600 X118.928 Y62.997
G01 F600 X118.824 Y62.975
G01 F600 X118.743 Y63.064
G01 F600 X118.716 Y63.084
G01 F600 X118.719 Y63.091
G01 F600 X118.734 Y63.239
G01 F600 X118.734 Y65.311
G01 F600 X118.719 Y65.458
G01 F600 X118.670 Y65.607
G01 F600 X118.592 Y65.742
G01 F600 X118.488 Y65.857
G01 F600 X118.362 Y65.949
G01 F600 X118.220 Y66.012
G01 F600 X118.067 Y66.045
G01 F600 X106.685 Y66.045
G00 F3000 Z3.000
G00 F3000 X115.361 Y63.338
G00 F1500 Z0
G01 F600 Z-0.200
G01 F600 X115.139 Y63.290
G01 F600 X114.931 Y63.198
G01 F600 X114.747 Y63.064
G01 F600 X114.594 Y62.895
G01 F600 X114.481 Y62.698
G01 F600 X114.410 Y62.482
G01 F600 X114.387 Y62.255
G01 F600 X114.410 Y62.029
G01 F600 X114.481 Y61.813
G01 F600 X114.594 Y61.616
G01 F600 X114.747 Y61.447
G01 F600 X114.931 Y61.313
G01 F600 X115.139 Y61.220
G01 F600 X115.361 Y61.173
G01 F600 X115.589 Y61.173
G01 F600 X115.811 Y61.220
G01 F600 X116.019 Y61.313
G01 F600 X116.203 Y61.447
G01 F600 X116.355 Y61.616
G01 F600 X116.469 Y61.813
G01 F600 X116.539 Y62.029
G01 F600 X116.563 Y62.255
G01 F600 X116.539 Y62.482
G01 F600 X116.469 Y62.698
G01 F600 X116.355 Y62.895
G01 F600 X116.203 Y63.064
G01 F600 X116.019 Y63.198
G01 F600 X115.811 Y63.290
G01 F600 X115.589 Y63.338
G01 F600 X115.361 Y63.338
G00 F3000 Z3.000
G00 F3000 X110.281 Y63.338
G00 F1500 Z0
G01 F600 Z-0.200
G01 F600 X110.059 Y63.290
G01 F600 X109.851 Y63.198
G01 F600 X109.667 Y63.064
G01 F600 X109.514 Y62.895
G01 F600 X109.401 Y62.698
G01 F600 X109.330 Y62.482
G01 F600 X109.307 Y62.255
G01 F600 X109.330 Y62.029
G01 F600 X109.401 Y61.813
G01 F600 X109.514 Y61.616
G01 F600 X109.667 Y61.447
G01 F600 X109.851 Y61.313
G01 F600 X110.059 Y61.220
G01 F600 X110.281 Y61.173
G01 F600 X110.509 Y61.173
G01 F600 X110.731 Y61.220
G01 F600 X110.939 Y61.313
G01 F600 X111.123 Y61.447
G01 F600 X111.275 Y61.616
G01 F600 X111.389 Y61.813
G01 F600 X111.459 Y62.029
G01 F600 X111.483 Y62.255
G01 F600 X111.459 Y62.482
G01 F600 X111.389 Y62.698
G01 F600 X111.275 Y62.895
G01 F600 X111.123 Y63.064
G01 F600 X110.939 Y63.198
G01 F600 X110.731 Y63.290
G01 F600 X110.509 Y63.338
G01 F600 X110.281 Y63.338
G00 F3000 Z3.000
G00 F3000 X112.821 Y63.338
G00 F1500 Z0
G01 F600 Z-0.200
G01 F600 X112.599 Y63.290
G01 F600 X112.391 Y63.198
G01 F600 X112.207 Y63.064
G01 F600 X112.054 Y62.895
G01 F600 X111.941 Y62.698
G01 F600 X111.870 Y62.482
G01 F600 X111.847 Y62.255
G01 F600 X111.870 Y62.029
G01 F600 X111.941 Y61.813
G01 F600 X112.054 Y61.616
G01 F600 X112.198 Y61.457
G01 F600 X112.200 Y61.454
G01 F600 X112.180 Y61.394
G01 F600 X112.165 Y61.247
G01 F600 X112.165 Y59.974
G01 F600 X108.260 Y59.974
G01 F600 X108.107 Y59.942
G01 F600 X107.965 Y59.878
G01 F600 X107.839 Y59.787
G01 F600 X107.734 Y59.671
G01 F600 X107.663 Y59.547
G01 F600 X102.379 Y49.807
G01 F600 X74.578 Y49.280
G01 F600 X74.427 Y49.248
G01 F600 X74.419 Y49.245
G01 F600 X74.411 Y49.254
G01 F600 X74.249 Y49.372
G01 F600 X74.065 Y49.454
G01 F600 X73.868 Y49.495
G01 F600 X73.668 Y49.495
G01 F600 X73.471 Y49.454
G01 F600 X73.287 Y49.372
G01 F600 X73.125 Y49.254
G01 F600 X72.990 Y49.104
G01 F600 X72.890 Y48.930
G01 F600 X72.828 Y48.739
G01 F600 X72.807 Y48.539
G01 F600 X72.828 Y48.340
G01 F600 X72.890 Y48.148
G01 F600 X72.990 Y47.974
G01 F600 X73.125 Y47.825
G01 F600 X73.287 Y47.707
G01 F600 X73.471 Y47.625
G01 F600 X73.668 Y47.583
G01 F600 X73.868 Y47.583
G01 F600 X74.065 Y47.625
G01 F600 X74.249 Y47.707
G01 F600 X74.411 Y47.825
G01 F600 X74.419 Y47.834
G01 F600 X74.427 Y47.831
G01 F600 X74.579 Y47.798
G01 F600 X74.722 Y47.798
G01 F600 X102.905 Y48.332
G01 F600 X103.056 Y48.364
G01 F600 X103.198 Y48.427
G01 F600 X103.324 Y48.519
G01 F600 X103.429 Y48.635
G01 F600 X103.500 Y48.759
G01 F600 X108.780 Y58.492
G01 F600 X112.987 Y58.492
G01 F600 X113.140 Y58.524
G01 F600 X113.282 Y58.587
G01 F600 X113.408 Y58.679
G01 F600 X113.512 Y58.795
G01 F600 X113.590 Y58.930
G01 F600 X113.639 Y59.078
G01 F600 X113.654 Y59.226
G01 F600 X113.654 Y61.247
G01 F600 X113.639 Y61.394
G01 F600 X113.629 Y61.422
G01 F600 X113.663 Y61.447
G01 F600 X113.815 Y61.616
G01 F600 X113.929 Y61.813
G01 F600 X113.999 Y62.029
G01 F600 X114.023 Y62.255
G01 F600 X113.999 Y62.482
G01 F600 X113.929 Y62.698
G01 F600 X113.815 Y62.895
G01 F600 X113.663 Y63.064
G01 F600 X113.479 Y63.198
G01 F600 X113.271 Y63.290
G01 F600 X113.049 Y63.338
G01 F600 X112.821 Y63.338
G00 F3000 Z3.000
G00 F3000 X116.927 Y55.723
G00 F1500 Z0
G01 F600 Z-0.200
G01 F600 X116.927 Y53.548
G01 F600 X119.102 Y53.548
G01 F600 X119.102 Y55.723
G01 F600 X116.927 Y55.723
G00 F3000 Z3.000
G00 F3000 X115.361 Y55.718
G00 F1500 Z0
G01 F600 Z-0.200
G01 F600 X115.139 Y55.670
G01 F600 X114.931 Y55.578
G01 F600 X114.747 Y55.444
G01 F600 X114.594 Y55.275
G01 F600 X114.481 Y55.078
G01 F600 X114.410 Y54.862
G01 F600 X114.387 Y54.635
G01 F600 X114.410 Y54.409
G01 F600 X114.481 Y54.193
G01 F600 X114.594 Y53.996
G01 F600 X114.747 Y53.827
G01 F600 X114.931 Y53.693
G01 F600 X115.139 Y53.600
G01 F600 X115.361 Y53.553
G01 F600 X115.589 Y53.553
G01 F600 X115.811 Y53.600
G01 F600 X116.019 Y53.693
G01 F600 X116.203 Y53.827
G01 F600 X116.355 Y53.996
G01 F600 X116.469 Y54.193
G01 F600 X116.539 Y54.409
G01 F600 X116.563 Y54.635
G01 F600 X116.539 Y54.862
G01 F600 X116.469 Y55.078
G01 F600 X116.355 Y55.275
G01 F600 X116.203 Y55.444
G01 F600 X116.019 Y55.578
G01 F600 X115.811 Y55.670
G01 F600 X115.589 Y55.718
G01 F600 X115.361 Y55.718
G00 F3000 Z3.000
G00 F3000 X110.281 Y55.718
G00 F1500 Z0
G01 F600 Z-0.200
G01 F600 X110.059 Y55.670
G01 F600 X109.851 Y55.578
G01 F600 X109.667 Y55.444
G01 F600 X109.514 Y55.275
G01 F600 X109.401 Y55.078
G01 F600 X109.330 Y54.862
G01 F600 X109.307 Y54.635
G01 F600 X109.330 Y54.409
G01 F600 X109.401 Y54.193
G01 F600 X109.514 Y53.996
G01 F600 X109.666 Y53.827
G01 F600 X109.680 Y53.817
G01 F600 X109.666 Y53.774
G01 F600 X109.650 Y53.627
G01 F600 X109.650 Y46.234
G01 F600 X70.541 Y46.283
G01 F600 X70.525 Y47.658
G01 F600 X70.509 Y47.805
G01 F600 X70.482 Y47.890
G01 F600 X70.558 Y47.974
G01 F600 X70.658 Y48.148
G01 F600 X70.720 Y48.340
G01 F600 X70.741 Y48.539
G01 F600 X70.720 Y48.739
G01 F600 X70.658 Y48.930
G01 F600 X70.558 Y49.104
G01 F600 X70.423 Y49.254
G01 F600 X70.261 Y49.372
G01 F600 X70.077 Y49.454
G01 F600 X69.881 Y49.495
G01 F600 X69.680 Y49.495
G01 F600 X69.483 Y49.454
G01 F600 X69.300 Y49.372
G01 F600 X69.137 Y49.254
G01 F600 X69.002 Y49.104
G01 F600 X68.902 Y48.930
G01 F600 X68.840 Y48.739
G01 F600 X68.819 Y48.539
G01 F600 X68.840 Y48.340
G01 F600 X68.902 Y48.148
G01 F600 X69.002 Y47.974
G01 F600 X69.060 Y47.911
G01 F600 X69.026 Y47.805
G01 F600 X69.011 Y47.661
G01 F600 X68.924 Y45.979
G01 F600 X57.030 Y33.387
G01 F600 X56.934 Y33.280
G01 F600 X56.857 Y33.145
G01 F600 X56.808 Y32.997
G01 F600 X56.793 Y32.849
G01 F600 X56.793 Y22.374
G01 F600 X32.933 Y46.306
G01 F600 X32.933 Y47.657
G01 F600 X32.917 Y47.805
G01 F600 X32.890 Y47.890
G01 F600 X32.966 Y47.974
G01 F600 X33.066 Y48.148
G01 F600 X33.128 Y48.340
G01 F600 X33.149 Y48.539
G01 F600 X33.128 Y48.739
G01 F600 X33.066 Y48.930
G01 F600 X32.966 Y49.104
G01 F600 X32.831 Y49.254
G01 F600 X32.669 Y49.372
G01 F600 X32.485 Y49.454
G01 F600 X32.289 Y49.495
G01 F600 X32.088 Y49.495
G01 F600 X31.891 Y49.454
G01 F600 X31.708 Y49.372
G01 F600 X31.545 Y49.254
G01 F600 X31.411 Y49.104
G01 F600 X31.310 Y48.930
G01 F600 X31.248 Y48.739
G01 F600 X31.227 Y48.539
G01 F600 X31.248 Y48.340
G01 F600 X31.310 Y48.148
G01 F600 X31.411 Y47.974
G01 F600 X31.487 Y47.891
G01 F600 X31.459 Y47.805
G01 F600 X31.444 Y47.657
G01 F600 X31.444 Y45.992
G01 F600 X31.459 Y45.844
G01 F600 X31.507 Y45.696
G01 F600 X31.585 Y45.561
G01 F600 X31.682 Y45.454
G01 F600 X56.790 Y20.271
G01 F600 X56.767 Y17.901
G01 F600 X56.783 Y17.752
G01 F600 X56.805 Y17.687
G01 F600 X56.734 Y17.608
G01 F600 X56.634 Y17.434
G01 F600 X56.572 Y17.243
G01 F600 X56.551 Y17.043
G01 F600 X56.572 Y16.844
G01 F600 X56.634 Y16.652
G01 F600 X56.734 Y16.478
G01 F600 X56.869 Y16.329
G01 F600 X57.031 Y16.211
G01 F600 X57.215 Y16.129
G01 F600 X57.412 Y16.087
G01 F600 X57.613 Y16.087
G01 F600 X57.809 Y16.129
G01 F600 X57.993 Y16.211
G01 F600 X58.155 Y16.329
G01 F600 X58.290 Y16.478
G01 F600 X58.390 Y16.652
G01 F600 X58.452 Y16.844
G01 F600 X58.473 Y17.043
G01 F600 X58.452 Y17.243
G01 F600 X58.390 Y17.434
G01 F600 X58.291 Y17.607
G01 F600 X58.221 Y17.689
G01 F600 X58.241 Y17.752
G01 F600 X58.257 Y17.899
G01 F600 X58.282 Y20.573
G01 F600 X58.282 Y32.549
G01 F600 X69.854 Y44.801
G01 F600 X109.650 Y44.751
G01 F600 X109.650 Y44.077
G01 F600 X109.269 Y44.077
G01 F600 X109.269 Y41.826
G01 F600 X111.520 Y41.826
G01 F600 X111.520 Y44.077
G01 F600 X111.139 Y44.077
G01 F600 X111.139 Y44.750
G01 F600 X117.483 Y44.750
G01 F600 X117.594 Y44.774
G01 F600 X117.735 Y44.617
G01 F600 X117.934 Y44.472
G01 F600 X118.159 Y44.372
G01 F600 X118.400 Y44.321
G01 F600 X118.646 Y44.321
G01 F600 X118.887 Y44.372
G01 F600 X119.111 Y44.472
G01 F600 X119.311 Y44.617
G01 F600 X119.475 Y44.800
G01 F600 X119.598 Y45.013
G01 F600 X119.674 Y45.247
G01 F600 X119.700 Y45.491
G01 F600 X119.674 Y45.736
G01 F600 X119.598 Y45.970
G01 F600 X119.475 Y46.183
G01 F600 X119.311 Y46.366
G01 F600 X119.111 Y46.511
G01 F600 X118.887 Y46.611
G01 F600 X118.646 Y46.662
G01 F600 X118.400 Y46.662
G01 F600 X118.159 Y46.611
G01 F600 X117.934 Y46.511
G01 F600 X117.735 Y46.366
G01 F600 X117.594 Y46.209
G01 F600 X117.483 Y46.233
G01 F600 X111.139 Y46.233
G01 F600 X111.139 Y53.627
G01 F600 X111.124 Y53.775
G01 F600 X111.110 Y53.817
G01 F600 X111.123 Y53.827
G01 F600 X111.275 Y53.996
G01 F600 X111.389 Y54.193
G01 F600 X111.459 Y54.409
G01 F600 X111.483 Y54.635
G01 F600 X111.459 Y54.862
G01 F600 X111.389 Y55.078
G01 F600 X111.275 Y55.275
G01 F600 X111.123 Y55.444
G01 F600 X110.939 Y55.578
G01 F600 X110.731 Y55.670
G01 F600 X110.509 Y55.718
G01 F600 X110.281 Y55.718
G00 F3000 Z3.000
G00 F3000 X112.821 Y55.718
G00 F1500 Z0
G01 F600 Z-0.200
G01 F600 X112.599 Y55.670
G01 F600 X112.391 Y55.578
G01 F600 X112.207 Y55.444
G01 F600 X112.054 Y55.275
G01 F600 X111.941 Y55.078
G01 F600 X111.870 Y54.862
G01 F600 X111.847 Y54.635
G01 F600 X111.870 Y54.409
G01 F600 X111.941 Y54.193
G01 F600 X112.054 Y53.996
G01 F600 X112.207 Y53.827
G01 F600 X112.391 Y53.693
G01 F600 X112.599 Y53.600
G01 F600 X112.821 Y53.553
G01 F600 X113.049 Y53.553
G01 F600 X113.271 Y53.600
G01 F600 X113.479 Y53.693
G01 F600 X113.663 Y53.827
G01 F600 X113.815 Y53.996
G01 F600 X113.929 Y54.193
G01 F600 X113.999 Y54.409
G01 F600 X114.023 Y54.635
G01 F600 X113.999 Y54.862
G01 F600 X113.929 Y55.078
G01 F600 X113.815 Y55.275
G01 F600 X113.663 Y55.444
G01 F600 X113.479 Y55.578
G01 F600 X113.271 Y55.670
G01 F600 X113.049 Y55.718
G01 F600 X112.821 Y55.718
G00 F3000 Z3.000
G00 F3000 X36.076 Y49.495
G00 F1500 Z0
G01 F600 Z-0.200
G01 F600 X35.879 Y49.454
G01 F600 X35.695 Y49.372
G01 F600 X35.533 Y49.254
G01 F600 X35.398 Y49.104
G01 F600 X35.298 Y48.930
G01 F600 X35.236 Y48.739
G01 F600 X35.215 Y48.539
G01 F600 X35.236 Y48.340
G01 F600 X35.298 Y48.148
G01 F600 X35.398 Y47.974
G01 F600 X35.533 Y47.825
G01 F600 X35.695 Y47.707
G01 F600 X35.879 Y47.625
G01 F600 X36.076 Y47.583
G01 F600 X36.276 Y47.583
G01 F600 X36.473 Y47.625
G01 F600 X36.657 Y47.707
G01 F600 X36.819 Y47.825
G01 F600 X36.827 Y47.834
G01 F600 X36.835 Y47.831
G01 F600 X36.987 Y47.798
G01 F600 X66.988 Y47.798
G01 F600 X67.128 Y47.828
G01 F600 X67.130 Y47.825
G01 F600 X67.293 Y47.707
G01 F600 X67.477 Y47.625
G01 F600 X67.673 Y47.583
G01 F600 X67.874 Y47.583
G01 F600 X68.071 Y47.625
G01 F600 X68.254 Y47.707
G01 F600 X68.417 Y47.825
G01 F600 X68.551 Y47.974
G01 F600 X68.652 Y48.148
G01 F600 X68.714 Y48.340
G01 F600 X68.735 Y48.539
G01 F600 X68.714 Y48.739
G01 F600 X68.652 Y48.930
G01 F600 X68.551 Y49.104
G01 F600 X68.417 Y49.254
G01 F600 X68.254 Y49.372
G01 F600 X68.071 Y49.454
G01 F600 X67.874 Y49.495
G01 F600 X67.673 Y49.495
G01 F600 X67.477 Y49.454
G01 F600 X67.293 Y49.372
G01 F600 X67.130 Y49.254
G01 F600 X67.128 Y49.251
G01 F600 X66.988 Y49.281
G01 F600 X36.987 Y49.281
G01 F600 X36.835 Y49.248
G01 F600 X36.827 Y49.245
G01 F600 X36.819 Y49.254
G01 F600 X36.657 Y49.372
G01 F600 X36.473 Y49.454
G01 F600 X36.276 Y49.495
G01 F600 X36.076 Y49.495
G00 F3000 Z3.000
G00 F3000 X30.081 Y49.495
G00 F1500 Z0
G01 F600 Z-0.200
G01 F600 X29.885 Y49.454
G01 F600 X29.701 Y49.372
G01 F600 X29.538 Y49.254
G01 F600 X29.404 Y49.104
G01 F600 X29.303 Y48.930
G01 F600 X29.241 Y48.739
G01 F600 X29.220 Y48.539
G01 F600 X29.241 Y48.340
G01 F600 X29.303 Y48.148
G01 F600 X29.404 Y47.974
G01 F600 X29.480 Y47.891
G01 F600 X29.453 Y47.805
G01 F600 X29.437 Y47.658
G01 F600 X29.412 Y40.887
G01 F600 X29.427 Y40.739
G01 F600 X29.475 Y40.591
G01 F600 X29.553 Y40.456
G01 F600 X29.650 Y40.349
G01 F600 X52.418 Y17.097
G01 F600 X52.542 Y17.008
G01 F600 X52.568 Y16.996
G01 F600 X52.584 Y16.844
G01 F600 X52.646 Y16.652
G01 F600 X52.747 Y16.478
G01 F600 X52.881 Y16.329
G01 F600 X53.044 Y16.211
G01 F600 X53.227 Y16.129
G01 F600 X53.424 Y16.087
G01 F600 X53.625 Y16.087
G01 F600 X53.821 Y16.129
G01 F600 X54.005 Y16.211
G01 F600 X54.167 Y16.329
G01 F600 X54.302 Y16.478
G01 F600 X54.402 Y16.652
G01 F600 X54.464 Y16.844
G01 F600 X54.485 Y17.043
G01 F600 X54.464 Y17.243
G01 F600 X54.402 Y17.434
G01 F600 X54.302 Y17.608
G01 F600 X54.167 Y17.758
G01 F600 X54.005 Y17.876
G01 F600 X53.821 Y17.958
G01 F600 X53.625 Y17.999
G01 F600 X53.571 Y17.999
G01 F600 X53.518 Y18.091
G01 F600 X53.421 Y18.198
G01 F600 X30.902 Y41.195
G01 F600 X30.926 Y47.657
G01 F600 X30.911 Y47.805
G01 F600 X30.883 Y47.890
G01 F600 X30.959 Y47.974
G01 F600 X31.060 Y48.148
G01 F600 X31.122 Y48.340
G01 F600 X31.143 Y48.539
G01 F600 X31.122 Y48.739
G01 F600 X31.060 Y48.930
G01 F600 X30.959 Y49.104
G01 F600 X30.825 Y49.254
G01 F600 X30.662 Y49.372
G01 F600 X30.479 Y49.454
G01 F600 X30.282 Y49.495
G01 F600 X30.081 Y49.495
G00 F3000 Z3.000
G00 F3000 X117.350 Y44.128
G00 F1500 Z0
G01 F600 Z-0.200
G01 F600 X117.338 Y43.693
G01 F600 X113.898 Y43.693
G01 F600 X113.794 Y43.671
G01 F600 X113.689 Y43.788
G01 F600 X113.498 Y43.927
G01 F600 X113.283 Y44.023
G01 F600 X113.053 Y44.072
G01 F600 X112.817 Y44.072
G01 F600 X112.587 Y44.023
G01 F600 X112.372 Y43.927
G01 F600 X112.181 Y43.788
G01 F600 X112.024 Y43.613
G01 F600 X111.906 Y43.410
G01 F600 X111.833 Y43.186
G01 F600 X111.809 Y42.951
G01 F600 X111.833 Y42.717
G01 F600 X111.906 Y42.493
G01 F600 X112.024 Y42.289
G01 F600 X112.181 Y42.114
G01 F600 X112.372 Y41.976
G01 F600 X112.587 Y41.880
G01 F600 X112.817 Y41.831
G01 F600 X113.053 Y41.831
G01 F600 X113.283 Y41.880
G01 F600 X113.498 Y41.976
G01 F600 X113.690 Y42.115
G01 F600 X113.791 Y42.233
G01 F600 X113.898 Y42.210
G01 F600 X117.346 Y42.213
G01 F600 X117.346 Y41.775
G01 F600 X119.699 Y41.775
G01 F600 X119.699 Y44.128
G01 F600 X117.350 Y44.128
G00 F3000 Z3.000
G00 F3000 X59.418 Y17.999
G00 F1500 Z0
G01 F600 Z-0.200
G01 F600 X59.222 Y17.958
G01 F600 X59.038 Y17.876
G01 F600 X58.875 Y17.758
G01 F600 X58.741 Y17.608
G01 F600 X58.641 Y17.434
G01 F600 X58.578 Y17.243
G01 F600 X58.557 Y17.043
G01 F600 X58.578 Y16.844
G01 F600 X58.641 Y16.652
G01 F600 X58.741 Y16.478
G01 F600 X58.875 Y16.329
G01 F600 X59.038 Y16.211
G01 F600 X59.222 Y16.129
G01 F600 X59.418 Y16.087
G01 F600 X59.619 Y16.087
G01 F600 X59.816 Y16.129
G01 F600 X59.999 Y16.211
G01 F600 X60.162 Y16.329
G01 F600 X60.296 Y16.478
G01 F600 X60.397 Y16.652
G01 F600 X60.459 Y16.844
G01 F600 X60.480 Y17.043
G01 F600 X60.459 Y17.243
G01 F600 X60.397 Y17.434
G01 F600 X60.296 Y17.608
G01 F600 X60.162 Y17.758
G01 F600 X59.999 Y17.876
G01 F600 X59.816 Y17.958
G01 F600 X59.619 Y17.999
G01 F600 X59.418 Y17.999
G00 F3000 Z3.000
G00 F3000 X106.664 Y66.245
G00 F1500 Z0
G01 F600 Z-0.200
G01 F600 X106.470 Y66.204
G01 F600 X106.289 Y66.123
G01 F600 X106.129 Y66.007
G01 F600 X105.997 Y65.860
G01 F600 X105.914 Y65.716
G01 F600 X99.730 Y54.535
G01 F600 X34.236 Y54.535
G01 F600 X30.704 Y54.561
G01 F600 X30.540 Y54.561
G01 F600 X30.346 Y54.520
G01 F600 X30.166 Y54.439
G01 F600 X30.013 Y54.328
G01 F600 X26.940 Y51.255
G01 F600 X26.825 Y51.128
G01 F600 X26.726 Y50.956
G01 F600 X26.665 Y50.768
G01 F600 X26.646 Y50.589
G01 F600 X26.672 Y38.336
G01 F600 X26.690 Y38.157
G01 F600 X26.752 Y37.969
G01 F600 X26.851 Y37.798
G01 F600 X26.963 Y37.673
G01 F600 X51.829 Y11.816
G01 F600 X51.984 Y11.703
G01 F600 X52.165 Y11.622
G01 F600 X52.358 Y11.581
G01 F600 X55.655 Y11.581
G01 F600 X55.849 Y11.622
G01 F600 X56.030 Y11.703
G01 F600 X56.190 Y11.819
G01 F600 X56.322 Y11.966
G01 F600 X56.421 Y12.137
G01 F600 X56.482 Y12.325
G01 F600 X56.501 Y12.506
G01 F600 X56.475 Y16.173
G01 F600 X56.457 Y16.345
G01 F600 X56.471 Y16.360
G01 F600 X56.521 Y16.447
G01 F600 X56.572 Y16.360
G01 F600 X56.734 Y16.180
G01 F600 X56.931 Y16.037
G01 F600 X57.153 Y15.938
G01 F600 X57.391 Y15.887
G01 F600 X57.634 Y15.887
G01 F600 X57.871 Y15.938
G01 F600 X58.093 Y16.037
G01 F600 X58.290 Y16.180
G01 F600 X58.452 Y16.360
G01 F600 X58.515 Y16.469
G01 F600 X58.578 Y16.360
G01 F600 X58.741 Y16.180
G01 F600 X58.937 Y16.037
G01 F600 X59.160 Y15.938
G01 F600 X59.397 Y15.887
G01 F600 X59.640 Y15.887
G01 F600 X59.878 Y15.938
G01 F600 X60.100 Y16.037
G01 F600 X60.296 Y16.180
G01 F600 X60.459 Y16.360
G01 F600 X60.580 Y16.571
G01 F600 X60.656 Y16.802
G01 F600 X60.681 Y17.043
G01 F600 X60.656 Y17.285
G01 F600 X60.580 Y17.516
G01 F600 X60.459 Y17.727
G01 F600 X60.296 Y17.907
G01 F600 X60.100 Y18.050
G01 F600 X59.878 Y18.149
G01 F600 X59.640 Y18.199
G01 F600 X59.397 Y18.199
G01 F600 X59.160 Y18.149
G01 F600 X58.937 Y18.050
G01 F600 X58.741 Y17.907
G01 F600 X58.578 Y17.727
G01 F600 X58.515 Y17.617
G01 F600 X58.455 Y17.722
G01 F600 X58.441 Y17.739
G01 F600 X58.456 Y17.888
G01 F600 X58.482 Y20.572
G01 F600 X58.482 Y32.470
G01 F600 X69.941 Y44.601
G01 F600 X109.450 Y44.551
G01 F600 X109.450 Y44.277
G01 F600 X109.069 Y44.277
G01 F600 X109.069 Y41.626
G01 F600 X111.720 Y41.626
G01 F600 X111.720 Y42.417
G01 F600 X111.722 Y42.412
G01 F600 X111.861 Y42.171
G01 F600 X112.047 Y41.965
G01 F600 X112.271 Y41.802
G01 F600 X112.525 Y41.689
G01 F600 X112.796 Y41.631
G01 F600 X113.074 Y41.631
G01 F600 X113.345 Y41.689
G01 F600 X113.599 Y41.802
G01 F600 X113.826 Y41.967
G01 F600 X113.865 Y42.013
G01 F600 X113.877 Y42.010
G01 F600 X117.146 Y42.013
G01 F600 X117.146 Y41.575
G01 F600 X119.899 Y41.575
G01 F600 X119.899 Y44.328
G01 F600 X119.253 Y44.328
G01 F600 X119.445 Y44.467
G01 F600 X119.638 Y44.681
G01 F600 X119.782 Y44.931
G01 F600 X119.871 Y45.205
G01 F600 X119.901 Y45.491
G01 F600 X119.871 Y45.778
G01 F600 X119.782 Y46.052
G01 F600 X119.638 Y46.302
G01 F600 X119.445 Y46.516
G01 F600 X119.212 Y46.685
G01 F600 X119.040 Y46.761
G01 F600 X119.212 Y46.838
G01 F600 X119.445 Y47.007
G01 F600 X119.500 Y47.068
G01 F600 X119.516 Y47.065
G01 F600 X121.695 Y47.065
G01 F600 X121.889 Y47.106
G01 F600 X122.070 Y47.186
G01 F600 X122.230 Y47.303
G01 F600 X122.362 Y47.450
G01 F600 X122.461 Y47.621
G01 F600 X122.522 Y47.809
G01 F600 X122.541 Y47.988
G01 F600 X122.541 Y62.273
G01 F600 X122.522 Y62.452
G01 F600 X122.461 Y62.640
G01 F600 X122.362 Y62.812
G01 F600 X122.230 Y62.959
G01 F600 X122.070 Y63.075
G01 F600 X121.889 Y63.156
G01 F600 X121.695 Y63.197
G01 F600 X118.931 Y63.197
G01 F600 X118.934 Y63.228
G01 F600 X118.934 Y65.321
G01 F600 X118.915 Y65.500
G01 F600 X118.854 Y65.688
G01 F600 X118.755 Y65.860
G01 F600 X118.623 Y66.007
G01 F600 X118.463 Y66.123
G01 F600 X118.282 Y66.204
G01 F600 X118.088 Y66.245
G01 F600 X106.664 Y66.245
G00 F3000 Z3.000
G00 F3000 X107.319 Y64.362
G00 F1500 Z0
G01 F600 Z-0.200
G01 F600 X117.045 Y64.362
G01 F600 X117.045 Y63.228
G01 F600 X117.057 Y63.108
G01 F600 X116.972 Y63.013
G01 F600 X116.837 Y62.780
G01 F600 X116.754 Y62.524
G01 F600 X116.745 Y62.440
G01 F600 X116.736 Y62.524
G01 F600 X116.653 Y62.780
G01 F600 X116.518 Y63.013
G01 F600 X116.338 Y63.214
G01 F600 X116.120 Y63.372
G01 F600 X115.873 Y63.482
G01 F600 X115.610 Y63.538
G01 F600 X115.340 Y63.538
G01 F600 X115.076 Y63.482
G01 F600 X114.830 Y63.372
G01 F600 X114.612 Y63.214
G01 F600 X114.432 Y63.013
G01 F600 X114.297 Y62.780
G01 F600 X114.214 Y62.524
G01 F600 X114.205 Y62.440
G01 F600 X114.196 Y62.524
G01 F600 X114.113 Y62.780
G01 F600 X113.978 Y63.013
G01 F600 X113.797 Y63.214
G01 F600 X113.580 Y63.372
G01 F600 X113.333 Y63.482
G01 F600 X113.070 Y63.538
G01 F600 X112.800 Y63.538
G01 F600 X112.536 Y63.482
G01 F600 X112.290 Y63.372
G01 F600 X112.072 Y63.214
G01 F600 X111.892 Y63.013
G01 F600 X111.757 Y62.780
G01 F600 X111.674 Y62.524
G01 F600 X111.665 Y62.440
G01 F600 X111.656 Y62.524
G01 F600 X111.573 Y62.780
G01 F600 X111.438 Y63.013
G01 F600 X111.258 Y63.214
G01 F600 X111.040 Y63.372
G01 F600 X110.793 Y63.482
G01 F600 X110.530 Y63.538
G01 F600 X110.260 Y63.538
G01 F600 X109.996 Y63.482
G01 F600 X109.750 Y63.372
G01 F600 X109.532 Y63.214
G01 F600 X109.352 Y63.013
G01 F600 X109.217 Y62.780
G01 F600 X109.134 Y62.524
G01 F600 X109.106 Y62.255
G01 F600 X109.134 Y61.987
G01 F600 X109.217 Y61.731
G01 F600 X109.352 Y61.498
G01 F600 X109.532 Y61.297
G01 F600 X109.750 Y61.139
G01 F600 X109.996 Y61.029
G01 F600 X110.260 Y60.973
G01 F600 X110.530 Y60.973
G01 F600 X110.793 Y61.029
G01 F600 X111.040 Y61.139
G01 F600 X111.258 Y61.297
G01 F600 X111.438 Y61.498
G01 F600 X111.573 Y61.731
G01 F600 X111.656 Y61.987
G01 F600 X111.665 Y62.071
G01 F600 X111.674 Y61.987
G01 F600 X111.757 Y61.731
G01 F600 X111.892 Y61.498
G01 F600 X111.980 Y61.400
G01 F600 X111.965 Y61.257
G01 F600 X111.965 Y60.174
G01 F600 X108.239 Y60.174
G01 F600 X108.045 Y60.133
G01 F600 X107.864 Y60.052
G01 F600 X107.704 Y59.936
G01 F600 X107.572 Y59.789
G01 F600 X107.488 Y59.644
G01 F600 X102.258 Y50.005
G01 F600 X74.555 Y49.480
G01 F600 X74.466 Y49.461
G01 F600 X74.349 Y49.546
G01 F600 X74.127 Y49.645
G01 F600 X73.889 Y49.695
G01 F600 X73.647 Y49.695
G01 F600 X73.409 Y49.645
G01 F600 X73.187 Y49.546
G01 F600 X72.990 Y49.403
G01 F600 X72.828 Y49.223
G01 F600 X72.777 Y49.136
G01 F600 X72.730 Y49.218
G01 F600 X72.716 Y49.235
G01 F600 X72.731 Y49.387
G01 F600 X72.712 Y52.653
G01 F600 X100.385 Y52.653
G01 F600 X100.578 Y52.694
G01 F600 X100.759 Y52.774
G01 F600 X100.919 Y52.891
G01 F600 X101.051 Y53.038
G01 F600 X101.134 Y53.181
G01 F600 X107.319 Y64.362
G00 F3000 Z3.000
G00 F3000 X114.205 Y62.071
G00 F1500 Z0
G01 F600 Z-0.200
G01 F600 X114.214 Y61.987
G01 F600 X114.297 Y61.731
G01 F600 X114.432 Y61.498
G01 F600 X114.612 Y61.297
G01 F600 X114.830 Y61.139
G01 F600 X115.076 Y61.029
G01 F600 X115.340 Y60.973
G01 F600 X115.610 Y60.973
G01 F600 X115.873 Y61.029
G01 F600 X116.120 Y61.139
G01 F600 X116.338 Y61.297
G01 F600 X116.518 Y61.498
G01 F600 X116.653 Y61.731
G01 F600 X116.736 Y61.987
G01 F600 X116.745 Y62.071
G01 F600 X116.754 Y61.987
G01 F600 X116.837 Y61.731
G01 F600 X116.972 Y61.498
G01 F600 X117.152 Y61.297
G01 F600 X117.370 Y61.139
G01 F600 X117.616 Y61.029
G01 F600 X117.880 Y60.973
G01 F600 X118.150 Y60.973
G01 F600 X118.413 Y61.029
G01 F600 X118.660 Y61.139
G01 F600 X118.878 Y61.297
G01 F600 X118.895 Y61.317
G01 F600 X118.907 Y61.314
G01 F600 X120.652 Y61.314
G01 F600 X120.652 Y48.947
G01 F600 X119.543 Y48.947
G01 F600 X119.445 Y49.056
G01 F600 X119.212 Y49.225
G01 F600 X118.949 Y49.342
G01 F600 X118.667 Y49.402
G01 F600 X118.379 Y49.402
G01 F600 X118.097 Y49.342
G01 F600 X117.834 Y49.225
G01 F600 X117.601 Y49.056
G01 F600 X117.408 Y48.842
G01 F600 X117.264 Y48.592
G01 F600 X117.175 Y48.318
G01 F600 X117.145 Y48.031
G01 F600 X117.175 Y47.745
G01 F600 X117.264 Y47.471
G01 F600 X117.408 Y47.221
G01 F600 X117.601 Y47.007
G01 F600 X117.834 Y46.838
G01 F600 X118.005 Y46.761
G01 F600 X117.834 Y46.685
G01 F600 X117.601 Y46.516
G01 F600 X117.522 Y46.429
G01 F600 X117.504 Y46.433
G01 F600 X111.339 Y46.433
G01 F600 X111.339 Y53.637
G01 F600 X111.327 Y53.754
G01 F600 X111.438 Y53.878
G01 F600 X111.573 Y54.111
G01 F600 X111.656 Y54.367
G01 F600 X111.665 Y54.451
G01 F600 X111.674 Y54.367
G01 F600 X111.757 Y54.111
G01 F600 X111.892 Y53.878
G01 F600 X112.072 Y53.677
G01 F600 X112.290 Y53.519
G01 F600 X112.536 Y53.409
G01 F600 X112.800 Y53.353
G01 F600 X113.070 Y53.353
G01 F600 X113.333 Y53.409
G01 F600 X113.580 Y53.519
G01 F600 X113.797 Y53.677
G01 F600 X113.978 Y53.878
G01 F600 X114.113 Y54.111
G01 F600 X114.196 Y54.367
G01 F600 X114.205 Y54.451
G01 F600 X114.214 Y54.367
G01 F600 X114.297 Y54.111
G01 F600 X114.432 Y53.878
G01 F600 X114.612 Y53.677
G01 F600 X114.830 Y53.519
G01 F600 X115.076 Y53.409
G01 F600 X115.340 Y53.353
G01 F600 X115.610 Y53.353
G01 F600 X115.873 Y53.409
G01 F600 X116.120 Y53.519
G01 F600 X116.338 Y53.677
G01 F600 X116.518 Y53.878
G01 F600 X116.653 Y54.111
G01 F600 X116.727 Y54.341
G01 F600 X116.727 Y53.348
G01 F600 X119.302 Y53.348
G01 F600 X119.302 Y55.923
G01 F600 X116.727 Y55.923
G01 F600 X116.727 Y54.930
G01 F600 X116.653 Y55.160
G01 F600 X116.518 Y55.393
G01 F600 X116.338 Y55.594
G01 F600 X116.120 Y55.752
G01 F600 X115.873 Y55.862
G01 F600 X115.610 Y55.918
G01 F600 X115.340 Y55.918
G01 F600 X115.076 Y55.862
G01 F600 X114.830 Y55.752
G01 F600 X114.612 Y55.594
G01 F600 X114.432 Y55.393
G01 F600 X114.297 Y55.160
G01 F600 X114.214 Y54.904
G01 F600 X114.205 Y54.820
G01 F600 X114.196 Y54.904
G01 F600 X114.113 Y55.160
G01 F600 X113.978 Y55.393
G01 F600 X113.797 Y55.594
G01 F600 X113.580 Y55.752
G01 F600 X113.333 Y55.862
G01 F600 X113.070 Y55.918
G01 F600 X112.800 Y55.918
G01 F600 X112.536 Y55.862
G01 F600 X112.290 Y55.752
G01 F600 X112.072 Y55.594
G01 F600 X111.892 Y55.393
G01 F600 X111.757 Y55.160
G01 F600 X111.674 Y54.904
G01 F600 X111.665 Y54.820
G01 F600 X111.656 Y54.904
G01 F600 X111.573 Y55.160
G01 F600 X111.438 Y55.393
G01 F600 X111.258 Y55.594
G01 F600 X111.040 Y55.752
G01 F600 X110.793 Y55.862
G01 F600 X110.530 Y55.918
G01 F600 X110.260 Y55.918
G01 F600 X109.996 Y55.862
G01 F600 X109.750 Y55.752
G01 F600 X109.532 Y55.594
G01 F600 X109.352 Y55.393
G01 F600 X109.217 Y55.160
G01 F600 X109.134 Y54.904
G01 F600 X109.106 Y54.635
G01 F600 X109.134 Y54.367
G01 F600 X109.217 Y54.111
G01 F600 X109.352 Y53.878
G01 F600 X109.463 Y53.755
G01 F600 X109.450 Y53.637
G01 F600 X109.450 Y46.434
G01 F600 X70.739 Y46.482
G01 F600 X70.725 Y47.670
G01 F600 X70.707 Y47.841
G01 F600 X70.721 Y47.856
G01 F600 X70.784 Y47.965
G01 F600 X70.846 Y47.856
G01 F600 X71.009 Y47.676
G01 F600 X71.206 Y47.533
G01 F600 X71.428 Y47.434
G01 F600 X71.665 Y47.383
G01 F600 X71.908 Y47.383
G01 F600 X72.146 Y47.434
G01 F600 X72.368 Y47.533
G01 F600 X72.565 Y47.676
G01 F600 X72.727 Y47.856
G01 F600 X72.777 Y47.943
G01 F600 X72.828 Y47.856
G01 F600 X72.990 Y47.676
G01 F600 X73.187 Y47.533
G01 F600 X73.409 Y47.434
G01 F600 X73.647 Y47.383
G01 F600 X73.889 Y47.383
G01 F600 X74.127 Y47.434
G01 F600 X74.349 Y47.533
G01 F600 X74.466 Y47.618
G01 F600 X74.558 Y47.598
G01 F600 X74.724 Y47.598
G01 F600 X102.928 Y48.132
G01 F600 X103.118 Y48.173
G01 F600 X103.299 Y48.253
G01 F600 X103.459 Y48.370
G01 F600 X103.591 Y48.517
G01 F600 X103.675 Y48.661
G01 F600 X108.899 Y58.292
G01 F600 X113.008 Y58.292
G01 F600 X113.202 Y58.333
G01 F600 X113.383 Y58.413
G01 F600 X113.543 Y58.530
G01 F600 X113.675 Y58.677
G01 F600 X113.774 Y58.848
G01 F600 X113.835 Y59.036
G01 F600 X113.854 Y59.215
G01 F600 X113.854 Y61.257
G01 F600 X113.844 Y61.349
G01 F600 X113.978 Y61.498
G01 F600 X114.113 Y61.731
G01 F600 X114.196 Y61.987
G01 F600 X114.205 Y62.071
G00 F3000 Z3.000
G00 F3000 X31.029 Y52.675
G00 F1500 Z0
G01 F600 Z-0.200
G01 F600 X33.225 Y52.659
G01 F600 X33.225 Y49.385
G01 F600 X33.244 Y49.204
G01 F600 X33.192 Y49.114
G01 F600 X33.129 Y49.223
G01 F600 X32.966 Y49.403
G01 F600 X32.769 Y49.546
G01 F600 X32.547 Y49.645
G01 F600 X32.310 Y49.695
G01 F600 X32.067 Y49.695
G01 F600 X31.829 Y49.645
G01 F600 X31.607 Y49.546
G01 F600 X31.410 Y49.403
G01 F600 X31.248 Y49.223
G01 F600 X31.185 Y49.114
G01 F600 X31.122 Y49.223
G01 F600 X30.959 Y49.403
G01 F600 X30.763 Y49.546
G01 F600 X30.541 Y49.645
G01 F600 X30.303 Y49.695
G01 F600 X30.060 Y49.695
G01 F600 X29.823 Y49.645
G01 F600 X29.600 Y49.546
G01 F600 X29.404 Y49.403
G01 F600 X29.241 Y49.223
G01 F600 X29.120 Y49.012
G01 F600 X29.045 Y48.781
G01 F600 X29.019 Y48.539
G01 F600 X29.045 Y48.298
G01 F600 X29.120 Y48.067
G01 F600 X29.242 Y47.855
G01 F600 X29.255 Y47.841
G01 F600 X29.237 Y47.669
G01 F600 X29.212 Y40.877
G01 F600 X29.230 Y40.697
G01 F600 X29.292 Y40.509
G01 F600 X29.391 Y40.338
G01 F600 X29.504 Y40.212
G01 F600 X52.287 Y16.945
G01 F600 X52.379 Y16.879
G01 F600 X52.387 Y16.802
G01 F600 X52.462 Y16.571
G01 F600 X52.584 Y16.360
G01 F600 X52.746 Y16.180
G01 F600 X52.943 Y16.037
G01 F600 X53.165 Y15.938
G01 F600 X53.403 Y15.887
G01 F600 X53.646 Y15.887
G01 F600 X53.883 Y15.938
G01 F600 X54.105 Y16.037
G01 F600 X54.302 Y16.180
G01 F600 X54.465 Y16.360
G01 F600 X54.528 Y16.469
G01 F600 X54.591 Y16.358
G01 F600 X54.604 Y16.345
G01 F600 X54.586 Y16.171
G01 F600 X54.605 Y13.463
G01 F600 X52.861 Y13.463
G01 F600 X28.560 Y38.733
G01 F600 X28.536 Y50.182
G01 F600 X31.029 Y52.675
G00 F3000 Z3.000
G00 F3000 X35.114 Y52.653
G00 F1500 Z0
G01 F600 Z-0.200
G01 F600 X70.823 Y52.653
G01 F600 X70.842 Y49.384
G01 F600 X70.858 Y49.236
G01 F600 X70.846 Y49.223
G01 F600 X70.784 Y49.114
G01 F600 X70.721 Y49.223
G01 F600 X70.558 Y49.403
G01 F600 X70.361 Y49.546
G01 F600 X70.139 Y49.645
G01 F600 X69.902 Y49.695
G01 F600 X69.659 Y49.695
G01 F600 X69.421 Y49.645
G01 F600 X69.199 Y49.546
G01 F600 X69.002 Y49.403
G01 F600 X68.840 Y49.223
G01 F600 X68.777 Y49.114
G01 F600 X68.714 Y49.223
G01 F600 X68.551 Y49.403
G01 F600 X68.355 Y49.546
G01 F600 X68.133 Y49.645
G01 F600 X67.895 Y49.695
G01 F600 X67.652 Y49.695
G01 F600 X67.415 Y49.645
G01 F600 X67.193 Y49.546
G01 F600 X67.081 Y49.465
G01 F600 X67.009 Y49.481
G01 F600 X36.966 Y49.481
G01 F600 X36.874 Y49.461
G01 F600 X36.757 Y49.546
G01 F600 X36.535 Y49.645
G01 F600 X36.297 Y49.695
G01 F600 X36.055 Y49.695
G01 F600 X35.817 Y49.645
G01 F600 X35.595 Y49.546
G01 F600 X35.398 Y49.403
G01 F600 X35.236 Y49.223
G01 F600 X35.185 Y49.136
G01 F600 X35.133 Y49.226
G01 F600 X35.101 Y49.260
G01 F600 X35.114 Y49.385
G01 F600 X35.114 Y52.653
G00 F3000 Z3.000
G00 F3000 X31.185 Y47.965
G00 F1500 Z0
G01 F600 Z-0.200
G01 F600 X31.249 Y47.855
G01 F600 X31.262 Y47.841
G01 F600 X31.244 Y47.668
G01 F600 X31.244 Y45.982
G01 F600 X31.262 Y45.803
G01 F600 X31.324 Y45.614
G01 F600 X31.423 Y45.443
G01 F600 X31.537 Y45.316
G01 F600 X56.589 Y20.189
G01 F600 X56.567 Y17.891
G01 F600 X56.583 Y17.739
G01 F600 X56.572 Y17.727
G01 F600 X56.521 Y17.640
G01 F600 X56.471 Y17.727
G01 F600 X56.309 Y17.907
G01 F600 X56.112 Y18.050
G01 F600 X55.890 Y18.149
G01 F600 X55.652 Y18.199
G01 F600 X55.409 Y18.199
G01 F600 X55.172 Y18.149
G01 F600 X54.950 Y18.050
G01 F600 X54.753 Y17.907
G01 F600 X54.590 Y17.727
G01 F600 X54.528 Y17.618
G01 F600 X54.465 Y17.727
G01 F600 X54.302 Y17.907
G01 F600 X54.105 Y18.050
G01 F600 X53.883 Y18.149
G01 F600 X53.692 Y18.190
G01 F600 X53.680 Y18.209
G01 F600 X53.567 Y18.335
G01 F600 X31.102 Y41.276
G01 F600 X31.126 Y47.667
G01 F600 X31.108 Y47.841
G01 F600 X31.122 Y47.856
G01 F600 X31.185 Y47.965
G00 F3000 Z3.000
G00 F3000 X33.192 Y47.965
G00 F1500 Z0
G01 F600 Z-0.200
G01 F600 X33.254 Y47.856
G01 F600 X33.417 Y47.676
G01 F600 X33.614 Y47.533
G01 F600 X33.836 Y47.434
G01 F600 X34.073 Y47.383
G01 F600 X34.316 Y47.383
G01 F600 X34.554 Y47.434
G01 F600 X34.776 Y47.533
G01 F600 X34.973 Y47.676
G01 F600 X35.135 Y47.856
G01 F600 X35.185 Y47.943
G01 F600 X35.236 Y47.856
G01 F600 X35.398 Y47.676
G01 F600 X35.595 Y47.533
G01 F600 X35.817 Y47.434
G01 F600 X36.055 Y47.383
G01 F600 X36.297 Y47.383
G01 F600 X36.535 Y47.434
G01 F600 X36.757 Y47.533
G01 F600 X36.874 Y47.618
G01 F600 X36.966 Y47.598
G01 F600 X67.009 Y47.598
G01 F600 X67.081 Y47.614
G01 F600 X67.193 Y47.533
G01 F600 X67.415 Y47.434
G01 F600 X67.652 Y47.383
G01 F600 X67.895 Y47.383
G01 F600 X68.133 Y47.434
G01 F600 X68.355 Y47.533
G01 F600 X68.551 Y47.676
G01 F600 X68.714 Y47.856
G01 F600 X68.777 Y47.965
G01 F600 X68.835 Y47.865
G01 F600 X68.829 Y47.847
G01 F600 X68.811 Y47.676
G01 F600 X68.728 Y46.063
G01 F600 X56.883 Y33.522
G01 F600 X56.772 Y33.399
G01 F600 X56.673 Y33.227
G01 F600 X56.612 Y33.039
G01 F600 X56.593 Y32.860
G01 F600 X56.593 Y22.858
G01 F600 X33.133 Y46.389
G01 F600 X33.133 Y47.668
G01 F600 X33.115 Y47.841
G01 F600 X33.129 Y47.856
G01 F600 X33.192 Y47.965
G00 F3000 Z3.000
G00 F3000 X117.522 Y44.554
G00 F1500 Z0
G01 F600 Z-0.200
G01 F600 X117.601 Y44.467
G01 F600 X117.792 Y44.328
G01 F600 X117.156 Y44.328
G01 F600 X117.143 Y43.893
G01 F600 X113.877 Y43.893
G01 F600 X113.866 Y43.890
G01 F600 X113.823 Y43.938
G01 F600 X113.599 Y44.101
G01 F600 X113.345 Y44.214
G01 F600 X113.074 Y44.272
G01 F600 X112.796 Y44.272
G01 F600 X112.525 Y44.214
G01 F600 X112.271 Y44.101
G01 F600 X112.047 Y43.938
G01 F600 X111.861 Y43.732
G01 F600 X111.722 Y43.491
G01 F600 X111.720 Y43.486
G01 F600 X111.720 Y44.277
G01 F600 X111.339 Y44.277
G01 F600 X111.339 Y44.550
G01 F600 X117.504 Y44.550
G01 F600 X117.522 Y44.554
G00 F3000 Z3.000
G00 F3000 X106.643 Y66.445
G00 F1500 Z0
G01 F600 Z-0.200
G01 F600 X106.408 Y66.395
G01 F600 X106.189 Y66.297
G01 F600 X105.995 Y66.156
G01 F600 X105.834 Y65.978
G01 F600 X105.740 Y65.815
G01 F600 X99.612 Y54.735
G01 F600 X34.237 Y54.735
G01 F600 X30.704 Y54.761
G01 F600 X30.519 Y54.761
G01 F600 X30.284 Y54.711
G01 F600 X30.065 Y54.613
G01 F600 X29.882 Y54.480
G01 F600 X26.795 Y51.393
G01 F600 X26.662 Y51.246
G01 F600 X26.543 Y51.038
G01 F600 X26.468 Y50.810
G01 F600 X26.446 Y50.599
G01 F600 X26.472 Y38.325
G01 F600 X26.494 Y38.115
G01 F600 X26.568 Y37.887
G01 F600 X26.688 Y37.680
G01 F600 X26.817 Y37.536
G01 F600 X51.697 Y11.664
G01 F600 X51.884 Y11.529
G01 F600 X52.103 Y11.431
G01 F600 X52.338 Y11.381
G01 F600 X55.676 Y11.381
G01 F600 X55.911 Y11.431
G01 F600 X56.130 Y11.529
G01 F600 X56.324 Y11.670
G01 F600 X56.485 Y11.848
G01 F600 X56.605 Y12.055
G01 F600 X56.679 Y12.284
G01 F600 X56.701 Y12.496
G01 F600 X56.677 Y15.974
G01 F600 X56.830 Y15.863
G01 F600 X57.091 Y15.747
G01 F600 X57.370 Y15.687
G01 F600 X57.655 Y15.687
G01 F600 X57.933 Y15.747
G01 F600 X58.194 Y15.863
G01 F600 X58.424 Y16.030
G01 F600 X58.515 Y16.131
G01 F600 X58.606 Y16.030
G01 F600 X58.837 Y15.863
G01 F600 X59.097 Y15.747
G01 F600 X59.376 Y15.687
G01 F600 X59.661 Y15.687
G01 F600 X59.940 Y15.747
G01 F600 X60.200 Y15.863
G01 F600 X60.431 Y16.030
G01 F600 X60.622 Y16.242
G01 F600 X60.764 Y16.489
G01 F600 X60.852 Y16.760
G01 F600 X60.882 Y17.043
G01 F600 X60.852 Y17.327
G01 F600 X60.764 Y17.598
G01 F600 X60.622 Y17.845
G01 F600 X60.431 Y18.056
G01 F600 X60.200 Y18.224
G01 F600 X59.940 Y18.340
G01 F600 X59.661 Y18.399
G01 F600 X59.376 Y18.399
G01 F600 X59.097 Y18.340
G01 F600 X58.837 Y18.224
G01 F600 X58.658 Y18.095
G01 F600 X58.682 Y20.571
G01 F600 X58.682 Y32.390
G01 F600 X70.027 Y44.401
G01 F600 X108.869 Y44.352
G01 F600 X108.869 Y41.426
G01 F600 X111.920 Y41.426
G01 F600 X111.920 Y41.809
G01 F600 X112.170 Y41.628
G01 F600 X112.462 Y41.498
G01 F600 X112.775 Y41.431
G01 F600 X113.095 Y41.431
G01 F600 X113.407 Y41.498
G01 F600 X113.699 Y41.628
G01 F600 X113.950 Y41.810
G01 F600 X116.946 Y41.812
G01 F600 X116.946 Y41.375
G01 F600 X120.099 Y41.375
G01 F600 X120.099 Y44.528
G01 F600 X119.769 Y44.528
G01 F600 X119.800 Y44.563
G01 F600 X119.966 Y44.849
G01 F600 X120.068 Y45.163
G01 F600 X120.102 Y45.491
G01 F600 X120.068 Y45.820
G01 F600 X119.966 Y46.134
G01 F600 X119.800 Y46.420
G01 F600 X119.580 Y46.665
G01 F600 X119.447 Y46.761
G01 F600 X119.580 Y46.858
G01 F600 X119.586 Y46.865
G01 F600 X121.716 Y46.865
G01 F600 X121.951 Y46.915
G01 F600 X122.170 Y47.012
G01 F600 X122.364 Y47.153
G01 F600 X122.525 Y47.332
G01 F600 X122.645 Y47.539
G01 F600 X122.719 Y47.767
G01 F600 X122.741 Y47.978
G01 F600 X122.741 Y62.284
G01 F600 X122.719 Y62.494
G01 F600 X122.645 Y62.722
G01 F600 X122.525 Y62.930
G01 F600 X122.364 Y63.108
G01 F600 X122.170 Y63.249
G01 F600 X121.951 Y63.347
G01 F600 X121.716 Y63.397
G01 F600 X119.134 Y63.397
G01 F600 X119.134 Y65.332
G01 F600 X119.112 Y65.542
G01 F600 X119.038 Y65.770
G01 F600 X118.918 Y65.978
G01 F600 X118.757 Y66.156
G01 F600 X118.563 Y66.297
G01 F600 X118.344 Y66.395
G01 F600 X118.109 Y66.445
G01 F600 X106.643 Y66.445
G00 F3000 Z3.000
G00 F3000 X107.437 Y64.162
G00 F1500 Z0
G01 F600 Z-0.200
G01 F600 X116.845 Y64.162
G01 F600 X116.845 Y63.218
G01 F600 X116.849 Y63.176
G01 F600 X116.809 Y63.132
G01 F600 X116.745 Y63.020
G01 F600 X116.681 Y63.132
G01 F600 X116.472 Y63.363
G01 F600 X116.220 Y63.546
G01 F600 X115.936 Y63.673
G01 F600 X115.631 Y63.738
G01 F600 X115.319 Y63.738
G01 F600 X115.014 Y63.673
G01 F600 X114.730 Y63.546
G01 F600 X114.478 Y63.363
G01 F600 X114.269 Y63.132
G01 F600 X114.205 Y63.020
G01 F600 X114.141 Y63.132
G01 F600 X113.932 Y63.363
G01 F600 X113.680 Y63.546
G01 F600 X113.395 Y63.673
G01 F600 X113.091 Y63.738
G01 F600 X112.779 Y63.738
G01 F600 X112.474 Y63.673
G01 F600 X112.190 Y63.546
G01 F600 X111.938 Y63.363
G01 F600 X111.729 Y63.132
G01 F600 X111.665 Y63.020
G01 F600 X111.601 Y63.132
G01 F600 X111.392 Y63.363
G01 F600 X111.140 Y63.546
G01 F600 X110.856 Y63.673
G01 F600 X110.551 Y63.738
G01 F600 X110.239 Y63.738
G01 F600 X109.934 Y63.673
G01 F600 X109.650 Y63.546
G01 F600 X109.398 Y63.363
G01 F600 X109.189 Y63.132
G01 F600 X109.033 Y62.862
G01 F600 X108.937 Y62.565
G01 F600 X108.904 Y62.255
G01 F600 X108.937 Y61.946
G01 F600 X109.033 Y61.649
G01 F600 X109.189 Y61.379
G01 F600 X109.398 Y61.148
G01 F600 X109.650 Y60.965
G01 F600 X109.934 Y60.838
G01 F600 X110.239 Y60.773
G01 F600 X110.551 Y60.773
G01 F600 X110.856 Y60.838
G01 F600 X111.140 Y60.965
G01 F600 X111.392 Y61.148
G01 F600 X111.601 Y61.379
G01 F600 X111.665 Y61.491
G01 F600 X111.729 Y61.379
G01 F600 X111.772 Y61.332
G01 F600 X111.765 Y61.268
G01 F600 X111.765 Y60.374
G01 F600 X108.218 Y60.374
G01 F600 X107.983 Y60.324
G01 F600 X107.764 Y60.227
G01 F600 X107.570 Y60.086
G01 F600 X107.409 Y59.907
G01 F600 X107.314 Y59.742
G01 F600 X102.138 Y50.202
G01 F600 X74.532 Y49.680
G01 F600 X74.512 Y49.675
G01 F600 X74.450 Y49.720
G01 F600 X74.189 Y49.836
G01 F600 X73.910 Y49.895
G01 F600 X73.626 Y49.895
G01 F600 X73.347 Y49.836
G01 F600 X73.086 Y49.720
G01 F600 X72.930 Y49.607
G01 F600 X72.913 Y52.453
G01 F600 X100.406 Y52.453
G01 F600 X100.640 Y52.503
G01 F600 X100.860 Y52.600
G01 F600 X101.053 Y52.741
G01 F600 X101.214 Y52.919
G01 F600 X101.308 Y53.083
G01 F600 X107.437 Y64.162
G00 F3000 Z3.000
G00 F3000 X114.205 Y61.491
G00 F1500 Z0
G01 F600 Z-0.200
G01 F600 X114.269 Y61.379
G01 F600 X114.478 Y61.148
G01 F600 X114.730 Y60.965
G01 F600 X115.014 Y60.838
G01 F600 X115.319 Y60.773
G01 F600 X115.631 Y60.773
G01 F600 X115.936 Y60.838
G01 F600 X116.220 Y60.965
G01 F600 X116.472 Y61.148
G01 F600 X116.681 Y61.379
G01 F600 X116.745 Y61.491
G01 F600 X116.809 Y61.379
G01 F600 X117.018 Y61.148
G01 F600 X117.270 Y60.965
G01 F600 X117.554 Y60.838
G01 F600 X117.859 Y60.773
G01 F600 X118.171 Y60.773
G01 F600 X118.476 Y60.838
G01 F600 X118.760 Y60.965
G01 F600 X118.966 Y61.114
G01 F600 X120.452 Y61.114
G01 F600 X120.452 Y49.147
G01 F600 X119.632 Y49.147
G01 F600 X119.580 Y49.205
G01 F600 X119.313 Y49.399
G01 F600 X119.011 Y49.534
G01 F600 X118.688 Y49.602
G01 F600 X118.358 Y49.602
G01 F600 X118.035 Y49.534
G01 F600 X117.733 Y49.399
G01 F600 X117.466 Y49.205
G01 F600 X117.245 Y48.960
G01 F600 X117.080 Y48.674
G01 F600 X116.978 Y48.360
G01 F600 X116.944 Y48.031
G01 F600 X116.978 Y47.703
G01 F600 X117.080 Y47.389
G01 F600 X117.245 Y47.103
G01 F600 X117.466 Y46.858
G01 F600 X117.599 Y46.761
G01 F600 X117.466 Y46.665
G01 F600 X117.437 Y46.633
G01 F600 X111.539 Y46.633
G01 F600 X111.539 Y53.648
G01 F600 X111.535 Y53.687
G01 F600 X111.601 Y53.759
G01 F600 X111.665 Y53.870
G01 F600 X111.729 Y53.759
G01 F600 X111.938 Y53.528
G01 F600 X112.190 Y53.345
G01 F600 X112.474 Y53.218
G01 F600 X112.779 Y53.153
G01 F600 X113.091 Y53.153
G01 F600 X113.395 Y53.218
G01 F600 X113.680 Y53.345
G01 F600 X113.932 Y53.528
G01 F600 X114.141 Y53.759
G01 F600 X114.205 Y53.870
G01 F600 X114.269 Y53.759
G01 F600 X114.478 Y53.528
G01 F600 X114.730 Y53.345
G01 F600 X115.014 Y53.218
G01 F600 X115.319 Y53.153
G01 F600 X115.631 Y53.153
G01 F600 X115.936 Y53.218
G01 F600 X116.220 Y53.345
G01 F600 X116.472 Y53.528
G01 F600 X116.527 Y53.589
G01 F600 X116.527 Y53.148
G01 F600 X119.502 Y53.148
G01 F600 X119.502 Y56.123
G01 F600 X116.527 Y56.123
G01 F600 X116.527 Y55.682
G01 F600 X116.472 Y55.743
G01 F600 X116.220 Y55.926
G01 F600 X115.936 Y56.053
G01 F600 X115.631 Y56.118
G01 F600 X115.319 Y56.118
G01 F600 X115.014 Y56.053
G01 F600 X114.730 Y55.926
G01 F600 X114.478 Y55.743
G01 F600 X114.269 Y55.512
G01 F600 X114.205 Y55.400
G01 F600 X114.141 Y55.512
G01 F600 X113.932 Y55.743
G01 F600 X113.680 Y55.926
G01 F600 X113.395 Y56.053
G01 F600 X113.091 Y56.118
G01 F600 X112.779 Y56.118
G01 F600 X112.474 Y56.053
G01 F600 X112.190 Y55.926
G01 F600 X111.938 Y55.743
G01 F600 X111.729 Y55.512
G01 F600 X111.665 Y55.400
G01 F600 X111.601 Y55.512
G01 F600 X111.392 Y55.743
G01 F600 X111.140 Y55.926
G01 F600 X110.856 Y56.053
G01 F600 X110.551 Y56.118
G01 F600 X110.239 Y56.118
G01 F600 X109.934 Y56.053
G01 F600 X109.650 Y55.926
G01 F600 X109.398 Y55.743
G01 F600 X109.189 Y55.512
G01 F600 X109.033 Y55.242
G01 F600 X108.937 Y54.945
G01 F600 X108.904 Y54.635
G01 F600 X108.937 Y54.326
G01 F600 X109.033 Y54.029
G01 F600 X109.189 Y53.759
G01 F600 X109.254 Y53.687
G01 F600 X109.250 Y53.647
G01 F600 X109.250 Y46.634
G01 F600 X70.937 Y46.682
G01 F600 X70.927 Y47.488
G01 F600 X71.105 Y47.358
G01 F600 X71.366 Y47.243
G01 F600 X71.644 Y47.183
G01 F600 X71.929 Y47.183
G01 F600 X72.208 Y47.243
G01 F600 X72.469 Y47.358
G01 F600 X72.699 Y47.526
G01 F600 X72.777 Y47.613
G01 F600 X72.856 Y47.526
G01 F600 X73.086 Y47.358
G01 F600 X73.347 Y47.243
G01 F600 X73.626 Y47.183
G01 F600 X73.910 Y47.183
G01 F600 X74.189 Y47.243
G01 F600 X74.450 Y47.358
G01 F600 X74.512 Y47.404
G01 F600 X74.537 Y47.398
G01 F600 X74.726 Y47.398
G01 F600 X102.951 Y47.933
G01 F600 X103.180 Y47.981
G01 F600 X103.400 Y48.079
G01 F600 X103.594 Y48.220
G01 F600 X103.754 Y48.398
G01 F600 X103.849 Y48.564
G01 F600 X109.018 Y58.092
G01 F600 X113.029 Y58.092
G01 F600 X113.264 Y58.141
G01 F600 X113.483 Y58.239
G01 F600 X113.677 Y58.380
G01 F600 X113.838 Y58.558
G01 F600 X113.958 Y58.766
G01 F600 X114.032 Y58.994
G01 F600 X114.054 Y59.205
G01 F600 X114.054 Y61.268
G01 F600 X114.053 Y61.282
G01 F600 X114.141 Y61.379
G01 F600 X114.205 Y61.491
G00 F3000 Z3.000
G00 F3000 X31.111 Y52.474
G00 F1500 Z0
G01 F600 Z-0.200
G01 F600 X33.025 Y52.461
G01 F600 X33.025 Y49.608
G01 F600 X32.870 Y49.720
G01 F600 X32.609 Y49.836
G01 F600 X32.331 Y49.895
G01 F600 X32.046 Y49.895
G01 F600 X31.767 Y49.836
G01 F600 X31.506 Y49.720
G01 F600 X31.276 Y49.553
G01 F600 X31.185 Y49.452
G01 F600 X31.094 Y49.553
G01 F600 X30.863 Y49.720
G01 F600 X30.603 Y49.836
G01 F600 X30.324 Y49.895
G01 F600 X30.039 Y49.895
G01 F600 X29.760 Y49.836
G01 F600 X29.500 Y49.720
G01 F600 X29.269 Y49.553
G01 F600 X29.079 Y49.341
G01 F600 X28.936 Y49.094
G01 F600 X28.848 Y48.823
G01 F600 X28.818 Y48.539
G01 F600 X28.848 Y48.256
G01 F600 X28.936 Y47.985
G01 F600 X29.049 Y47.790
G01 F600 X29.037 Y47.679
G01 F600 X29.012 Y40.867
G01 F600 X29.034 Y40.655
G01 F600 X29.108 Y40.427
G01 F600 X29.228 Y40.220
G01 F600 X29.358 Y40.075
G01 F600 X52.156 Y16.794
G01 F600 X52.190 Y16.769
G01 F600 X52.191 Y16.760
G01 F600 X52.279 Y16.489
G01 F600 X52.421 Y16.242
G01 F600 X52.612 Y16.030
G01 F600 X52.842 Y15.863
G01 F600 X53.103 Y15.747
G01 F600 X53.382 Y15.687
G01 F600 X53.667 Y15.687
G01 F600 X53.945 Y15.747
G01 F600 X54.206 Y15.863
G01 F600 X54.387 Y15.994
G01 F600 X54.404 Y13.664
G01 F600 X52.946 Y13.664
G01 F600 X28.760 Y38.814
G01 F600 X28.736 Y50.099
G01 F600 X31.111 Y52.474
G00 F3000 Z3.000
G00 F3000 X35.314 Y52.453
G00 F1500 Z0
G01 F600 Z-0.200
G01 F600 X70.624 Y52.453
G01 F600 X70.641 Y49.590
G01 F600 X70.462 Y49.720
G01 F600 X70.201 Y49.836
G01 F600 X69.923 Y49.895
G01 F600 X69.638 Y49.895
G01 F600 X69.359 Y49.836
G01 F600 X69.098 Y49.720
G01 F600 X68.868 Y49.553
G01 F600 X68.777 Y49.452
G01 F600 X68.686 Y49.553
G01 F600 X68.455 Y49.720
G01 F600 X68.195 Y49.836
G01 F600 X67.916 Y49.895
G01 F600 X67.631 Y49.895
G01 F600 X67.352 Y49.836
G01 F600 X67.092 Y49.720
G01 F600 X67.036 Y49.680
G01 F600 X67.030 Y49.681
G01 F600 X36.945 Y49.681
G01 F600 X36.920 Y49.675
G01 F600 X36.858 Y49.720
G01 F600 X36.597 Y49.836
G01 F600 X36.319 Y49.895
G01 F600 X36.034 Y49.895
G01 F600 X35.755 Y49.836
G01 F600 X35.494 Y49.720
G01 F600 X35.314 Y49.589
G01 F600 X35.314 Y52.453
G00 F3000 Z3.000
G00 F3000 X35.185 Y47.613
G00 F1500 Z0
G01 F600 Z-0.200
G01 F600 X35.264 Y47.526
G01 F600 X35.494 Y47.358
G01 F600 X35.755 Y47.243
G01 F600 X36.034 Y47.183
G01 F600 X36.319 Y47.183
G01 F600 X36.597 Y47.243
G01 F600 X36.858 Y47.358
G01 F600 X36.920 Y47.404
G01 F600 X36.945 Y47.398
G01 F600 X67.030 Y47.398
G01 F600 X67.036 Y47.399
G01 F600 X67.092 Y47.358
G01 F600 X67.352 Y47.243
G01 F600 X67.631 Y47.183
G01 F600 X67.916 Y47.183
G01 F600 X68.195 Y47.243
G01 F600 X68.455 Y47.358
G01 F600 X68.600 Y47.464
G01 F600 X68.532 Y46.147
G01 F600 X56.736 Y33.658
G01 F600 X56.609 Y33.517
G01 F600 X56.489 Y33.309
G01 F600 X56.415 Y33.081
G01 F600 X56.393 Y32.870
G01 F600 X56.393 Y23.342
G01 F600 X33.333 Y46.471
G01 F600 X33.333 Y47.490
G01 F600 X33.513 Y47.358
G01 F600 X33.774 Y47.243
G01 F600 X34.052 Y47.183
G01 F600 X34.337 Y47.183
G01 F600 X34.616 Y47.243
G01 F600 X34.877 Y47.358
G01 F600 X35.107 Y47.526
G01 F600 X35.185 Y47.613
G00 F3000 Z3.000
G00 F3000 X31.317 Y45.261
G00 F1500 Z0
G01 F600 Z-0.200
G01 F600 X31.392 Y45.178
G01 F600 X56.388 Y20.107
G01 F600 X56.369 Y18.110
G01 F600 X56.213 Y18.224
G01 F600 X55.952 Y18.340
G01 F600 X55.673 Y18.399
G01 F600 X55.388 Y18.399
G01 F600 X55.110 Y18.340
G01 F600 X54.849 Y18.224
G01 F600 X54.618 Y18.056
G01 F600 X54.528 Y17.956
G01 F600 X54.437 Y18.056
G01 F600 X54.206 Y18.224
G01 F600 X53.945 Y18.340
G01 F600 X53.805 Y18.370
G01 F600 X53.713 Y18.472
G01 F600 X31.303 Y41.358
G01 F600 X31.317 Y45.261
G00 F3000 Z3.000
G00 F3000 X111.920 Y44.350
G00 F1500 Z0
G01 F600 Z-0.200
G01 F600 X112.339 Y44.350
G01 F600 X112.170 Y44.275
G01 F600 X111.920 Y44.093
G01 F600 X111.920 Y44.350
G00 F3000 Z3.000
G00 F3000 X113.531 Y44.350
G00 F1500 Z0
G01 F600 Z-0.200
G01 F600 X116.956 Y44.350
G01 F600 X116.949 Y44.093
G01 F600 X113.950 Y44.093
G01 F600 X113.699 Y44.275
G01 F600 X113.531 Y44.350
G00 F3000 Z3.000
G00 F3000 Z3.000
G00 F3000 X0.000 Y0.000
M05
M30
%